csirois14/go1-deploy/joint_angles.csv
Timestamp,Joint 1 Angle,Joint 2 Angle,Joint 3 Angle,Joint 4 Angle,Joint 5 Angle,Joint 6 Angle,Joint 7 Angle,Joint 8 Angle,Joint 9 Angle,Joint 10 Angle,Joint 11 Angle,Joint 12 Angle,Desired Joint 1 Angle,Desired Joint 2 Angle,Desired Joint 3 Angle,Desired Joint 4 Angle,Desired Joint 5 Angle,Desired Joint 6 Angle,Desired Joint 7 Angle,Desired Joint 8 Angle,Desired Joint 9 Angle,Desired Joint 10 Angle,Desired Joint 11 Angle,Desired Joint 12 Angle
1101,0.09488977491855621,-0.09222535789012909,0.09464755654335022,-0.0913170576095581,0.821792721748352,0.8157371878623962,1.0023678541183472,1.0070911645889282,-1.565186858177185,-1.5610690116882324,-1.5377755165100098,-1.5397132635116577,-0.0146721750497818,0.2564297616481781,-0.019337810575962067,-0.055470455437898636,0.5207350254058838,0.5183467864990234,0.9950743913650513,1.0680617094039917,-1.3681920766830444,-1.0842257738113403,-1.5340758562088013,-1.752645492553711
1102,0.09488977491855621,-0.09222535789012909,0.09464755654335022,-0.0913170576095581,0.821792721748352,0.8157371878623962,1.0023678541183472,1.0070911645889282,-1.565186858177185,-1.5610690116882324,-1.5377755165100098,-1.5397132635116577,0.18012133240699768,0.199812650680542,-0.12038842588663101,-0.13165408372879028,0.5377680063247681,0.36935511231422424,1.0009421110153198,1.1076631546020508,-1.545684576034546,-0.6407438516616821,-1.4675981998443604,-1.7986501455307007
1103,0.09488977491855621,-0.09222535789012909,0.09464755654335022,-0.0913170576095581,0.821792721748352,0.8157371878623962,1.0023678541183472,1.0070911645889282,-1.565186858177185,-1.5610690116882324,-1.5377755165100098,-1.5397132635116577,0.21409010887145996,0.09081458300352097,-0.15369638800621033,-0.1931062638759613,0.6157097220420837,0.43756887316703796,1.0375497341156006,1.1294419765472412,-1.7098594903945923,-0.6515631079673767,-1.5121513605117798,-1.8888938426971436
1104,0.09379978477954865,-0.09095370024442673,0.09361812472343445,-0.08919757604598999,0.8263343572616577,0.8194916248321533,1.003033995628357,1.0086051225662231,-1.5728167295455933,-1.568456768989563,-1.5426603555679321,-1.5442347526550293,0.17760160565376282,0.09974617511034012,-0.19759884476661682,-0.2608674168586731,0.677314281463623,0.4693969190120697,1.0163027048110962,1.1572686433792114,-1.789930820465088,-0.6799843907356262,-1.48280930519104,-1.9512255191802979
1105,0.09749364852905273,-0.09149869531393051,0.09731198102235794,-0.08635151386260986,0.8834377527236938,0.8736883997917175,1.0476025342941284,1.0537185668945312,-1.6887998580932617,-1.6759217977523804,-1.6257822513580322,-1.6239656209945679,0.15789146721363068,0.1360073983669281,-0.21286138892173767,-0.3240548074245453,0.7182511687278748,0.5857518911361694,1.064034104347229,1.177882432937622,-1.889174461364746,-0.7282198071479797,-1.4211785793304443,-2.024503707885742
1106,0.11263240873813629,-0.10330693423748016,0.10433636605739594,-0.08689653873443604,1.011875033378601,0.9888641238212585,1.147033929824829,1.1475183963775635,-1.909583568572998,-1.8816475868225098,-1.7833061218261719,-1.7638074159622192,0.15970802307128906,0.1255192756652832,-0.15545979142189026,-0.36647918820381165,0.8368037343025208,0.7984733581542969,1.1913851499557495,1.2176125049591064,-1.9975254535675049,-0.9709548354148865,-1.4720232486724854,-2.179551601409912
1107,0.12286621332168579,-0.14127495884895325,0.10457858443260193,-0.10427582263946533,1.1671987771987915,1.124870777130127,1.2671146392822266,1.2507647275924683,-2.1254422664642334,-2.0767154693603516,-1.9206854104995728,-1.880961298942566,0.1620854139328003,0.14316731691360474,-0.16153070330619812,-0.3555975556373596,0.9033814668655396,0.9354943037033081,1.3333512544631958,1.2576146125793457,-2.0405542850494385,-1.1998445987701416,-1.5918769836425781,-2.3545799255371094
1108,0.1636803299188614,-0.14811767637729645,0.060433950275182724,-0.25081902742385864,1.1108219623565674,1.1037976741790771,1.2632997035980225,1.1780381202697754,-2.202387571334839,-2.0604465007781982,-1.906999945640564,-2.0539872646331787,0.04155556485056877,0.09206492453813553,-0.015979133546352386,-0.4555727541446686,0.9913752675056458,1.0570108890533447,1.2619261741638184,1.193540334701538,-1.9806547164916992,-1.8113601207733154,-1.817620873451233,-2.208583354949951
1109,0.15810926258563995,-0.13001170754432678,0.06061561405658722,-0.2996869683265686,1.058805227279663,1.0781222581863403,1.273048996925354,1.1837302446365356,-2.1625826358795166,-2.017775297164917,-1.9088972806930542,-2.189146041870117,0.02658764272928238,0.06740378588438034,0.06466979533433914,-0.43052834272384644,0.9808750748634338,1.0210038423538208,1.2020342350006104,1.2564555406570435,-1.875184416770935,-1.8966875076293945,-1.9027701616287231,-2.225332498550415
1110,0.13812609016895294,-0.08786538988351822,0.07115219533443451,-0.3813152313232422,1.0412442684173584,1.0735200643539429,1.2705662250518799,1.1908152103424072,-2.1137752532958984,-1.999729871749878,-1.9150335788726807,-2.2576136589050293,0.022750630974769592,0.09650895744562149,0.07848668843507767,-0.4341652989387512,1.0552983283996582,0.9853010177612305,1.1476774215698242,1.3007605075836182,-1.8322696685791016,-2.018787145614624,-1.895254373550415,-2.196664571762085
1111,0.13509833812713623,-0.05552899092435837,0.07520938664674759,-0.43381643295288086,1.0385798215866089,1.0581390857696533,1.2792861461639404,1.2190945148468018,-2.0676727294921875,-1.9829763174057007,-1.921573519706726,-2.2615296840667725,0.08805195987224579,0.12148266285657883,0.07290757447481155,-0.3713719844818115,1.055052399635315,0.9935917854309082,1.1584553718566895,1.340665340423584,-1.8043349981307983,-2.0765957832336426,-1.8871310949325562,-2.209301233291626
1112,0.12692341208457947,-0.014048773795366287,0.07460383325815201,-0.43726807832717896,1.037489891052246,1.041062593460083,1.287582278251648,1.2612407207489014,-2.04542875289917,-1.9976710081100464,-1.9275482892990112,-2.2431209087371826,0.107609324157238,0.14744514226913452,0.06748590618371964,-0.30618607997894287,1.106258511543274,1.003902792930603,1.1781584024429321,1.3682104349136353,-1.8424015045166016,-2.032438278198242,-1.8632829189300537,-2.2021360397338867
1113,0.11802180856466293,0.04390241950750351,0.06763999909162521,-0.4014800190925598,1.0327060222625732,1.0195655822753906,1.2938799858093262,1.307565450668335,-2.0355381965637207,-2.026010751724243,-1.9376407861709595,-2.226205825805664,0.11821313947439194,0.18880581855773926,0.047012172639369965,-0.25882938504219055,1.1683084964752197,1.0275059938430786,1.2301586866378784,1.3631213903427124,-1.9232760667800903,-1.9287598133087158,-1.8399467468261719,-2.1838583946228027
1114,0.1022774949669838,0.0919831320643425,0.05649787187576294,-0.3493421673774719,1.0322215557098389,1.004668951034546,1.2975132465362549,1.343232274055481,-2.039898157119751,-2.041149616241455,-1.9475314617156982,-2.215507745742798,0.1231546550989151,0.21863076090812683,0.028701968491077423,-0.23409295082092285,1.1865129470825195,1.0401597023010254,1.265970230102539,1.371402382850647,-2.0159854888916016,-1.8131486177444458,-1.8595681190490723,-2.2114577293395996
1115,0.09755419939756393,0.08962148427963257,0.04529518634080887,-0.2781899571418762,1.0427581071853638,1.0056984424591064,1.3076260089874268,1.360248327255249,-2.062666893005371,-2.051201820373535,-1.9680393934249878,-2.205253839492798,0.20414330065250397,0.3008801341056824,-0.09501460939645767,-0.18757419288158417,1.0656986236572266,1.0012458562850952,1.2215476036071777,1.4257522821426392,-2.0052804946899414,-1.6898537874221802,-1.7621219158172607,-2.34185791015625
1116,0.1159629374742508,0.09052981436252594,0.03972411900758743,-0.21309328079223633,1.0600162744522095,1.0062434673309326,1.32948637008667,1.3628522157669067,-2.095407009124756,-2.0514843463897705,-2.0025155544281006,-2.209815502166748,0.23510372638702393,0.3623771667480469,-0.11802307516336441,-0.20259253680706024,1.0081629753112793,0.9517885446548462,1.230710506439209,1.4063446521759033,-1.995813012123108,-1.6161142587661743,-1.7234587669372559,-2.357508659362793
1117,0.14066940546035767,0.10397303849458694,0.048565156757831573,-0.16616308689117432,1.0539002418518066,1.0052745342254639,1.3570388555526733,1.365698218345642,-2.1123218536376953,-2.062828302383423,-2.0371530055999756,-2.2557566165924072,0.24198812246322632,0.3579864799976349,-0.10544969886541367,-0.19771434366703033,1.00509512424469,0.9758194088935852,1.2461879253387451,1.4032795429229736,-2.0317940711975098,-1.5271910429000854,-1.6950486898422241,-2.3403162956237793
1118,0.15489983558654785,0.11105798184871674,0.05347011610865593,-0.1502370834350586,1.053476333618164,1.0070306062698364,1.3769614696502686,1.3647899627685547,-2.1285910606384277,-2.0727593898773193,-2.0631916522979736,-2.299800395965576,0.24209830164909363,0.36579158902168274,-0.08277901262044907,-0.20618072152137756,1.0272443294525146,1.0202372074127197,1.2436559200286865,1.4217146635055542,-2.0552000999450684,-1.5568536520004272,-1.6619610786437988,-2.354125499725342
1119,0.17094692587852478,0.11832458525896072,0.06273504346609116,-0.14745157957077026,1.0532341003417969,1.0067883729934692,1.3925846815109253,1.365395426750183,-2.1406214237213135,-2.079218626022339,-2.0862832069396973,-2.3301990032196045,0.2355031967163086,0.35916072130203247,-0.053368546068668365,-0.1946782022714615,1.077068567276001,1.0389409065246582,1.2508313655853271,1.4502897262573242,-2.0845978260040283,-1.602338433265686,-1.6854537725448608,-2.374812364578247
1120,0.1806962937116623,0.13455334305763245,0.07212107628583908,-0.1498737931251526,1.0538396835327148,1.0044872760772705,1.3986401557922363,1.371390461921692,-2.1432454586029053,-2.08927059173584,-2.099524736404419,-2.339887857437134,0.20182324945926666,0.32906630635261536,-0.0102333202958107,-0.17458176612854004,1.1576719284057617,1.0485655069351196,1.2715940475463867,1.4663093090057373,-2.14510178565979,-1.6016520261764526,-1.7590148448944092,-2.362084150314331
1121,0.18529848754405975,0.14387881755828857,0.07757103443145752,-0.14805710315704346,1.0600162744522095,0.9956462979316711,1.3977924585342407,1.389435887336731,-2.146475076675415,-2.0922985076904297,-2.107154607772827,-2.3459434509277344,0.17200198769569397,0.3100857436656952,0.024699822068214417,-0.15672315657138824,1.2023138999938965,1.0742048025131226,1.2829184532165527,1.4908440113067627,-2.1577646732330322,-1.6401300430297852,-1.812609076499939,-2.3608784675598145
1122,0.1840268224477768,0.15205375850200653,0.0882287248969078,-0.14139604568481445,1.0755183696746826,0.9881374835968018,1.394885778427124,1.414868950843811,-2.1539435386657715,-2.0931057929992676,-2.114300012588501,-2.345095634460449,0.13440197706222534,0.29729294776916504,0.039771050214767456,-0.1283280849456787,1.2450735569000244,1.0555707216262817,1.29511296749115,1.5124876499176025,-2.1622426509857178,-1.6279375553131104,-1.8542823791503906,-2.347411632537842
1123,0.17421691119670868,0.16392254829406738,0.10469970107078552,-0.13164669275283813,1.1150003671646118,0.9823241829872131,1.3944013118743896,1.4442987442016602,-2.1607658863067627,-2.0930655002593994,-2.1215667724609375,-2.3447322845458984,0.0898616760969162,0.30199384689331055,0.04702731966972351,-0.1050182655453682,1.2937169075012207,1.0416074991226196,1.3211078643798828,1.5231529474258423,-2.1665310859680176,-1.612977147102356,-1.8740280866622925,-2.317795753479004
1124,0.15780648589134216,0.17197637259960175,0.11420684307813644,-0.12123125791549683,1.1548455953598022,0.9812947511672974,1.3960363864898682,1.4680968523025513,-2.1697280406951904,-2.092944383621216,-2.1295599937438965,-2.3445303440093994,0.06883075088262558,0.3083699345588684,0.04958651214838028,-0.09780009835958481,1.307685136795044,1.0341655015945435,1.3400286436080933,1.5244536399841309,-2.1595897674560547,-1.6240729093551636,-1.872753381729126,-2.303231954574585
1125,0.15780648589134216,0.17197637259960175,0.11420684307813644,-0.12123125791549683,1.1548455953598022,0.9812947511672974,1.3960363864898682,1.4680968523025513,-2.1697280406951904,-2.092944383621216,-2.1295599937438965,-2.3445303440093994,0.060325440019369125,0.31432077288627625,0.05080336332321167,-0.09511198103427887,1.3052922487258911,1.0241693258285522,1.3555843830108643,1.5167344808578491,-2.143198013305664,-1.6414422988891602,-1.8775293827056885,-2.28794002532959
1126,0.15780648589134216,0.17197637259960175,0.11420684307813644,-0.12123125791549683,1.1548455953598022,0.9812947511672974,1.3960363864898682,1.4680968523025513,-2.1697280406951904,-2.092944383621216,-2.1295599937438965,-2.3445303440093994,0.05756298080086708,0.3171849250793457,0.054696716368198395,-0.08965100347995758,1.299523115158081,1.0197516679763794,1.3681468963623047,1.5125094652175903,-2.1257288455963135,-1.660097360610962,-1.8834373950958252,-2.274301528930664
1127,0.15780648589134216,0.17197637259960175,0.11420684307813644,-0.12123125791549683,1.1548455953598022,0.9812947511672974,1.3960363864898682,1.4680968523025513,-2.1697280406951904,-2.092944383621216,-2.1295599937438965,-2.3445303440093994,0.05652385577559471,0.31843313574790955,0.05934855341911316,-0.08221571147441864,1.29396653175354,1.0167138576507568,1.3796041011810303,1.5108814239501953,-2.1075856685638428,-1.6776697635650635,-1.8887122869491577,-2.2625670433044434
1128,0.15780648589134216,0.17197637259960175,0.11420684307813644,-0.12123125791549683,1.1548455953598022,0.9812947511672974,1.3960363864898682,1.4680968523025513,-2.1697280406951904,-2.092944383621216,-2.1295599937438965,-2.3445303440093994,0.05613139644265175,0.31827807426452637,0.06499174982309341,-0.07395922392606735,1.288467288017273,1.01401686668396,1.389786720275879,1.5103875398635864,-2.0885543823242188,-1.6946048736572266,-1.8929349184036255,-2.2519636154174805
1129,0.15780648589134216,0.17197637259960175,0.11420684307813644,-0.12123125791549683,1.1548455953598022,0.9812947511672974,1.3960363864898682,1.4680968523025513,-2.1697280406951904,-2.092944383621216,-2.1295599937438965,-2.3445303440093994,0.056360308080911636,0.3168308734893799,0.07176899164915085,-0.06522148102521896,1.282824993133545,1.011294960975647,1.3985304832458496,1.5106638669967651,-2.068063735961914,-1.7119386196136475,-1.8961807489395142,-2.242198944091797
1130,0.15780648589134216,0.17197637259960175,0.11420684307813644,-0.12123125791549683,1.1548455953598022,0.9812947511672974,1.3960363864898682,1.4680968523025513,-2.1697280406951904,-2.092944383621216,-2.1295599937438965,-2.3445303440093994,0.05705716460943222,0.3141738176345825,0.07982492446899414,-0.055899813771247864,1.276643991470337,1.008661150932312,1.4060639142990112,1.5114437341690063,-2.0455989837646484,-1.730428695678711,-1.8986824750900269,-2.2329649925231934
1131,0.15780648589134216,0.17197637259960175,0.11420684307813644,-0.12123125791549683,1.1548455953598022,0.9812947511672974,1.3960363864898682,1.4680968523025513,-2.1697280406951904,-2.092944383621216,-2.1295599937438965,-2.3445303440093994,0.057671934366226196,0.31033822894096375,0.08960361033678055,-0.04573242366313934,1.2693774700164795,1.0061546564102173,1.4125990867614746,1.5122569799423218,-2.0208399295806885,-1.750805377960205,-1.9008866548538208,-2.2237625122070312
1132,0.15780648589134216,0.17197637259960175,0.11420684307813644,-0.12123125791549683,1.1548455953598022,0.9812947511672974,1.3960363864898682,1.4680968523025513,-2.1697280406951904,-2.092944383621216,-2.1295599937438965,-2.3445303440093994,0.05774398148059845,0.30508676171302795,0.1020432710647583,-0.03441620618104935,1.2602444887161255,1.003769874572754,1.4182331562042236,1.51272451877594,-1.9928345680236816,-1.7740038633346558,-1.9035749435424805,-2.2142162322998047
1133,0.15780648589134216,0.17197637259960175,0.11420684307813644,-0.12123125791549683,1.1548455953598022,0.9812947511672974,1.3960363864898682,1.4680968523025513,-2.1697280406951904,-2.092944383621216,-2.1295599937438965,-2.3445303440093994,0.056601811200380325,0.29789087176322937,0.11895706504583359,-0.02136892080307007,1.2478272914886475,1.0019848346710205,1.423138976097107,1.5122690200805664,-1.9599822759628296,-1.8019415140151978,-1.9078415632247925,-2.2038626670837402
1134,0.15780648589134216,0.17197637259960175,0.11420684307813644,-0.12123125791549683,1.1548455953598022,0.9812947511672974,1.3960363864898682,1.4680968523025513,-2.1697280406951904,-2.092944383621216,-2.1295599937438965,-2.3445303440093994,0.05289149284362793,0.2878294885158539,0.1431528925895691,-0.004682749509811401,1.2302542924880981,1.002368688583374,1.4278326034545898,1.509501576423645,-1.918613076210022,-1.838018774986267,-1.914994478225708,-2.1915574073791504
1135,0.15780648589134216,0.17197637259960175,0.11420684307813644,-0.12123125791549683,1.1548455953598022,0.9812947511672974,1.3960363864898682,1.4680968523025513,-2.1697280406951904,-2.092944383621216,-2.1295599937438965,-2.3445303440093994,0.04238760471343994,0.27271395921707153,0.1815594732761383,0.01986883580684662,1.2019410133361816,1.009124994277954,1.433332920074463,1.4996070861816406,-1.8605715036392212,-1.8888435363769531,-1.928193211555481,-2.174708127975464
1136,0.15780648589134216,0.17197637259960175,0.11420684307813644,-0.12123125791549683,1.1548455953598022,0.9812947511672974,1.3960363864898682,1.4680968523025513,-2.1697280406951904,-2.092944383621216,-2.1295599937438965,-2.3445303440093994,0.02500920742750168,0.24468693137168884,0.24251720309257507,0.05815168470144272,1.1477162837982178,1.029584527015686,1.439827561378479,1.4756898880004883,-1.7682178020477295,-1.966647744178772,-1.9560965299606323,-2.1479060649871826
1137,0.15780648589134216,0.17197637259960175,0.11420684307813644,-0.12123125791549683,1.1548455953598022,0.9812947511672974,1.3960363864898682,1.4680968523025513,-2.1697280406951904,-2.092944383621216,-2.1295599937438965,-2.3445303440093994,-0.014251001179218292,0.20767229795455933,0.34013500809669495,0.09536954015493393,1.0656660795211792,1.0631872415542603,1.438191533088684,1.4450218677520752,-1.6338269710540771,-2.0879619121551514,-2.017993927001953,-2.1053595542907715
1138,0.15780648589134216,0.17197637259960175,0.11420684307813644,-0.12123125791549683,1.1548455953598022,0.9812947511672974,1.3960363864898682,1.4680968523025513,-2.1697280406951904,-2.092944383621216,-2.1295599937438965,-2.3445303440093994,-0.06540454179048538,0.1764654815196991,0.47442397475242615,0.08604475110769272,0.9783312082290649,1.114789605140686,1.415566325187683,1.4096319675445557,-1.4875284433364868,-2.2220993041992188,-2.0932576656341553,-2.062748432159424
1139,0.15780648589134216,0.17197637259960175,0.11420684307813644,-0.12123125791549683,1.1548455953598022,0.9812947511672974,1.3960363864898682,1.4680968523025513,-2.1697280406951904,-2.092944383621216,-2.1295599937438965,-2.3445303440093994,-0.09374874085187912,0.1331353783607483,0.5741242170333862,0.060899607837200165,0.914105236530304,1.1358435153961182,1.4120824337005615,1.3708831071853638,-1.3929290771484375,-2.2965173721313477,-2.159297227859497,-2.0469250679016113
1140,0.15780648589134216,0.17197637259960175,0.11420684307813644,-0.12123125791549683,1.1548455953598022,0.9812947511672974,1.3960363864898682,1.4680968523025513,-2.1697280406951904,-2.092944383621216,-2.1295599937438965,-2.3445303440093994,-0.1053188368678093,0.09554571658372879,0.6171820163726807,0.056276850402355194,0.8798025250434875,1.1290783882141113,1.4201217889785767,1.3458837270736694,-1.3406236171722412,-2.333137035369873,-2.202080726623535,-2.0413994789123535
1141,0.15780648589134216,0.17197637259960175,0.11420684307813644,-0.12123125791549683,1.1548455953598022,0.9812947511672974,1.3960363864898682,1.4680968523025513,-2.1697280406951904,-2.092944383621216,-2.1295599937438965,-2.3445303440093994,-0.1114872470498085,0.07468869537115097,0.6336891651153564,0.058041684329509735,0.8583859801292419,1.118444561958313,1.4249346256256104,1.3289086818695068,-1.3095760345458984,-2.3520359992980957,-2.2257299423217773,-2.0421862602233887
1142,0.15780648589134216,0.17197637259960175,0.11420684307813644,-0.12123125791549683,1.1548455953598022,0.9812947511672974,1.3960363864898682,1.4680968523025513,-2.1697280406951904,-2.092944383621216,-2.1295599937438965,-2.3445303440093994,-0.11476557701826096,0.06426023691892624,0.6409051418304443,0.05983882397413254,0.8461264371871948,1.110521912574768,1.4268375635147095,1.31881844997406,-1.2921427488327026,-2.3621487617492676,-2.2371435165405273,-2.0438833236694336
1143,0.15780648589134216,0.17197637259960175,0.11420684307813644,-0.12123125791549683,1.1548455953598022,0.9812947511672974,1.3960363864898682,1.4680968523025513,-2.1697280406951904,-2.092944383621216,-2.1295599937438965,-2.3445303440093994,-0.11640138179063797,0.059268318116664886,0.6446847915649414,0.06072445958852768,0.8396604657173157,1.106215238571167,1.4280362129211426,1.3133028745651245,-1.2829471826553345,-2.3679234981536865,-2.2426674365997314,-2.04494571685791
1144,0.15780648589134216,0.17197637259960175,0.11420684307813644,-0.12123125791549683,1.1548455953598022,0.9812947511672974,1.3960363864898682,1.4680968523025513,-2.1697280406951904,-2.092944383621216,-2.1295599937438965,-2.3445303440093994,-0.11727384477853775,0.056826286017894745,0.6466938853263855,0.06130336970090866,0.836158037185669,1.1040065288543701,1.428807258605957,1.3102827072143555,-1.278132677078247,-2.3710503578186035,-2.2455193996429443,-2.045497417449951
1145,0.15780648589134216,0.17197637259960175,0.11420684307813644,-0.12123125791549683,1.1548455953598022,0.9812947511672974,1.3960363864898682,1.4680968523025513,-2.1697280406951904,-2.092944383621216,-2.1295599937438965,-2.3445303440093994,-0.11772207170724869,0.05558150261640549,0.64775550365448,0.06163614243268967,0.8342773914337158,1.1028372049331665,1.4292858839035034,1.3086074590682983,-1.2755861282348633,-2.372682571411133,-2.2470321655273438,-2.0457727909088135
1146,0.15780648589134216,0.17197637259960175,0.11420684307813644,-0.12123125791549683,1.1548455953598022,0.9812947511672974,1.3960363864898682,1.4680968523025513,-2.1697280406951904,-2.092944383621216,-2.1295599937438965,-2.3445303440093994,-0.11794624477624893,0.054931141436100006,0.6483065485954285,0.06180720776319504,0.8332822322845459,1.1022013425827026,1.4295852184295654,1.3076823949813843,-1.274233102798462,-2.373534679412842,-2.247863292694092,-2.045903205871582
1147,0.15780648589134216,0.17197637259960175,0.11420684307813644,-0.12123125791549683,1.1548455953598022,0.9812947511672974,1.3960363864898682,1.4680968523025513,-2.1697280406951904,-2.092944383621216,-2.1295599937438965,-2.3445303440093994,-0.11805564910173416,0.054583556950092316,0.6485837697982788,0.06189330667257309,0.832756519317627,1.1018463373184204,1.4297783374786377,1.3071694374084473,-1.2735071182250977,-2.373980760574341,-2.2483394145965576,-2.04595947265625
1148,0.09464755654335022,0.17954574525356293,0.14545325934886932,-0.09046924114227295,1.2555485963821411,0.9861391186714172,1.4036056995391846,1.5064888000488281,-2.19116473197937,-2.093024969100952,-2.1430435180664062,-2.324789524078369,-0.08615357428789139,0.09758266061544418,0.6533491015434265,0.04187040776014328,0.942379355430603,1.1129037141799927,1.4198570251464844,1.373745083808899,-1.334102988243103,-2.3696274757385254,-2.2505760192871094,-2.038750171661377
1149,0.050866249948740005,0.11541794240474701,0.23035144805908203,-0.0577695369720459,1.2984821796417236,1.0593502521514893,1.4757874011993408,1.507820963859558,-2.2592689990997314,-2.227820634841919,-2.272268056869507,-2.3191375732421875,-0.12264298647642136,0.09456858783960342,0.5974305868148804,0.026577167212963104,1.287815809249878,1.184952735900879,1.5648090839385986,1.4085325002670288,-1.4688444137573242,-2.33964204788208,-2.295078754425049,-1.819986343383789
1150,0.058072302490472794,0.11329851299524307,0.3168846368789673,-0.05843561887741089,1.305748701095581,1.0598951578140259,1.4846889972686768,1.5984113216400146,-2.3935396671295166,-2.3914403915405273,-2.3935799598693848,-2.4835245609283447,-0.1372130811214447,0.09314648061990738,0.5803928971290588,0.1365189254283905,1.3299305438995361,1.2268158197402954,1.526749849319458,1.453310489654541,-1.5599119663238525,-2.3168272972106934,-2.2520554065704346,-1.7960655689239502
1151,0.08780483901500702,0.0750277191400528,0.4671822786331177,-0.12086790800094604,1.320281982421875,1.0956226587295532,1.5226569175720215,1.6459470987319946,-2.60451340675354,-2.57338809967041,-2.5775866508483887,-2.6827101707458496,-0.1086457148194313,0.08829941600561142,0.5553076267242432,0.11860381811857224,1.3176336288452148,1.2974028587341309,1.5554423332214355,1.479811668395996,-1.660461664199829,-2.333996295928955,-2.1632890701293945,-1.8219351768493652
1152,0.088531494140625,0.003269973210990429,0.5692175626754761,-0.17500412464141846,1.333906888961792,1.1645948886871338,1.5466973781585693,1.6813112497329712,-2.7192046642303467,-2.6371729373931885,-2.6649069786071777,-2.7555782794952393,-0.10617224127054214,0.0984712466597557,0.5321921110153198,0.11861341446638107,1.294589877128601,1.305518388748169,1.5519311428070068,1.4997621774673462,-1.71217679977417,-2.34035587310791,-2.0896425247192383,-1.8605749607086182
1153,0.1089385524392128,0.05165346711874008,0.6252915263175964,-0.12849783897399902,1.2621490955352783,1.1599321365356445,1.4845678806304932,1.4598008394241333,-2.6305925846099854,-2.5961568355560303,-2.516950845718384,-2.615534543991089,0.000997394323348999,0.11844771355390549,0.5473033785820007,0.08629073947668076,1.2137959003448486,1.396373987197876,1.5672762393951416,1.4753345251083374,-1.992612600326538,-2.333207130432129,-2.1314072608947754,-1.9670636653900146
1154,0.11693181842565536,0.06757944822311401,0.6032494902610779,-0.1292244791984558,1.2388960123062134,1.1942063570022583,1.488746166229248,1.437698245048523,-2.5652334690093994,-2.55288028717041,-2.4490888118743896,-2.5801703929901123,0.0032688602805137634,0.15998101234436035,0.495063453912735,0.08634617179632187,1.140368103981018,1.4274632930755615,1.5499032735824585,1.4657838344573975,-2.077693462371826,-2.2321693897247314,-2.077925682067871,-2.0301923751831055
1155,0.11475183814764023,0.09319423884153366,0.5933184623718262,-0.1187484860420227,1.2189128398895264,1.253368616104126,1.4985560178756714,1.4300076961517334,-2.5043957233428955,-2.5129542350769043,-2.386030912399292,-2.5474705696105957,0.05855874717235565,0.18760472536087036,0.46493884921073914,0.016575485467910767,1.102933645248413,1.4396817684173584,1.560515284538269,1.4794749021530151,-2.1428449153900146,-2.1472861766815186,-2.027402877807617,-2.1107325553894043
1156,0.11450961977243423,0.1192329153418541,0.5809046626091003,-0.10324639081954956,1.2012913227081299,1.3197369575500488,1.501159906387329,1.4263744354248047,-2.451793670654297,-2.4560325145721436,-2.3304009437561035,-2.516627788543701,0.11794064193964005,0.21116918325424194,0.40868762135505676,-0.015891462564468384,1.093307375907898,1.3853472471237183,1.5701844692230225,1.5044597387313843,-2.179629325866699,-2.040818691253662,-1.982234239578247,-2.187084197998047
1157,0.12092845141887665,0.1323733627796173,0.5653420090675354,-0.09289145469665527,1.191178560256958,1.3567966222763062,1.4984349012374878,1.427161693572998,-2.4006850719451904,-2.4008870124816895,-2.288658380508423,-2.4857852458953857,0.16084322333335876,0.23166608810424805,0.373624712228775,-0.03971898555755615,1.115293025970459,1.3190650939941406,1.5720733404159546,1.511800765991211,-2.1945786476135254,-1.960919976234436,-1.9782902002334595,-2.2525153160095215
1158,0.1331605762243271,0.1327972412109375,0.5487499237060547,-0.08162820339202881,1.1831247806549072,1.3534661531448364,1.4975872039794922,1.4364265203475952,-2.3609609603881836,-2.3532907962799072,-2.260197401046753,-2.4700005054473877,0.17830589413642883,0.24894356727600098,0.3507918417453766,-0.015271805226802826,1.1573431491851807,1.2932515144348145,1.5623998641967773,1.5169563293457031,-2.1928558349609375,-1.8983948230743408,-1.9745795726776123,-2.2533681392669678
1159,0.14375771582126617,0.13388723134994507,0.5348222851753235,-0.07006222009658813,1.1734964847564697,1.344140648841858,1.5018260478973389,1.4527158737182617,-2.31756329536438,-2.307551383972168,-2.238034248352051,-2.4584951400756836,0.17560486495494843,0.2550264596939087,0.34104400873184204,0.004705891013145447,1.1734979152679443,1.2710493803024292,1.5468567609786987,1.51812744140625,-2.1975111961364746,-1.8495234251022339,-1.96213698387146,-2.256695032119751
1160,0.15568706393241882,0.13836830854415894,0.531794548034668,-0.062250614166259766,1.1773719787597656,1.3429296016693115,1.514542579650879,1.467128038406372,-2.2840964794158936,-2.272469997406006,-2.224308490753174,-2.4477970600128174,0.16144831478595734,0.2709374725818634,0.33073005080223083,0.014192461967468262,1.1772955656051636,1.2505977153778076,1.5441067218780518,1.5198794603347778,-2.194248676300049,-1.816101312637329,-1.9452478885650635,-2.259249687194824
1161,0.16483087837696075,0.15096376836299896,0.5330056548118591,-0.05219846963882446,1.187060832977295,1.3434745073318481,1.5343440771102905,1.4800868034362793,-2.265122652053833,-2.246229410171509,-2.2216439247131348,-2.4402074813842773,0.1465970128774643,0.2870103716850281,0.3259492516517639,0.016853168606758118,1.1798958778381348,1.2497942447662354,1.5434015989303589,1.5214574337005615,-2.1951241493225098,-1.7865653038024902,-1.9277458190917969,-2.263986587524414
1162,0.16888806223869324,0.16168200969696045,0.5358517169952393,-0.05013960599899292,1.196810245513916,1.3465628623962402,1.552268385887146,1.4885644912719727,-2.256725549697876,-2.234764337539673,-2.2216036319732666,-2.435241937637329,0.12964694201946259,0.30298033356666565,0.318241685628891,0.022248312830924988,1.1875659227371216,1.2440483570098877,1.5333943367004395,1.523033857345581,-2.1908340454101562,-1.757047176361084,-1.9031637907028198,-2.272700548171997
1163,0.16858528554439545,0.1667080819606781,0.5330056548118591,-0.050502896308898926,1.2027446031570435,1.3501355648040771,1.560564398765564,1.493227243423462,-2.256281614303589,-2.2285876274108887,-2.2205944061279297,-2.4330215454101562,0.1252857744693756,0.29929667711257935,0.31876906752586365,0.02430248260498047,1.1846075057983398,1.246145486831665,1.5268040895462036,1.5255812406539917,-2.184852123260498,-1.7464905977249146,-1.8891983032226562,-2.283447265625
1164,0.16876694560050964,0.16888806223869324,0.5287667512893677,-0.050684571266174316,1.205106258392334,1.3529211282730103,1.568981647491455,1.4933483600616455,-2.2568063735961914,-2.2281436920166016,-2.219019889831543,-2.4299533367156982,0.12246796488761902,0.30621403455734253,0.31282100081443787,0.019912391901016235,1.1817172765731812,1.2415646314620972,1.535973310470581,1.5256597995758057,-2.174027681350708,-1.7347071170806885,-1.8863667249679565,-2.295170783996582
1165,0.16937249898910522,0.16864584386348724,0.5217424035072327,-0.04995793104171753,1.208618402481079,1.3556461334228516,1.5709799528121948,1.4936511516571045,-2.2580981254577637,-2.2281839847564697,-2.218010663986206,-2.429307460784912,0.1203208789229393,0.3013763129711151,0.3130442798137665,0.016341067850589752,1.182349681854248,1.236085057258606,1.5496351718902588,1.525770902633667,-2.1668081283569336,-1.729810118675232,-1.8924272060394287,-2.295809268951416
1166,0.16919083893299103,0.16725307703018188,0.517200767993927,-0.047899067401885986,1.2100718021392822,1.356857180595398,1.5714643001556396,1.4951649904251099,-2.2593495845794678,-2.228224277496338,-2.215790271759033,-2.4283790588378906,0.11818176507949829,0.29999130964279175,0.3106219470500946,0.014887288212776184,1.1863210201263428,1.2333347797393799,1.5583531856536865,1.5260932445526123,-2.1598355770111084,-1.7314660549163818,-1.8984068632125854,-2.294767379760742
1167,0.16864584386348724,0.16731363534927368,0.5164135694503784,-0.04680907726287842,1.2107378244400024,1.3570388555526733,1.5721909999847412,1.4960126876831055,-2.259430408477783,-2.2281839847564697,-2.215749979019165,-2.4264814853668213,0.11252249777317047,0.3049043118953705,0.3078964948654175,0.014594249427318573,1.194818377494812,1.2265288829803467,1.5671035051345825,1.5234897136688232,-2.1556413173675537,-1.7333858013153076,-1.9013183116912842,-2.286830186843872
1168,0.16731363534927368,0.16737417876720428,0.5161713361740112,-0.046869635581970215,1.2107983827590942,1.3569177389144897,1.5721909999847412,1.496436595916748,-2.259228467941284,-2.2281031608581543,-2.2156288623809814,-2.4246649742126465,0.1108156144618988,0.30631232261657715,0.30870407819747925,0.015125937759876251,1.1970809698104858,1.2231340408325195,1.5721909999847412,1.5207479000091553,-2.150954246520996,-1.7389429807662964,-1.9047086238861084,-2.2806055545806885
1169,0.16731363534927368,0.16737417876720428,0.5161713361740112,-0.046869635581970215,1.2107983827590942,1.3569177389144897,1.5721909999847412,1.496436595916748,-2.259228467941284,-2.2281031608581543,-2.2156288623809814,-2.4246649742126465,0.11089150607585907,0.30745112895965576,0.30919235944747925,0.017352521419525146,1.1967133283615112,1.2202509641647339,1.577773928642273,1.5192080736160278,-2.1451122760772705,-1.743864893913269,-1.906982660293579,-2.2749316692352295
1170,0.16731363534927368,0.16737417876720428,0.5161713361740112,-0.046869635581970215,1.2107983827590942,1.3569177389144897,1.5721909999847412,1.496436595916748,-2.259228467941284,-2.2281031608581543,-2.2156288623809814,-2.4246649742126465,0.1112622395157814,0.3079758882522583,0.310031920671463,0.020048722624778748,1.1959024667739868,1.2177469730377197,1.582432746887207,1.5180156230926514,-2.1387836933135986,-1.7484371662139893,-1.908503532409668,-2.2694990634918213
1171,0.16731363534927368,0.16737417876720428,0.5161713361740112,-0.046869635581970215,1.2107983827590942,1.3569177389144897,1.5721909999847412,1.496436595916748,-2.259228467941284,-2.2281031608581543,-2.2156288623809814,-2.4246649742126465,0.11174536496400833,0.3080446720123291,0.31112706661224365,0.023005053400993347,1.1948497295379639,1.215630292892456,1.5863006114959717,1.517093300819397,-2.1321566104888916,-1.7529836893081665,-1.909501075744629,-2.2643845081329346
1172,0.16731363534927368,0.16737417876720428,0.5161713361740112,-0.046869635581970215,1.2107983827590942,1.3569177389144897,1.5721909999847412,1.496436595916748,-2.259228467941284,-2.2281031608581543,-2.2156288623809814,-2.4246649742126465,0.11226636171340942,0.3077719807624817,0.31240251660346985,0.026157192885875702,1.1936386823654175,1.2138502597808838,1.589511513710022,1.5163909196853638,-2.125309944152832,-1.7575273513793945,-1.9101145267486572,-2.259549140930176
1173,0.16731363534927368,0.16737417876720428,0.5161713361740112,-0.046869635581970215,1.2107983827590942,1.3569177389144897,1.5721909999847412,1.496436595916748,-2.259228467941284,-2.2281031608581543,-2.2156288623809814,-2.4246649742126465,0.11275126039981842,0.30720776319503784,0.3138233423233032,0.029408983886241913,1.1923482418060303,1.212355613708496,1.5921597480773926,1.5158352851867676,-2.118316173553467,-1.7620315551757812,-1.910456657409668,-2.2549121379852295
1174,0.16731363534927368,0.16737417876720428,0.5161713361740112,-0.046869635581970215,1.2107983827590942,1.3569177389144897,1.5721909999847412,1.496436595916748,-2.259228467941284,-2.2281031608581543,-2.2156288623809814,-2.4246649742126465,0.11315763741731644,0.3063929080963135,0.31536242365837097,0.03266235440969467,1.191032886505127,1.2111167907714844,1.5943220853805542,1.5153851509094238,-2.1112828254699707,-1.7664941549301147,-1.9106262922286987,-2.2504444122314453
1175,0.16731363534927368,0.16737417876720428,0.5161713361740112,-0.046869635581970215,1.2107983827590942,1.3569177389144897,1.5721909999847412,1.496436595916748,-2.259228467941284,-2.2281031608581543,-2.2156288623809814,-2.4246649742126465,0.11348602175712585,0.3053865432739258,0.3169879615306854,0.03585698455572128,1.189709186553955,1.210112452507019,1.5960773229599,1.5150192975997925,-2.104313850402832,-1.770919680595398,-1.9107060432434082,-2.246166706085205
1176,0.16731363534927368,0.16737417876720428,0.5161713361740112,-0.046869635581970215,1.2107983827590942,1.3569177389144897,1.5721909999847412,1.496436595916748,-2.259228467941284,-2.2281031608581543,-2.2156288623809814,-2.4246649742126465,0.11374378204345703,0.30423715710639954,0.31866970658302307,0.03895869106054306,1.1884008646011353,1.2093206644058228,1.5974960327148438,1.5147182941436768,-2.0974745750427246,-1.7752857208251953,-1.9107394218444824,-2.2420859336853027
1177,0.16731363534927368,0.16737417876720428,0.5161713361740112,-0.046869635581970215,1.2107983827590942,1.3569177389144897,1.5721909999847412,1.496436595916748,-2.259228467941284,-2.2281031608581543,-2.2156288623809814,-2.4246649742126465,0.11393976211547852,0.3029836416244507,0.32038816809654236,0.04194655269384384,1.1871254444122314,1.2087174654006958,1.598637342453003,1.5144644975662231,-2.0908074378967285,-1.779573917388916,-1.910753607749939,-2.2381980419158936
1178,0.16731363534927368,0.16737417876720428,0.5161713361740112,-0.046869635581970215,1.2107983827590942,1.3569177389144897,1.5721909999847412,1.496436595916748,-2.259228467941284,-2.2281031608581543,-2.2156288623809814,-2.4246649742126465,0.11408168822526932,0.3016546964645386,0.32213640213012695,0.04480942338705063,1.1858975887298584,1.2082759141921997,1.5995488166809082,1.5142439603805542,-2.0843331813812256,-1.783776044845581,-1.910766839981079,-2.2344915866851807
1179,0.16731363534927368,0.16737417876720428,0.5161713361740112,-0.046869635581970215,1.2107983827590942,1.3569177389144897,1.5721909999847412,1.496436595916748,-2.259228467941284,-2.2281031608581543,-2.2156288623809814,-2.4246649742126465,0.11417783051729202,0.30026984214782715,0.32390883564949036,0.04754795879125595,1.1847219467163086,1.2079756259918213,1.6002733707427979,1.5140464305877686,-2.0780582427978516,-1.7878928184509277,-1.9107928276062012,-2.2309510707855225
1180,0.16731363534927368,0.16737417876720428,0.5161713361740112,-0.046869635581970215,1.2107983827590942,1.3569177389144897,1.5721909999847412,1.496436595916748,-2.259228467941284,-2.2281031608581543,-2.2156288623809814,-2.4246649742126465,0.1142352744936943,0.29884272813796997,0.3257017135620117,0.05016978830099106,1.1835975646972656,1.2078015804290771,1.6008466482162476,1.5138638019561768,-2.071974992752075,-1.7919307947158813,-1.9108407497406006,-2.2275593280792236
1181,0.16731363534927368,0.16737417876720428,0.5161713361740112,-0.046869635581970215,1.2107983827590942,1.3569177389144897,1.5721909999847412,1.496436595916748,-2.259228467941284,-2.2281031608581543,-2.2156288623809814,-2.4246649742126465,0.11425915360450745,0.29738253355026245,0.32751479744911194,0.05268608778715134,1.1825212240219116,1.2077414989471436,1.6012976169586182,1.5136895179748535,-2.066066026687622,-1.7959010601043701,-1.910916805267334,-2.2242965698242188
1182,0.16731363534927368,0.16737417876720428,0.5161713361740112,-0.046869635581970215,1.2107983827590942,1.3569177389144897,1.5721909999847412,1.496436595916748,-2.259228467941284,-2.2281031608581543,-2.2156288623809814,-2.4246649742126465,0.1142534613609314,0.2958945631980896,0.32935139536857605,0.05511050671339035,1.1814899444580078,1.2077853679656982,1.6016485691070557,1.5135189294815063,-2.0603084564208984,-1.7998199462890625,-1.911025881767273,-2.2211408615112305
1183,0.16731363534927368,0.16737417876720428,0.5161713361740112,-0.046869635581970215,1.2107983827590942,1.3569177389144897,1.5721909999847412,1.496436595916748,-2.259228467941284,-2.2281031608581543,-2.2156288623809814,-2.4246649742126465,0.1142200380563736,0.29439032077789307,0.3312213122844696,0.05745884031057358,1.1805174350738525,1.2079297304153442,1.6019039154052734,1.5133538246154785,-2.0546891689300537,-1.8037140369415283,-1.9111738204956055,-2.218066692352295
1184,0.16731363534927368,0.16737417876720428,0.5161713361740112,-0.046869635581970215,1.2107983827590942,1.3569177389144897,1.5721909999847412,1.496436595916748,-2.259228467941284,-2.2281031608581543,-2.2156288623809814,-2.4246649742126465,0.11414381116628647,0.2928785979747772,0.333132803440094,0.05974461883306503,1.179598331451416,1.2081645727157593,1.602074384689331,1.513181209564209,-2.0492091178894043,-1.8075987100601196,-1.9113727807998657,-2.215045690536499
1185,0.16731363534927368,0.16737417876720428,0.5161713361740112,-0.046869635581970215,1.2107983827590942,1.3569177389144897,1.5721909999847412,1.496436595916748,-2.259228467941284,-2.2281031608581543,-2.2156288623809814,-2.4246649742126465,0.11400163173675537,0.2913639545440674,0.33509206771850586,0.0619768425822258,1.1787185668945312,1.2084802389144897,1.602170705795288,1.5129814147949219,-2.0438759326934814,-1.8114850521087646,-1.911637783050537,-2.212049722671509
1186,0.16731363534927368,0.16737417876720428,0.5161713361740112,-0.046869635581970215,1.2107983827590942,1.3569177389144897,1.5721909999847412,1.496436595916748,-2.259228467941284,-2.2281031608581543,-2.2156288623809814,-2.4246649742126465,0.11379548907279968,0.2898433804512024,0.33710333704948425,0.06416266411542892,1.177870750427246,1.2088780403137207,1.602203607559204,1.5127495527267456,-2.0386672019958496,-1.8153880834579468,-1.9119763374328613,-2.209064483642578
1187,0.16731363534927368,0.16737417876720428,0.5161713361740112,-0.046869635581970215,1.2107983827590942,1.3569177389144897,1.5721909999847412,1.496436595916748,-2.259228467941284,-2.2281031608581543,-2.2156288623809814,-2.4246649742126465,0.11352669447660446,0.2883126139640808,0.33917489647865295,0.06631197780370712,1.1770501136779785,1.209359884262085,1.6021809577941895,1.5124833583831787,-2.0335564613342285,-1.8193258047103882,-1.9123926162719727,-2.2060749530792236
1188,0.16731363534927368,0.16737417876720428,0.5161713361740112,-0.046869635581970215,1.2107983827590942,1.3569177389144897,1.5721909999847412,1.496436595916748,-2.259228467941284,-2.2281031608581543,-2.2156288623809814,-2.4246649742126465,0.11317668110132217,0.2867821455001831,0.341316819190979,0.0684254989027977,1.1762878894805908,1.2099274396896362,1.6020961999893188,1.512197494506836,-2.0285472869873047,-1.8232991695404053,-1.9128888845443726,-2.2030529975891113
1189,0.16731363534927368,0.16737417876720428,0.5161713361740112,-0.046869635581970215,1.2107983827590942,1.3569177389144897,1.5721909999847412,1.496436595916748,-2.259228467941284,-2.2281031608581543,-2.2156288623809814,-2.4246649742126465,0.11273777484893799,0.28525805473327637,0.34353533387184143,0.07050075381994247,1.1755963563919067,1.2105811834335327,1.60194993019104,1.511894702911377,-2.0236454010009766,-1.8273073434829712,-1.9134714603424072,-2.1999850273132324
1190,0.16731363534927368,0.16737417876720428,0.5161713361740112,-0.046869635581970215,1.2107983827590942,1.3569177389144897,1.5721909999847412,1.496436595916748,-2.259228467941284,-2.2281031608581543,-2.2156288623809814,-2.4246649742126465,0.11221567541360855,0.283737450838089,0.3458317220211029,0.07253529876470566,1.1749624013900757,1.211324691772461,1.6017498970031738,1.5115714073181152,-2.018852949142456,-1.8313602209091187,-1.9141424894332886,-2.1968746185302734
1191,0.16731363534927368,0.16737417876720428,0.5161713361740112,-0.046869635581970215,1.2107983827590942,1.3569177389144897,1.5721909999847412,1.496436595916748,-2.259228467941284,-2.2281031608581543,-2.2156288623809814,-2.4246649742126465,0.11161128431558609,0.2822209596633911,0.3482045531272888,0.07453089207410812,1.1743797063827515,1.2121599912643433,1.6015019416809082,1.5112309455871582,-2.0141704082489014,-1.8354676961898804,-1.914902925491333,-2.193723678588867
1192,0.16440698504447937,0.16749529540538788,0.515263020992279,-0.04723292589187622,1.2096478939056396,1.3551616668701172,1.5721304416656494,1.4961943626403809,-2.258380651473999,-2.2279417514801025,-2.215346336364746,-2.4245035648345947,0.10860084742307663,0.2783454656600952,0.3504205048084259,0.07945465296506882,1.1706805229187012,1.21273934841156,1.5987459421157837,1.5104870796203613,-2.0116467475891113,-1.8344569206237793,-1.91360342502594,-2.1873323917388916
1193,0.1699780523777008,0.1535070687532425,0.5541999340057373,-0.07405883073806763,1.2122517824172974,1.372964859008789,1.5721909999847412,1.4944382905960083,-2.271662473678589,-2.266939163208008,-2.236661672592163,-2.441580057144165,0.09099145233631134,0.2858074903488159,0.3485429286956787,0.08594664186239243,1.1663612127304077,1.1862099170684814,1.5961339473724365,1.491368293762207,-1.981285572052002,-1.8210302591323853,-1.8797786235809326,-2.1675639152526855
1194,0.1937761902809143,0.14860211312770844,0.6665900945663452,-0.16059201955795288,1.2334460020065308,1.4346704483032227,1.6004096269607544,1.5254424810409546,-2.4383504390716553,-2.4820711612701416,-2.3547844886779785,-2.6108920574188232,0.08409562706947327,0.27301934361457825,0.3779710829257965,0.07691767066717148,1.1732791662216187,1.2288631200790405,1.6154433488845825,1.4771612882614136,-1.9522632360458374,-1.8872079849243164,-1.825844645500183,-2.0982131958007812
1195,0.22962477803230286,0.16525475680828094,0.8431081175804138,-0.3802857995033264,1.1687126159667969,1.3825325965881348,1.5673465728759766,1.4035451412200928,-2.6047961711883545,-2.7452030181884766,-2.4929306507110596,-2.806605815887451,0.12401954084634781,0.2607419788837433,0.3793037235736847,0.027730397880077362,1.1574374437332153,1.3001515865325928,1.6100140810012817,1.434059977531433,-1.9488563537597656,-2.056325912475586,-1.7625682353973389,-1.9539644718170166
1196,0.24240189790725708,0.1836635023355484,0.7959962487220764,-0.3239089846611023,1.1791281700134277,1.3540717363357544,1.5714643001556396,1.4054828882217407,-2.5847725868225098,-2.7219903469085693,-2.4492907524108887,-2.7556588649749756,0.14472977817058563,0.17979839444160461,0.5043437480926514,-0.04733612760901451,1.14801824092865,1.4148633480072021,1.6333675384521484,1.4736204147338867,-2.129019021987915,-2.1402106285095215,-2.0449862480163574,-2.073402166366577
1197,0.23677028715610504,0.18566180765628815,0.6296514868736267,-0.17221856117248535,1.1182702779769897,1.2909733057022095,1.499888300895691,1.371632695198059,-2.4664478302001953,-2.6390702724456787,-2.316554069519043,-2.6556622982025146,0.16409559547901154,0.20309752225875854,0.43896642327308655,0.007959768176078796,1.0734468698501587,1.4212744235992432,1.572049617767334,1.4671416282653809,-2.155958890914917,-2.0096046924591064,-1.9969525337219238,-2.1609766483306885
1198,0.22871646285057068,0.18463237583637238,0.598768413066864,-0.1596837043762207,1.110519289970398,1.2985427379608154,1.5154509544372559,1.3651533126831055,-2.4158239364624023,-2.578071117401123,-2.271056890487671,-2.6108920574188232,0.2024252563714981,0.2408161759376526,0.4074961245059967,-0.09566818177700043,1.0810248851776123,1.3646973371505737,1.5721609592437744,1.4754055738449097,-2.1553573608398438,-1.9391028881072998,-2.004484176635742,-2.246087074279785
1199,0.23047254979610443,0.18808402121067047,0.576847493648529,-0.1255912184715271,1.0972577333450317,1.2970893383026123,1.5251396894454956,1.372964859008789,-2.3676624298095703,-2.5161030292510986,-2.232180595397949,-2.5847725868225098,0.2285248339176178,0.24318405985832214,0.3892293870449066,-0.08488570898771286,1.0908794403076172,1.3309117555618286,1.5773651599884033,1.4924330711364746,-2.206289529800415,-1.8538440465927124,-2.0034592151641846,-2.2831921577453613
1200,0.2318047732114792,0.19262564182281494,0.5611637234687805,-0.12377452850341797,1.1034948825836182,1.297755479812622,1.5259875059127808,1.394280195236206,-2.319622039794922,-2.4582529067993164,-2.2035582065582275,-2.5531628131866455,0.19910231232643127,0.2532223165035248,0.3895528018474579,-0.08047632873058319,1.1521520614624023,1.2810553312301636,1.554144024848938,1.486430048942566,-2.2193119525909424,-1.8171253204345703,-1.999935269355774,-2.2805333137512207
1201,0.22877702116966248,0.19171731173992157,0.5510510206222534,-0.11638683080673218,1.113728642463684,1.2982399463653564,1.5347074270248413,1.4174728393554688,-2.278888702392578,-2.4025018215179443,-2.181960344314575,-2.534592628479004,0.19951900839805603,0.25602319836616516,0.36776044964790344,-0.0526101216673851,1.155982494354248,1.2780851125717163,1.5452598333358765,1.5015628337860107,-2.2188498973846436,-1.8191596269607544,-1.9864178895950317,-2.2851486206054688
1202,0.2178771048784256,0.19208064675331116,0.5477810502052307,-0.10954409837722778,1.1275957822799683,1.3001171350479126,1.551360011100769,1.4384853839874268,-2.2474000453948975,-2.351837396621704,-2.1699702739715576,-2.516183853149414,0.18022143840789795,0.27572038769721985,0.3457169532775879,-0.03266976773738861,1.1690654754638672,1.2722917795181274,1.5322027206420898,1.514811635017395,-2.2101707458496094,-1.8123383522033691,-1.9616693258285522,-2.28928804397583
1203,0.2045549899339676,0.1971067190170288,0.5456010699272156,-0.10100585222244263,1.1379506587982178,1.3022971153259277,1.5735231637954712,1.4580447673797607,-2.231736421585083,-2.306703805923462,-2.1642377376556396,-2.5019736289978027,0.15880100429058075,0.29647237062454224,0.3312405049800873,-0.020843110978603363,1.1691389083862305,1.2698888778686523,1.525942325592041,1.5140838623046875,-2.199709892272949,-1.8020871877670288,-1.932410717010498,-2.2830493450164795
1204,0.18529848754405975,0.2044944316148758,0.5431183576583862,-0.09652477502822876,1.1446722745895386,1.3051432371139526,1.5957468748092651,1.4717906713485718,-2.22495436668396,-2.2763454914093018,-2.1601200103759766,-2.489337682723999,0.13741284608840942,0.31162840127944946,0.3226102590560913,-0.015916064381599426,1.1819775104522705,1.2708361148834229,1.5231547355651855,1.5106549263000488,-2.190282106399536,-1.7897907495498657,-1.9110586643218994,-2.2777910232543945
1205,0.163740873336792,0.21036827564239502,0.5404539108276367,-0.09476864337921143,1.1493350267410278,1.3072021007537842,1.6096140146255493,1.4762111902236938,-2.2172839641571045,-2.2557971477508545,-2.1529343128204346,-2.4765405654907227,0.11788076907396317,0.31839215755462646,0.3207685351371765,-0.016510188579559326,1.1943131685256958,1.273498773574829,1.5221654176712036,1.506618857383728,-2.1856377124786377,-1.7826210260391235,-1.9029569625854492,-2.27775502204895
1206,0.14478714764118195,0.21333546936511993,0.5386372804641724,-0.09307312965393066,1.1527866125106812,1.307989239692688,1.6152456998825073,1.475726842880249,-2.21413516998291,-2.245664119720459,-2.1459097862243652,-2.4622089862823486,0.10119859874248505,0.32892709970474243,0.3122633695602417,-0.015469111502170563,1.202481985092163,1.2667343616485596,1.5247962474822998,1.5033478736877441,-2.177690267562866,-1.7611243724822998,-1.8925020694732666,-2.2792232036590576
1207,0.13873164355754852,0.2146676927804947,0.5336111783981323,-0.08877372741699219,1.1580549478530884,1.3096243143081665,1.614458441734314,1.4743340015411377,-2.2180914878845215,-2.2431209087371826,-2.1396121978759766,-2.449976921081543,0.09360099583864212,0.3332808017730713,0.3109821081161499,-0.007828116416931152,1.1917386054992676,1.2497798204421997,1.5455689430236816,1.4937394857406616,-2.169787883758545,-1.735970139503479,-1.8913500308990479,-2.2705938816070557
1208,0.13788387179374695,0.21339602768421173,0.5252546072006226,-0.08495873212814331,1.1627177000045776,1.3131970167160034,1.6120362281799316,1.4725173711776733,-2.2227742671966553,-2.243242025375366,-2.133596897125244,-2.444002151489258,0.09254059195518494,0.32776421308517456,0.3100224435329437,-0.007521890103816986,1.1795203685760498,1.235892415046692,1.5566469430923462,1.4900448322296143,-2.1503305435180664,-1.724753737449646,-1.889284372329712,-2.2677254676818848
1209,0.13812609016895294,0.21266937255859375,0.5237407088279724,-0.08114379644393921,1.1655032634735107,1.3158009052276611,1.6130657196044922,1.4717906713485718,-2.23008131980896,-2.24336314201355,-2.13234543800354,-2.4365336894989014,0.08917213976383209,0.332218199968338,0.30613771080970764,-0.007728144526481628,1.1775882244110107,1.2249199151992798,1.5622203350067139,1.4894040822982788,-2.134233236312866,-1.7167870998382568,-1.8872380256652832,-2.2691993713378906
1210,0.13879220187664032,0.21272993087768555,0.5244067907333374,-0.0782976746559143,1.1681677103042603,1.3177992105484009,1.616396188735962,1.471306324005127,-2.2365808486938477,-2.2432823181152344,-2.1322648525238037,-2.4322545528411865,0.0888737142086029,0.33342066407203674,0.3077971041202545,-0.005877822637557983,1.177017092704773,1.2189104557037354,1.5673335790634155,1.4881947040557861,-2.122225761413574,-1.71807062625885,-1.8875921964645386,-2.2654080390930176
1211,0.13879220187664032,0.21230603754520416,0.5242857336997986,-0.07902437448501587,1.1682887077331543,1.319676399230957,1.6195451021194458,1.4714274406433105,-2.237226963043213,-2.2432823181152344,-2.1322648525238037,-2.42991304397583,0.09049154818058014,0.33175715804100037,0.3098801076412201,-0.0032612010836601257,1.179224967956543,1.2147350311279297,1.5710715055465698,1.4883431196212769,-2.1106600761413574,-1.727473497390747,-1.889125943183899,-2.2611727714538574
1212,0.13879220187664032,0.21182160079479218,0.5243462324142456,-0.07914549112319946,1.1688942909240723,1.3197369575500488,1.6212406158447266,1.4714879989624023,-2.237307548522949,-2.2432823181152344,-2.1322648525238037,-2.429468870162964,0.09169267863035202,0.33006006479263306,0.3119499683380127,0.004608213901519775,1.1781909465789795,1.215227723121643,1.5741798877716064,1.4898048639297485,-2.100898504257202,-1.7346413135528564,-1.8877233266830444,-2.254568576812744
1213,0.13879220187664032,0.21182160079479218,0.5243462324142456,-0.07914549112319946,1.1688942909240723,1.3197369575500488,1.6212406158447266,1.4714879989624023,-2.237307548522949,-2.2432823181152344,-2.1322648525238037,-2.429468870162964,0.09292197227478027,0.3277714252471924,0.3148563802242279,0.010618507862091064,1.1760808229446411,1.21377432346344,1.5765454769134521,1.489759922027588,-2.091517686843872,-1.7407948970794678,-1.8868722915649414,-2.248452663421631
1214,0.13879220187664032,0.21182160079479218,0.5243462324142456,-0.07914549112319946,1.1688942909240723,1.3197369575500488,1.6212406158447266,1.4714879989624023,-2.237307548522949,-2.2432823181152344,-2.1322648525238037,-2.429468870162964,0.09423339366912842,0.3251868486404419,0.3176862597465515,0.015795506536960602,1.174067497253418,1.2128105163574219,1.5785661935806274,1.4897503852844238,-2.0827255249023438,-1.7468876838684082,-1.8861628770828247,-2.242969036102295
1215,0.13879220187664032,0.21182160079479218,0.5243462324142456,-0.07914549112319946,1.1688942909240723,1.3197369575500488,1.6212406158447266,1.4714879989624023,-2.237307548522949,-2.2432823181152344,-2.1322648525238037,-2.429468870162964,0.09531127661466599,0.32273852825164795,0.32023170590400696,0.020325079560279846,1.1723085641860962,1.212142825126648,1.5801974534988403,1.4897946119308472,-2.074509859085083,-1.7526392936706543,-1.885524868965149,-2.2380478382110596
1216,0.13879220187664032,0.21182160079479218,0.5243462324142456,-0.07914549112319946,1.1688942909240723,1.3197369575500488,1.6212406158447266,1.4714879989624023,-2.237307548522949,-2.2432823181152344,-2.1322648525238037,-2.429468870162964,0.09616687893867493,0.3204670548439026,0.3225308358669281,0.024297326803207397,1.170765995979309,1.211659550666809,1.5814752578735352,1.4898264408111572,-2.066849946975708,-1.7579904794692993,-1.884971261024475,-2.2336103916168213
1217,0.13879220187664032,0.21182160079479218,0.5243462324142456,-0.07914549112319946,1.1688942909240723,1.3197369575500488,1.6212406158447266,1.4714879989624023,-2.237307548522949,-2.2432823181152344,-2.1322648525238037,-2.429468870162964,0.09686646610498428,0.3183538317680359,0.32462814450263977,0.02779548615217209,1.1694055795669556,1.2113300561904907,1.5824697017669678,1.48984694480896,-2.0597188472747803,-1.7629694938659668,-1.8845007419586182,-2.2296018600463867
1218,0.13879220187664032,0.21182160079479218,0.5243462324142456,-0.07914549112319946,1.1688942909240723,1.3197369575500488,1.6212406158447266,1.4714879989624023,-2.237307548522949,-2.2432823181152344,-2.1322648525238037,-2.429468870162964,0.09745493531227112,0.31638455390930176,0.32655349373817444,0.030895017087459564,1.168203353881836,1.2111304998397827,1.5832443237304688,1.4898641109466553,-2.0530784130096436,-1.7676091194152832,-1.884102702140808,-2.22597336769104
1219,0.13879220187664032,0.21182160079479218,0.5243462324142456,-0.07914549112319946,1.1688942909240723,1.3197369575500488,1.6212406158447266,1.4714879989624023,-2.237307548522949,-2.2432823181152344,-2.1322648525238037,-2.429468870162964,0.09794202446937561,0.3145507574081421,0.3283316195011139,0.03365703672170639,1.167133092880249,1.2110316753387451,1.5838454961776733,1.4898700714111328,-2.046912431716919,-1.7719370126724243,-1.8837727308273315,-2.222670316696167
1220,0.13879220187664032,0.21182160079479218,0.5243462324142456,-0.07914549112319946,1.1688942909240723,1.3197369575500488,1.6212406158447266,1.4714879989624023,-2.237307548522949,-2.2432823181152344,-2.1322648525238037,-2.429468870162964,0.09831941872835159,0.3128480315208435,0.32998156547546387,0.03612872213125229,1.166168451309204,1.211008071899414,1.584308385848999,1.4898492097854614,-2.0412209033966064,-1.7759747505187988,-1.8835134506225586,-2.219639778137207
1221,0.13879220187664032,0.21182160079479218,0.5243462324142456,-0.07914549112319946,1.1688942909240723,1.3197369575500488,1.6212406158447266,1.4714879989624023,-2.237307548522949,-2.2432823181152344,-2.1322648525238037,-2.429468870162964,0.09860565513372421,0.31126928329467773,0.3315163254737854,0.0383489653468132,1.165299654006958,1.2110499143600464,1.5846598148345947,1.4898067712783813,-2.0359742641448975,-1.7797437906265259,-1.8833197355270386,-2.2168498039245605
1222,0.13879220187664032,0.21182160079479218,0.5243462324142456,-0.07914549112319946,1.1688942909240723,1.3197369575500488,1.6212406158447266,1.4714879989624023,-2.237307548522949,-2.2432823181152344,-2.1322648525238037,-2.429468870162964,0.09881770610809326,0.30981382727622986,0.33294975757598877,0.04035218805074692,1.1645293235778809,1.2111496925354004,1.5849120616912842,1.4897527694702148,-2.031148672103882,-1.7832684516906738,-1.8831851482391357,-2.2142739295959473
1223,0.13879220187664032,0.21182160079479218,0.5243462324142456,-0.07914549112319946,1.1688942909240723,1.3197369575500488,1.6212406158447266,1.4714879989624023,-2.237307548522949,-2.2432823181152344,-2.1322648525238037,-2.429468870162964,0.09897122532129288,0.30847370624542236,0.33429205417633057,0.04216509312391281,1.1638481616973877,1.2112923860549927,1.585085153579712,1.4896899461746216,-2.02671217918396,-1.786560297012329,-1.8831027746200562,-2.2118940353393555
1224,0.13879220187664032,0.21182160079479218,0.5243462324142456,-0.07914549112319946,1.1688942909240723,1.3197369575500488,1.6212406158447266,1.4714879989624023,-2.237307548522949,-2.2432823181152344,-2.1322648525238037,-2.429468870162964,0.0990787073969841,0.30723822116851807,0.3355512320995331,0.0438099130988121,1.1632442474365234,1.2114676237106323,1.585196852684021,1.4896199703216553,-2.0226314067840576,-1.7896331548690796,-1.8830649852752686,-2.2096920013427734
1225,0.13879220187664032,0.21182160079479218,0.5243462324142456,-0.07914549112319946,1.1688942909240723,1.3197369575500488,1.6212406158447266,1.4714879989624023,-2.237307548522949,-2.2432823181152344,-2.1322648525238037,-2.429468870162964,0.09914972633123398,0.3060972988605499,0.33673375844955444,0.045306168496608734,1.162706732749939,1.2116678953170776,1.585261344909668,1.489544153213501,-2.018873929977417,-1.79250168800354,-1.8830643892288208,-2.2076528072357178
1226,0.13879220187664032,0.21182160079479218,0.5243462324142456,-0.07914549112319946,1.1688942909240723,1.3197369575500488,1.6212406158447266,1.4714879989624023,-2.237307548522949,-2.2432823181152344,-2.1322648525238037,-2.429468870162964,0.09919209033250809,0.3050416111946106,0.3378456234931946,0.04667087644338608,1.1622259616851807,1.211887001991272,1.5852895975112915,1.4894635677337646,-2.015409469604492,-1.7951810359954834,-1.883094072341919,-2.205761194229126
1227,0.13879220187664032,0.21182160079479218,0.5243462324142456,-0.07914549112319946,1.1688942909240723,1.3197369575500488,1.6212406158447266,1.4714879989624023,-2.237307548522949,-2.2432823181152344,-2.1322648525238037,-2.429468870162964,0.09921378642320633,0.30406200885772705,0.3388909697532654,0.04791664332151413,1.161790132522583,1.2121208906173706,1.5852912664413452,1.4893792867660522,-2.0122127532958984,-1.7976876497268677,-1.883147120475769,-2.204007148742676
1228,0.13879220187664032,0.21182160079479218,0.5243462324142456,-0.07914549112319946,1.1688942909240723,1.3197369575500488,1.6212406158447266,1.4714879989624023,-2.237307548522949,-2.2432823181152344,-2.1322648525238037,-2.429468870162964,0.09921468794345856,0.30315694212913513,0.3398725390434265,0.049052320420742035,1.1614025831222534,1.2123656272888184,1.5852694511413574,1.4892979860305786,-2.0092709064483643,-1.8000277280807495,-1.8832170963287354,-2.202378273010254
1229,0.13879220187664032,0.21182160079479218,0.5243462324142456,-0.07914549112319946,1.1688942909240723,1.3197369575500488,1.6212406158447266,1.4714879989624023,-2.237307548522949,-2.2432823181152344,-2.1322648525238037,-2.429468870162964,0.09919429570436478,0.30232685804367065,0.3407917320728302,0.05008407682180405,1.1610667705535889,1.212615966796875,1.5852270126342773,1.4892237186431885,-2.0065760612487793,-1.8022021055221558,-1.8833000659942627,-2.200864315032959
1230,0.13879220187664032,0.21182160079479218,0.5243462324142456,-0.07914549112319946,1.1688942909240723,1.3197369575500488,1.6212406158447266,1.4714879989624023,-2.237307548522949,-2.2432823181152344,-2.1322648525238037,-2.429468870162964,0.09915748238563538,0.3015676736831665,0.3416496813297272,0.051019005477428436,1.160776138305664,1.212867021560669,1.5851695537567139,1.4891552925109863,-2.0041158199310303,-1.8042144775390625,-1.8833935260772705,-2.1994616985321045
1231,0.13879220187664032,0.21182160079479218,0.5243462324142456,-0.07914549112319946,1.1688942909240723,1.3197369575500488,1.6212406158447266,1.4714879989624023,-2.237307548522949,-2.2432823181152344,-2.1322648525238037,-2.429468870162964,0.09910885244607925,0.3008747398853302,0.34244757890701294,0.05186479538679123,1.1605242490768433,1.2131152153015137,1.5851023197174072,1.4890921115875244,-2.001875400543213,-1.8060705661773682,-1.8834947347640991,-2.198166608810425
1232,0.13879220187664032,0.21182160079479218,0.5243462324142456,-0.07914549112319946,1.1688942909240723,1.3197369575500488,1.6212406158447266,1.4714879989624023,-2.237307548522949,-2.2432823181152344,-2.1322648525238037,-2.429468870162964,0.09905201196670532,0.30024343729019165,0.3431873321533203,0.052628807723522186,1.1603059768676758,1.213357925415039,1.585028886795044,1.489033579826355,-1.9998397827148438,-1.8077772855758667,-1.8836009502410889,-2.196974277496338
1233,0.13879220187664032,0.21182160079479218,0.5243462324142456,-0.07914549112319946,1.1688942909240723,1.3197369575500488,1.6212406158447266,1.4714879989624023,-2.237307548522949,-2.2432823181152344,-2.1322648525238037,-2.429468870162964,0.09898984432220459,0.2996690273284912,0.343871146440506,0.05331813544034958,1.1601166725158691,1.2135926485061646,1.5849522352218628,1.4889793395996094,-1.997992992401123,-1.8093427419662476,-1.8837095499038696,-2.1958789825439453
1234,0.13879220187664032,0.21182160079479218,0.5243462324142456,-0.07914549112319946,1.1688942909240723,1.3197369575500488,1.6212406158447266,1.4714879989624023,-2.237307548522949,-2.2432823181152344,-2.1322648525238037,-2.429468870162964,0.09892461448907852,0.299146443605423,0.34450197219848633,0.05393948405981064,1.1599527597427368,1.2138168811798096,1.5848748683929443,1.4889295101165771,-1.9963197708129883,-1.8107750415802002,-1.8838188648223877,-2.194875478744507
1235,0.13879220187664032,0.21182160079479218,0.5243462324142456,-0.07914549112319946,1.1688942909240723,1.3197369575500488,1.6212406158447266,1.4714879989624023,-2.237307548522949,-2.2432823181152344,-2.1322648525238037,-2.429468870162964,0.09885813295841217,0.2986711263656616,0.34508293867111206,0.05449914187192917,1.1598107814788818,1.2140291929244995,1.5847984552383423,1.4888838529586792,-1.9948046207427979,-1.8120837211608887,-1.883927345275879,-2.1939573287963867
1236,0.13873164355754852,0.21182160079479218,0.524164617061615,-0.07878214120864868,1.1710742712020874,1.3182231187820435,1.6240261793136597,1.4705190658569336,-2.237025022506714,-2.243242025375366,-2.13234543800354,-2.4248263835906982,0.0981789231300354,0.2991258502006531,0.34691426157951355,0.055524639785289764,1.164583444595337,1.2132813930511475,1.5892853736877441,1.488171100616455,-1.9957550764083862,-1.8127399682998657,-1.8864408731460571,-2.1895804405212402
1237,0.15072154998779297,0.2003766894340515,0.593681812286377,-0.12456178665161133,1.1860918998718262,1.3515284061431885,1.648369312286377,1.4791178703308105,-2.287487506866455,-2.317361354827881,-2.1781654357910156,-2.465519428253174,0.06571659445762634,0.3233046531677246,0.33041998744010925,0.06692143529653549,1.1433969736099243,1.169334053993225,1.5938489437103271,1.4495954513549805,-1.931142807006836,-1.7753267288208008,-1.823158621788025,-2.1521427631378174
1238,0.1805751919746399,0.20709830522537231,0.7788591980934143,-0.26408064365386963,1.217822790145874,1.4025157690048218,1.752463459968567,1.501462697982788,-2.49139666557312,-2.5481972694396973,-2.3299567699432373,-2.6540071964263916,0.0737975686788559,0.3433057963848114,0.3363457918167114,0.056213341653347015,1.2011003494262695,1.2174241542816162,1.621511459350586,1.4331834316253662,-1.8727965354919434,-1.9064379930496216,-1.7417086362838745,-2.0592613220214844
1239,0.18838678300380707,0.20485776662826538,0.8467413783073425,-0.35921263694763184,1.1911180019378662,1.4002752304077148,1.78201425075531,1.4834778308868408,-2.5724596977233887,-2.6457717418670654,-2.408153533935547,-2.7385823726654053,0.11043122410774231,0.33026692271232605,0.2997857332229614,0.06591667979955673,1.2299716472625732,1.2447412014007568,1.6250402927398682,1.4537644386291504,-1.8293981552124023,-2.059124231338501,-1.6796081066131592,-1.9764822721481323
1240,0.22738425433635712,0.18505626916885376,0.8460752964019775,-0.43987196683883667,1.2007462978363037,1.37266206741333,1.7622127532958984,1.4234071969985962,-2.6557834148406982,-2.7843215465545654,-2.4492099285125732,-2.7884392738342285,0.09905806928873062,0.27515584230422974,0.3611854016780853,0.013296104967594147,1.2003579139709473,1.2974793910980225,1.6753045320510864,1.4145575761795044,-1.899985671043396,-2.1217312812805176,-1.807043194770813,-1.9422024488449097
1241,0.2145465761423111,0.15810926258563995,0.660655677318573,-0.18245238065719604,1.1638681888580322,1.2883694171905518,1.643585443496704,1.3773853778839111,-2.6194100379943848,-2.705357789993286,-2.332540512084961,-2.6668851375579834,0.16320639848709106,0.18858230113983154,0.47342565655708313,0.03684847801923752,1.1852340698242188,1.3979209661483765,1.6268832683563232,1.4649395942687988,-2.077049732208252,-2.1230454444885254,-2.00522518157959,-2.0476787090301514
1242,0.20836995542049408,0.1707047075033188,0.5612242817878723,-0.15175098180770874,1.1220852136611938,1.2583341598510742,1.574794888496399,1.3087764978408813,-2.492607831954956,-2.6249003410339355,-2.2222092151641846,-2.557522773742676,0.16128802299499512,0.19292640686035156,0.44354233145713806,-0.015186496078968048,1.0771394968032837,1.4064857959747314,1.573390007019043,1.4396650791168213,-2.1423349380493164,-2.0088682174682617,-2.0216495990753174,-2.149428606033325
1243,0.21230603754520416,0.17173415422439575,0.5386372804641724,-0.11844569444656372,1.1151213645935059,1.2661457061767578,1.5767931938171387,1.309926986694336,-2.4246246814727783,-2.5483992099761963,-2.1692841053009033,-2.519252061843872,0.21878668665885925,0.18836450576782227,0.41506531834602356,-0.07614582777023315,1.0364046096801758,1.3394227027893066,1.571915864944458,1.4828367233276367,-2.183474063873291,-1.8867905139923096,-2.027602195739746,-2.2595810890197754
1244,0.22193428874015808,0.17536744475364685,0.5175641179084778,-0.10506302118301392,1.1003459692001343,1.2766218185424805,1.5774593353271484,1.3309396505355835,-2.3561973571777344,-2.471938371658325,-2.125603675842285,-2.4839282035827637,0.23977115750312805,0.19422206282615662,0.3872070014476776,-0.09713935106992722,1.0687052011489868,1.2814581394195557,1.5494260787963867,1.4788926839828491,-2.2171823978424072,-1.811731219291687,-2.0170106887817383,-2.311511754989624
1245,0.22556759417057037,0.17567022144794464,0.5066641569137573,-0.10276192426681519,1.0951987504959106,1.2757740020751953,1.578004240989685,1.3746603727340698,-2.2922916412353516,-2.395235300064087,-2.095487594604492,-2.4653983116149902,0.22195205092430115,0.20479750633239746,0.3738626539707184,-0.07380732148885727,1.1348069906234741,1.2609200477600098,1.5272216796875,1.4827406406402588,-2.2337961196899414,-1.7744483947753906,-2.0095341205596924,-2.295132637023926
1246,0.22266095876693726,0.17603355646133423,0.5014564394950867,-0.1020352840423584,1.0903544425964355,1.2792861461639404,1.5854525566101074,1.4217722415924072,-2.2416272163391113,-2.322488307952881,-2.0701756477355957,-2.4512689113616943,0.20890295505523682,0.22006553411483765,0.35331568121910095,-0.04045509546995163,1.1471374034881592,1.2509746551513672,1.5159509181976318,1.4787509441375732,-2.2343246936798096,-1.7798142433166504,-1.9907376766204834,-2.2726168632507324
1247,0.2077644020318985,0.1768813282251358,0.5033941864967346,-0.09289145469665527,1.0954409837722778,1.2867344617843628,1.6070706844329834,1.4568941593170166,-2.2193832397460938,-2.2607626914978027,-2.0506365299224854,-2.4450113773345947,0.19340163469314575,0.25210049748420715,0.32239463925361633,-0.005166888236999512,1.1309030055999756,1.2623313665390015,1.5260542631149292,1.485742449760437,-2.21492862701416,-1.7881284952163696,-1.9590907096862793,-2.264772415161133
1248,0.19601672887802124,0.18154406547546387,0.5042420029640198,-0.08550375699996948,1.1059776544570923,1.292426586151123,1.6271144151687622,1.4892911911010742,-2.2203118801116943,-2.214942693710327,-2.036587715148926,-2.438875198364258,0.16415727138519287,0.26914992928504944,0.31699463725090027,0.024174556136131287,1.127406358718872,1.2657430171966553,1.5388107299804688,1.4776620864868164,-2.1901745796203613,-1.7754873037338257,-1.9292948246002197,-2.230696201324463
1249,0.18868955969810486,0.1876601278781891,0.5033336281776428,-0.07672327756881714,1.1129413843154907,1.2944250106811523,1.6403759717941284,1.507820963859558,-2.2193429470062256,-2.1822831630706787,-2.0238308906555176,-2.4318103790283203,0.14033718407154083,0.27002984285354614,0.32354965806007385,0.04819636791944504,1.1266264915466309,1.2693912982940674,1.555662989616394,1.4716991186141968,-2.173046827316284,-1.764945387840271,-1.9167323112487793,-2.2024810314178467
1250,0.17785021662712097,0.1938367486000061,0.50357586145401,-0.06733721494674683,1.1154847145080566,1.2929716110229492,1.6444936990737915,1.510969877243042,-2.2121167182922363,-2.1623404026031494,-2.012850284576416,-2.4188921451568604,0.1152765154838562,0.2708187699317932,0.3313831686973572,0.05413743108510971,1.1480921506881714,1.272904634475708,1.5576481819152832,1.4735742807388306,-2.160679817199707,-1.7506413459777832,-1.9127650260925293,-2.1965272426605225
1251,0.1602286845445633,0.20467610657215118,0.504181444644928,-0.05789065361022949,1.1172409057617188,1.2906705141067505,1.643585443496704,1.503400444984436,-2.201176404953003,-2.154831647872925,-2.004695415496826,-2.4060139656066895,0.08715447783470154,0.28026798367500305,0.33605921268463135,0.040570639073848724,1.1706295013427734,1.2730612754821777,1.5481806993484497,1.4765026569366455,-2.151108741760254,-1.7276904582977295,-1.908990740776062,-2.2102930545806885
1252,0.13346335291862488,0.21533378958702087,0.5064219832420349,-0.047596275806427,1.1228724718093872,1.2880666255950928,1.640799880027771,1.491289496421814,-2.187450647354126,-2.153862714767456,-2.0002546310424805,-2.3936607837677,0.061528246849775314,0.2936432957649231,0.3329041600227356,0.020159825682640076,1.1918879747390747,1.2728075981140137,1.530228614807129,1.484093189239502,-2.14717960357666,-1.697274923324585,-1.9105079174041748,-2.2428224086761475
1253,0.0986441895365715,0.22635480761528015,0.5136885643005371,-0.040814101696014404,1.1348018646240234,1.2867950201034546,1.6389226913452148,1.4812372922897339,-2.175178050994873,-2.1539838314056396,-1.9985592365264893,-2.3863537311553955,0.02572614699602127,0.3048953711986542,0.32944536209106445,-0.00979188084602356,1.21756911277771,1.2591983079910278,1.5031198263168335,1.487844705581665,-2.140695095062256,-1.6642518043518066,-1.918589472770691,-2.2727901935577393
1254,0.07405883818864822,0.23404531180858612,0.5226507186889648,-0.03736245632171631,1.1480634212493896,1.2870978116989136,1.6397705078125,1.4716695547103882,-2.1854724884033203,-2.1592319011688232,-1.9992051124572754,-2.381549835205078,0.03176574409008026,0.3371756970882416,0.30718570947647095,-0.008640184998512268,1.1884987354278564,1.2283145189285278,1.501997947692871,1.4794877767562866,-2.1285452842712402,-1.6489349603652954,-1.8797024488449097,-2.2786331176757812
1255,0.06933554261922836,0.23368197679519653,0.5237407088279724,-0.04269129037857056,1.1586605310440063,1.292426586151123,1.6406787633895874,1.4722751379013062,-2.202427864074707,-2.1697685718536377,-1.9995280504226685,-2.3824782371520996,0.04044731706380844,0.34620311856269836,0.30096957087516785,-0.001085042953491211,1.1784647703170776,1.208229422569275,1.5189440250396729,1.4715977907180786,-2.110170841217041,-1.6443206071853638,-1.860360860824585,-2.2696657180786133
1256,0.06624723225831985,0.23216809332370758,0.523195743560791,-0.04602181911468506,1.159811019897461,1.2959388494491577,1.6429798603057861,1.472941279411316,-2.2045674324035645,-2.1748955249786377,-1.999931812286377,-2.3825185298919678,0.05051924288272858,0.34592050313949585,0.3061148226261139,-0.005355112254619598,1.1761436462402344,1.200326919555664,1.534793496131897,1.4679453372955322,-2.094557285308838,-1.6651525497436523,-1.8673933744430542,-2.266833782196045
1257,0.06624723225831985,0.23216809332370758,0.523195743560791,-0.04602181911468506,1.159811019897461,1.2959388494491577,1.6429798603057861,1.472941279411316,-2.2045674324035645,-2.1748955249786377,-1.999931812286377,-2.3825185298919678,0.05638236179947853,0.34630250930786133,0.305905818939209,-0.001100689172744751,1.1764706373214722,1.1968721151351929,1.546139121055603,1.469477653503418,-2.0799098014831543,-1.6776572465896606,-1.8695604801177979,-2.2606201171875
1258,0.06624723225831985,0.23216809332370758,0.523195743560791,-0.04602181911468506,1.159811019897461,1.2959388494491577,1.6429798603057861,1.472941279411316,-2.2045674324035645,-2.1748955249786377,-1.999931812286377,-2.3825185298919678,0.06083524972200394,0.3469032049179077,0.3062593936920166,0.00350072979927063,1.1764283180236816,1.1925562620162964,1.5546902418136597,1.4700353145599365,-2.063211679458618,-1.6883738040924072,-1.869828701019287,-2.253498077392578
1259,0.06624723225831985,0.23216809332370758,0.523195743560791,-0.04602181911468506,1.159811019897461,1.2959388494491577,1.6429798603057861,1.472941279411316,-2.2045674324035645,-2.1748955249786377,-1.999931812286377,-2.3825185298919678,0.06546290218830109,0.34634527564048767,0.3076600432395935,0.008998438715934753,1.1755647659301758,1.188673496246338,1.5615551471710205,1.4704734086990356,-2.044898748397827,-1.6995793581008911,-1.8691833019256592,-2.2462196350097656
1260,0.06624723225831985,0.23216809332370758,0.523195743560791,-0.04602181911468506,1.159811019897461,1.2959388494491577,1.6429798603057861,1.472941279411316,-2.2045674324035645,-2.1748955249786377,-1.999931812286377,-2.3825185298919678,0.07003152370452881,0.3447932004928589,0.30992090702056885,0.01531682163476944,1.1742419004440308,1.185289740562439,1.5671718120574951,1.4709558486938477,-2.025261640548706,-1.711685061454773,-1.8679721355438232,-2.2387053966522217
1261,0.06624723225831985,0.23216809332370758,0.523195743560791,-0.04602181911468506,1.159811019897461,1.2959388494491577,1.6429798603057861,1.472941279411316,-2.2045674324035645,-2.1748955249786377,-1.999931812286377,-2.3825185298919678,0.07410188019275665,0.3423897624015808,0.31298828125,0.022043809294700623,1.1727434396743774,1.182381272315979,1.571587324142456,1.4713873863220215,-2.0048131942749023,-1.7245968580245972,-1.8667187690734863,-2.2307350635528564
1262,0.06624723225831985,0.23216809332370758,0.523195743560791,-0.04602181911468506,1.159811019897461,1.2959388494491577,1.6429798603057861,1.472941279411316,-2.2045674324035645,-2.1748955249786377,-1.999931812286377,-2.3825185298919678,0.07755545526742935,0.33931851387023926,0.3168185353279114,0.02890589088201523,1.1711187362670898,1.1800578832626343,1.574927806854248,1.4716867208480835,-1.983841061592102,-1.7382454872131348,-1.8657557964324951,-2.2222790718078613
1263,0.06624723225831985,0.23216809332370758,0.523195743560791,-0.04602181911468506,1.159811019897461,1.2959388494491577,1.6429798603057861,1.472941279411316,-2.2045674324035645,-2.1748955249786377,-1.999931812286377,-2.3825185298919678,0.08033154159784317,0.3358492851257324,0.32144156098365784,0.035755567252635956,1.1694958209991455,1.1784993410110474,1.577201008796692,1.4718265533447266,-1.9625647068023682,-1.752558946609497,-1.8652870655059814,-2.2132961750030518
1264,0.06624723225831985,0.23216809332370758,0.523195743560791,-0.04602181911468506,1.159811019897461,1.2959388494491577,1.6429798603057861,1.472941279411316,-2.2045674324035645,-2.1748955249786377,-1.999931812286377,-2.3825185298919678,0.08243551850318909,0.33211749792099,0.32689619064331055,0.04240938276052475,1.1679399013519287,1.1778464317321777,1.578495740890503,1.47173011302948,-1.9412848949432373,-1.7675187587738037,-1.86546790599823,-2.203803539276123
1265,0.06624723225831985,0.23216809332370758,0.523195743560791,-0.04602181911468506,1.159811019897461,1.2959388494491577,1.6429798603057861,1.472941279411316,-2.2045674324035645,-2.1748955249786377,-1.999931812286377,-2.3825185298919678,0.08376439660787582,0.32818835973739624,0.3332419693470001,0.0486639067530632,1.1665900945663452,1.1783100366592407,1.5789192914962769,1.4712539911270142,-1.9203230142593384,-1.783033847808838,-1.8664807081222534,-2.1938352584838867
1266,0.06624723225831985,0.23216809332370758,0.523195743560791,-0.04602181911468506,1.159811019897461,1.2959388494491577,1.6429798603057861,1.472941279411316,-2.2045674324035645,-2.1748955249786377,-1.999931812286377,-2.3825185298919678,0.08399786800146103,0.3243976831436157,0.34055933356285095,0.05424707382917404,1.1660553216934204,1.1800942420959473,1.5784447193145752,1.4706003665924072,-1.9002578258514404,-1.798828125,-1.868478775024414,-2.183215379714966
1267,0.06624723225831985,0.23216809332370758,0.523195743560791,-0.04602181911468506,1.159811019897461,1.2959388494491577,1.6429798603057861,1.472941279411316,-2.2045674324035645,-2.1748955249786377,-1.999931812286377,-2.3825185298919678,0.083157017827034,0.3208162784576416,0.34884029626846313,0.05903705209493637,1.1663728952407837,1.183337926864624,1.5772819519042969,1.4696849584579468,-1.8812754154205322,-1.8147560358047485,-1.871659755706787,-2.1719775199890137
1268,0.06624723225831985,0.23216809332370758,0.523195743560791,-0.04602181911468506,1.159811019897461,1.2959388494491577,1.6429798603057861,1.472941279411316,-2.2045674324035645,-2.1748955249786377,-1.999931812286377,-2.3825185298919678,0.08130930364131927,0.31738510727882385,0.35820552706718445,0.06309952586889267,1.167441725730896,1.1881400346755981,1.5755943059921265,1.4684020280838013,-1.8632209300994873,-1.8309509754180908,-1.8761769533157349,-2.160041332244873
1269,0.06624723225831985,0.23216809332370758,0.523195743560791,-0.04602181911468506,1.159811019897461,1.2959388494491577,1.6429798603057861,1.472941279411316,-2.2045674324035645,-2.1748955249786377,-1.999931812286377,-2.3825185298919678,0.07845816016197205,0.3139284551143646,0.3690283000469208,0.06655105203390121,1.1692391633987427,1.1946349143981934,1.5735270977020264,1.4666510820388794,-1.845569372177124,-1.8478758335113525,-1.8822860717773438,-2.147092819213867
1270,0.06624723225831985,0.23216809332370758,0.523195743560791,-0.04602181911468506,1.159811019897461,1.2959388494491577,1.6429798603057861,1.472941279411316,-2.2045674324035645,-2.1748955249786377,-1.999931812286377,-2.3825185298919678,0.0748085156083107,0.31004011631011963,0.38146474957466125,0.06962063163518906,1.1715959310531616,1.202964186668396,1.5711394548416138,1.4643797874450684,-1.8278145790100098,-1.8662837743759155,-1.8902260065078735,-2.1328024864196777
1271,0.06624723225831985,0.23216809332370758,0.523195743560791,-0.04602181911468506,1.159811019897461,1.2959388494491577,1.6429798603057861,1.472941279411316,-2.2045674324035645,-2.1748955249786377,-1.999931812286377,-2.3825185298919678,0.07041729986667633,0.3050587773323059,0.3955737054347992,0.07272576540708542,1.1739205121994019,1.2131106853485107,1.5683891773223877,1.461363434791565,-1.809671401977539,-1.8871328830718994,-1.9002580642700195,-2.117110252380371
1272,0.06624723225831985,0.23216809332370758,0.523195743560791,-0.04602181911468506,1.159811019897461,1.2959388494491577,1.6429798603057861,1.472941279411316,-2.2045674324035645,-2.1748955249786377,-1.999931812286377,-2.3825185298919678,0.06474389135837555,0.2984274625778198,0.41217735409736633,0.07635246962308884,1.1762068271636963,1.225853681564331,1.5653756856918335,1.4571690559387207,-1.789998173713684,-1.9122742414474487,-1.913137674331665,-2.099278688430786
1273,0.06624723225831985,0.23216809332370758,0.523195743560791,-0.04602181911468506,1.159811019897461,1.2959388494491577,1.6429798603057861,1.472941279411316,-2.2045674324035645,-2.1748955249786377,-1.999931812286377,-2.3825185298919678,0.05666067823767662,0.28951704502105713,0.4324183762073517,0.08121248334646225,1.1789734363555908,1.2413674592971802,1.5617705583572388,1.4520602226257324,-1.7668275833129883,-1.9448902606964111,-1.930436372756958,-2.0778777599334717
1274,0.06624723225831985,0.23216809332370758,0.523195743560791,-0.04602181911468506,1.159811019897461,1.2959388494491577,1.6429798603057861,1.472941279411316,-2.2045674324035645,-2.1748955249786377,-1.999931812286377,-2.3825185298919678,0.04564467445015907,0.27973848581314087,0.45596566796302795,0.08586984127759933,1.184171438217163,1.257448434829712,1.5555267333984375,1.4477306604385376,-1.7387514114379883,-1.9856150150299072,-1.9544180631637573,-2.0518991947174072
1275,0.06624723225831985,0.23216809332370758,0.523195743560791,-0.04602181911468506,1.159811019897461,1.2959388494491577,1.6429798603057861,1.472941279411316,-2.2045674324035645,-2.1748955249786377,-1.999931812286377,-2.3825185298919678,0.03178621083498001,0.2702159881591797,0.48153290152549744,0.09030013531446457,1.1914036273956299,1.274760127067566,1.5475759506225586,1.4449427127838135,-1.7054131031036377,-2.0302042961120605,-1.9835559129714966,-2.0228493213653564
1276,0.06624723225831985,0.23216809332370758,0.523195743560791,-0.04602181911468506,1.159811019897461,1.2959388494491577,1.6429798603057861,1.472941279411316,-2.2045674324035645,-2.1748955249786377,-1.999931812286377,-2.3825185298919678,0.017371580004692078,0.26068928837776184,0.5080745816230774,0.09423347562551498,1.1984641551971436,1.2936280965805054,1.538888931274414,1.4432861804962158,-1.6699403524398804,-2.0745413303375244,-2.012359380722046,-1.9938552379608154
1277,0.06624723225831985,0.23216809332370758,0.523195743560791,-0.04602181911468506,1.159811019897461,1.2959388494491577,1.6429798603057861,1.472941279411316,-2.2045674324035645,-2.1748955249786377,-1.999931812286377,-2.3825185298919678,0.005108289420604706,0.25126731395721436,0.5330294370651245,0.09636496752500534,1.2038965225219727,1.3119655847549438,1.5311346054077148,1.4412128925323486,-1.6366939544677734,-2.1130383014678955,-2.0366077423095703,-1.968973159790039
1278,0.06624723225831985,0.23216809332370758,0.523195743560791,-0.04602181911468506,1.159811019897461,1.2959388494491577,1.6429798603057861,1.472941279411316,-2.2045674324035645,-2.1748955249786377,-1.999931812286377,-2.3825185298919678,-0.0036072656512260437,0.24349650740623474,0.5532053709030151,0.09663503617048264,1.2075451612472534,1.3270080089569092,1.5251548290252686,1.4391189813613892,-1.6105539798736572,-2.1421306133270264,-2.0548577308654785,-1.951416254043579
1279,0.06679222732782364,0.2317442148923874,0.523195743560791,-0.04590076208114624,1.1596899032592773,1.2967259883880615,1.6435248851776123,1.472941279411316,-2.206505298614502,-2.176833391189575,-2.0006585121154785,-2.382357120513916,-0.011525653302669525,0.23860931396484375,0.5672574043273926,0.09518473595380783,1.2164204120635986,1.3360792398452759,1.5283700227737427,1.434315800666809,-1.6001015901565552,-2.159550428390503,-2.0727977752685547,-1.9312824010849
1280,0.06364336609840393,0.22387205064296722,0.5352461934089661,-0.04638516902923584,1.1583577394485474,1.297755479812622,1.6489747762680054,1.472032904624939,-2.213085651397705,-2.187450647354126,-2.0086114406585693,-2.381105661392212,-0.01227918267250061,0.23835468292236328,0.5788235068321228,0.10492267459630966,1.2215514183044434,1.3430616855621338,1.5139305591583252,1.4449690580368042,-1.6015558242797852,-2.1778953075408936,-2.0632450580596924,-1.9295551776885986
1281,0.068063884973526,0.22308483719825745,0.7012881636619568,-0.15169042348861694,1.2210928201675415,1.3839253187179565,1.7732943296432495,1.5311347246170044,-2.402259588241577,-2.3879685401916504,-2.139531373977661,-2.5249037742614746,-0.049534060060977936,0.2669649124145508,0.5911394953727722,0.08034267276525497,1.351667881011963,1.3406157493591309,1.542343020439148,1.4728044271469116,-1.5494141578674316,-2.2576053142547607,-2.0277700424194336,-1.8842577934265137
1282,0.043781306594610214,0.2249014973640442,0.8468019366264343,-0.3683564066886902,1.214613437652588,1.4036056995391846,1.9077872037887573,1.5072153806686401,-2.621872663497925,-2.6406445503234863,-2.3066229820251465,-2.720335006713867,-0.03196679800748825,0.2846153974533081,0.5316298007965088,0.026387177407741547,1.4250800609588623,1.4010686874389648,1.5835028886795044,1.472773551940918,-1.5832080841064453,-2.3584322929382324,-1.9543763399124146,-1.8114933967590332
1283,0.07751047611236572,0.22744479775428772,0.8464386463165283,-0.47529667615890503,1.2509464025497437,1.3893147706985474,1.9289814233779907,1.452897548675537,-2.682346820831299,-2.7502896785736084,-2.3508684635162354,-2.7697885036468506,-0.046315111219882965,0.2531241774559021,0.5468608140945435,-0.011677078902721405,1.3885860443115234,1.3952739238739014,1.6228556632995605,1.4214788675308228,-1.6579914093017578,-2.3665459156036377,-1.9940648078918457,-1.7830148935317993
1284,0.08289987593889236,0.24058525264263153,0.7122486233711243,-0.20219331979751587,1.1877875328063965,1.3414156436920166,1.6945728063583374,1.393553614616394,-2.5716521739959717,-2.674999475479126,-2.2149829864501953,-2.603665590286255,0.0688553974032402,0.1920742690563202,0.5456075072288513,0.059823088347911835,1.225488305091858,1.3824551105499268,1.566861867904663,1.4880657196044922,-1.985926866531372,-2.2900912761688232,-2.1224477291107178,-1.9749102592468262
1285,0.08956093341112137,0.22926145792007446,0.6625329256057739,-0.1699175238609314,1.1641709804534912,1.339356780052185,1.6480059623718262,1.3802920579910278,-2.5150132179260254,-2.613516092300415,-2.17085862159729,-2.5631744861602783,0.0755557268857956,0.193631112575531,0.4817010462284088,0.02965962141752243,1.1366076469421387,1.3785114288330078,1.5676900148391724,1.501753330230713,-2.109226942062378,-2.113036870956421,-2.0756444931030273,-2.057546377182007
1286,0.09591921418905258,0.21557600796222687,0.6145732998847961,-0.12050455808639526,1.1549665927886963,1.3332407474517822,1.6237233877182007,1.3805948495864868,-2.4559919834136963,-2.538710355758667,-2.146232843399048,-2.5342695713043213,0.14504405856132507,0.18699032068252563,0.4423033893108368,-0.026101961731910706,1.0841634273529053,1.3720221519470215,1.5935068130493164,1.5172345638275146,-2.1588804721832275,-1.982864499092102,-2.047161340713501,-2.1496992111206055
1287,0.10033973306417465,0.20867273211479187,0.5910173654556274,-0.1057896614074707,1.1459439992904663,1.3248236179351807,1.6180311441421509,1.3845309019088745,-2.4209508895874023,-2.4867136478424072,-2.123544931411743,-2.5052435398101807,0.16812199354171753,0.23287227749824524,0.41123321652412415,-0.06495938450098038,1.0948212146759033,1.3427608013153076,1.5810965299606323,1.4995371103286743,-2.1697113513946533,-1.9105124473571777,-2.0023508071899414,-2.23514723777771
1288,0.12704451382160187,0.21182160079479218,0.5545632243156433,-0.09289145469665527,1.1354678869247437,1.316890835762024,1.6198478937149048,1.4077839851379395,-2.35002064704895,-2.398585796356201,-2.0920562744140625,-2.4658827781677246,0.16642603278160095,0.24927198886871338,0.40185633301734924,-0.0662432461977005,1.1270114183425903,1.291037917137146,1.5918446779251099,1.47712242603302,-2.1836421489715576,-1.8424831628799438,-2.0005290508270264,-2.250544548034668
1289,0.13479556143283844,0.21624211966991425,0.537486732006073,-0.08816814422607422,1.1341962814331055,1.3137420415878296,1.6251161098480225,1.4338833093643188,-2.2916457653045654,-2.3335094451904297,-2.06819748878479,-2.442387342453003,0.1522330790758133,0.25942832231521606,0.38844171166419983,-0.04382464289665222,1.1586637496948242,1.2751349210739136,1.5828709602355957,1.4761295318603516,-2.1893880367279053,-1.8175160884857178,-1.9943130016326904,-2.2509701251983643
1290,0.13794443011283875,0.21545490622520447,0.5320367813110352,-0.08253651857376099,1.137163519859314,1.312712550163269,1.6340177059173584,1.4515048265457153,-2.2459468841552734,-2.2819972038269043,-2.048739194869995,-2.4271678924560547,0.14147719740867615,0.27158764004707336,0.366653174161911,-0.01714743673801422,1.1581001281738281,1.2657339572906494,1.5769188404083252,1.4807368516921997,-2.1859512329101562,-1.8056796789169312,-1.9799858331680298,-2.2498412132263184
1291,0.13818664848804474,0.21648433804512024,0.5301595330238342,-0.07417994737625122,1.1446117162704468,1.3133786916732788,1.6481270790100098,1.4699134826660156,-2.2146599292755127,-2.2434842586517334,-2.0353362560272217,-2.4154202938079834,0.12679749727249146,0.28719907999038696,0.3507480323314667,-7.009506225585938e-05,1.1623207330703735,1.2617846727371216,1.574105978012085,1.4840655326843262,-2.1732327938079834,-1.785498857498169,-1.9632282257080078,-2.2463040351867676
1292,0.13709665834903717,0.22205540537834167,0.5267078876495361,-0.06673169136047363,1.144551157951355,1.3138631582260132,1.6662330627441406,1.4849916696548462,-2.195241928100586,-2.208362340927124,-2.0258493423461914,-2.4062561988830566,0.1084616482257843,0.3045588433742523,0.33877673745155334,0.01199178397655487,1.158743143081665,1.254342794418335,1.56391179561615,1.4789730310440063,-2.158514976501465,-1.7643606662750244,-1.9325788021087646,-2.239717960357666
1293,0.1323128044605255,0.2282925695180893,0.5241040587425232,-0.0645517110824585,1.1444905996322632,1.3145291805267334,1.6772540807724,1.4891095161437988,-2.1879351139068604,-2.1894690990448,-2.0198745727539062,-2.3951947689056396,0.09098681062459946,0.3171459436416626,0.3346611261367798,0.0147576704621315,1.166634440422058,1.2513997554779053,1.5547668933868408,1.475870132446289,-2.146338701248169,-1.7498925924301147,-1.9147523641586304,-2.2442381381988525
1294,0.1222606673836708,0.23392419517040253,0.5233168005943298,-0.061039507389068604,1.144853949546814,1.3145291805267334,1.6833701133728027,1.4874138832092285,-2.180506944656372,-2.183978796005249,-2.0145859718322754,-2.386232614517212,0.07373695075511932,0.328682005405426,0.32698506116867065,0.019308507442474365,1.1773717403411865,1.2551928758621216,1.548080563545227,1.4790178537368774,-2.1375479698181152,-1.7211308479309082,-1.9007774591445923,-2.255092144012451
1295,0.11505461484193802,0.237981379032135,0.5185935497283936,-0.05904120206832886,1.1469733715057373,1.3150136470794678,1.6836729049682617,1.479602336883545,-2.1855127811431885,-2.1834540367126465,-2.0117197036743164,-2.376664876937866,0.06684064865112305,0.338917076587677,0.31971514225006104,0.016553014516830444,1.16501784324646,1.236011028289795,1.5508947372436523,1.473672866821289,-2.118532657623291,-1.7017546892166138,-1.8863880634307861,-2.2587244510650635
1296,0.11529683321714401,0.23743638396263123,0.5137491226196289,-0.05649787187576294,1.150606632232666,1.3156797885894775,1.6827645301818848,1.4746367931365967,-2.19705867767334,-2.1851494312286377,-2.0109124183654785,-2.374363899230957,0.06854946911334991,0.3421282172203064,0.3128471076488495,0.018816739320755005,1.1553804874420166,1.2225430011749268,1.5614010095596313,1.4713112115859985,-2.0942420959472656,-1.6915943622589111,-1.878119707107544,-2.256688117980957
1297,0.11529683321714401,0.23701250553131104,0.5143546462059021,-0.05141127109527588,1.1513333320617676,1.316588044166565,1.6834306716918945,1.4728807210922241,-2.2054152488708496,-2.1879754066467285,-2.0109527111053467,-2.3740408420562744,0.07051332294940948,0.3448609709739685,0.312092125415802,0.019879311323165894,1.1578078269958496,1.2137110233306885,1.5704152584075928,1.4691948890686035,-2.0766756534576416,-1.6945364475250244,-1.8792043924331665,-2.2530109882354736
1298,0.11541794240474701,0.23580139875411987,0.5169585347175598,-0.05007904767990112,1.1513938903808594,1.3167697191238403,1.6842783689498901,1.4730018377304077,-2.2072319984436035,-2.188056230545044,-2.0112757682800293,-2.373516082763672,0.07423436641693115,0.3464234471321106,0.31381943821907043,0.023302078247070312,1.1655219793319702,1.2034409046173096,1.57787024974823,1.4697660207748413,-2.059994697570801,-1.7108790874481201,-1.8831135034561157,-2.2445273399353027
1299,0.11408573389053345,0.23410585522651672,0.5172613263130188,-0.05020016431808472,1.1516361236572266,1.3154981136322021,1.6842783689498901,1.4730623960494995,-2.206908941268921,-2.188056230545044,-2.0124869346618652,-2.3711342811584473,0.07919365912675858,0.34591883420944214,0.31632667779922485,0.029057465493679047,1.1715525388717651,1.2031242847442627,1.5844305753707886,1.470945119857788,-2.0456745624542236,-1.7292146682739258,-1.8843443393707275,-2.234966516494751
1300,0.11348018050193787,0.23398475348949432,0.5173218846321106,-0.05020016431808472,1.1513333320617676,1.3148925304412842,1.683915138244629,1.4730018377304077,-2.2068686485290527,-2.188056230545044,-2.012688636779785,-2.370649814605713,0.08213996887207031,0.3453364670276642,0.31975075602531433,0.0355338379740715,1.1734795570373535,1.2002801895141602,1.5905214548110962,1.4706140756607056,-2.0319201946258545,-1.7416059970855713,-1.886128544807434,-2.2245144844055176
1301,0.11348018050193787,0.23398475348949432,0.5173218846321106,-0.05020016431808472,1.1513333320617676,1.3148925304412842,1.683915138244629,1.4730018377304077,-2.2068686485290527,-2.188056230545044,-2.012688636779785,-2.370649814605713,0.0846935361623764,0.3436780571937561,0.32327237725257874,0.041483066976070404,1.1730854511260986,1.1971837282180786,1.595597267150879,1.4697773456573486,-2.017796754837036,-1.7525794506072998,-1.8875744342803955,-2.214632272720337
1302,0.11348018050193787,0.23398475348949432,0.5173218846321106,-0.05020016431808472,1.1513333320617676,1.3148925304412842,1.683915138244629,1.4730018377304077,-2.2068686485290527,-2.188056230545044,-2.012688636779785,-2.370649814605713,0.0867193192243576,0.3414919674396515,0.3270450830459595,0.046825818717479706,1.1724438667297363,1.19496750831604,1.5994815826416016,1.4689245223999023,-2.0036046504974365,-1.7633417844772339,-1.8889096975326538,-2.205195188522339
1303,0.11348018050193787,0.23398475348949432,0.5173218846321106,-0.05020016431808472,1.1513333320617676,1.3148925304412842,1.683915138244629,1.4730018377304077,-2.2068686485290527,-2.188056230545044,-2.012688636779785,-2.370649814605713,0.08830208331346512,0.339077353477478,0.33102405071258545,0.05172135680913925,1.1717156171798706,1.1935651302337646,1.6023000478744507,1.468141794204712,-1.9895977973937988,-1.7740540504455566,-1.890259861946106,-2.1961984634399414
1304,0.11348018050193787,0.23398475348949432,0.5173218846321106,-0.05020016431808472,1.1513333320617676,1.3148925304412842,1.683915138244629,1.4730018377304077,-2.2068686485290527,-2.188056230545044,-2.012688636779785,-2.370649814605713,0.08952608704566956,0.3365592062473297,0.33521929383277893,0.05619468539953232,1.170957326889038,1.1929302215576172,1.604252815246582,1.4674115180969238,-1.9759690761566162,-1.7847570180892944,-1.8917264938354492,-2.1875977516174316
1305,0.11348018050193787,0.23398475348949432,0.5173218846321106,-0.05020016431808472,1.1513333320617676,1.3148925304412842,1.683915138244629,1.4730018377304077,-2.2068686485290527,-2.188056230545044,-2.012688636779785,-2.370649814605713,0.09033465385437012,0.33404773473739624,0.3396356999874115,0.060243360698223114,1.170372724533081,1.193009853363037,1.6054729223251343,1.4667469263076782,-1.9629088640213013,-1.79534113407135,-1.8933916091918945,-2.1792616844177246
1306,0.11348018050193787,0.23398475348949432,0.5173218846321106,-0.05020016431808472,1.1513333320617676,1.3148925304412842,1.683915138244629,1.4730018377304077,-2.2068686485290527,-2.188056230545044,-2.012688636779785,-2.370649814605713,0.09064799547195435,0.33164286613464355,0.34428712725639343,0.06380876153707504,1.1702042818069458,1.193732738494873,1.606031060218811,1.4661794900894165,-1.9506452083587646,-1.8056371212005615,-1.8953256607055664,-2.17108154296875
1307,0.11348018050193787,0.23398475348949432,0.5173218846321106,-0.05020016431808472,1.1513333320617676,1.3148925304412842,1.683915138244629,1.4730018377304077,-2.2068686485290527,-2.188056230545044,-2.012688636779785,-2.370649814605713,0.09054099768400192,0.329336941242218,0.34915807843208313,0.06689461320638657,1.170401692390442,1.19503653049469,1.6060967445373535,1.4656437635421753,-1.9391999244689941,-1.8155925273895264,-1.8975896835327148,-2.1630804538726807
1308,0.11348018050193787,0.23398475348949432,0.5173218846321106,-0.05020016431808472,1.1513333320617676,1.3148925304412842,1.683915138244629,1.4730018377304077,-2.2068686485290527,-2.188056230545044,-2.012688636779785,-2.370649814605713,0.09007146209478378,0.3271273970603943,0.3542342185974121,0.06956710666418076,1.1708984375,1.1968793869018555,1.6058017015457153,1.46510648727417,-1.9284862279891968,-1.8252546787261963,-1.9001977443695068,-2.1552562713623047
1309,0.11348018050193787,0.23398475348949432,0.5173218846321106,-0.05020016431808472,1.1513333320617676,1.3148925304412842,1.683915138244629,1.4730018377304077,-2.2068686485290527,-2.188056230545044,-2.012688636779785,-2.370649814605713,0.08927500247955322,0.3249990940093994,0.35954317450523376,0.07191335409879684,1.1716455221176147,1.199212670326233,1.6052254438400269,1.4645448923110962,-1.9183489084243774,-1.8347331285476685,-1.9031554460525513,-2.14753794670105
1310,0.11348018050193787,0.23398475348949432,0.5173218846321106,-0.05020016431808472,1.1513333320617676,1.3148925304412842,1.683915138244629,1.4730018377304077,-2.2068686485290527,-2.188056230545044,-2.012688636779785,-2.370649814605713,0.0881761759519577,0.3229062259197235,0.36516544222831726,0.0740014836192131,1.1726138591766357,1.2020314931869507,1.6044185161590576,1.4639179706573486,-1.9085807800292969,-1.8441839218139648,-1.9064996242523193,-2.1398017406463623
