csirois14/go1-deploy/joint_angles.csv
Timestamp,Joint 1 Angle,Joint 2 Angle,Joint 3 Angle,Joint 4 Angle,Joint 5 Angle,Joint 6 Angle,Joint 7 Angle,Joint 8 Angle,Joint 9 Angle,Joint 10 Angle,Joint 11 Angle,Joint 12 Angle,Desired Joint 1 Angle,Desired Joint 2 Angle,Desired Joint 3 Angle,Desired Joint 4 Angle,Desired Joint 5 Angle,Desired Joint 6 Angle,Desired Joint 7 Angle,Desired Joint 8 Angle,Desired Joint 9 Angle,Desired Joint 10 Angle,Desired Joint 11 Angle,Desired Joint 12 Angle
1101,0.0924069881439209,-0.10106639564037323,0.0988258570432663,-0.08768372237682343,0.8197944164276123,0.8147683143615723,1.013812780380249,1.009392261505127,-1.5653482675552368,-1.5794777870178223,-1.5532373189926147,-1.5395114421844482,0.10000000149011612,-0.10000000149011612,0.10000000149011612,-0.10000000149011612,0.800000011920929,0.800000011920929,1.0,1.0,-1.5,-1.5,-1.5,-1.5
1102,0.0924069881439209,-0.10106639564037323,0.0988258570432663,-0.08762317150831223,0.8199155330657959,0.8148894309997559,1.0138733386993408,1.009392261505127,-1.5653886795043945,-1.5794777870178223,-1.553277611732483,-1.5395114421844482,0.10000000149011612,-0.10000000149011612,0.10000000149011612,-0.10000000149011612,0.800000011920929,0.800000011920929,1.0,1.0,-1.5,-1.5,-1.5,-1.5
1103,0.09065091609954834,-0.10082417726516724,0.0985836386680603,-0.08598818629980087,0.8248204588890076,0.8198549747467041,1.0202316045761108,1.0132677555084229,-1.5794777870178223,-1.596433162689209,-1.564984917640686,-1.5488773584365845,0.10000000149011612,-0.10000000149011612,0.10000000149011612,-0.10000000149011612,0.800000011920929,0.800000011920929,1.0,1.0,-1.5,-1.5,-1.5,-1.5
1104,0.09071147441864014,-0.10088472813367844,0.0985836386680603,-0.08629096299409866,0.8301492929458618,0.824336051940918,1.023017168045044,1.0174461603164673,-1.5877132415771484,-1.6047898530960083,-1.569708228111267,-1.5573146343231201,0.10000000149011612,-0.10000000149011612,0.10000000149011612,-0.10000000149011612,0.800000011920929,0.800000011920929,1.0,1.0,-1.5,-1.5,-1.5,-1.5
1105,0.09186208248138428,-0.10112694650888443,0.0986441895365715,-0.08725984394550323,0.8383848071098328,0.8319054245948792,1.0297387838363647,1.0231988430023193,-1.6076964139938354,-1.625136375427246,-1.5854929685592651,-1.571242332458496,0.10000000149011612,-0.10000000149011612,0.10000000149011612,-0.10000000149011612,0.800000011920929,0.800000011920929,1.0,1.0,-1.5,-1.5,-1.5,-1.5
1106,0.09373927116394043,-0.10142972320318222,0.09912863373756409,-0.08738095313310623,0.8474680781364441,0.8404436707496643,1.0351282358169556,1.0275588035583496,-1.6310303211212158,-1.6481472253799438,-1.6006317138671875,-1.5844433307647705,0.10000000149011612,-0.10000000149011612,0.10000000149011612,-0.10000000149011612,0.800000011920929,0.800000011920929,1.0,1.0,-1.5,-1.5,-1.5,-1.5
1107,0.09694862365722656,-0.10264082252979279,0.10106639564037323,-0.08762317150831223,0.8558852076530457,0.8484369516372681,1.0384587049484253,1.0308892726898193,-1.6577552556991577,-1.6758006811141968,-1.6152456998825073,-1.5986535549163818,0.10000000149011612,-0.10000000149011612,0.10000000149011612,-0.10000000149011612,0.800000011920929,0.800000011920929,1.0,1.0,-1.5,-1.5,-1.5,-1.5
1108,0.10003697872161865,-0.10373082011938095,0.10264082252979279,-0.08780483901500702,0.8619407415390015,0.8548557758331299,1.0386403799057007,1.030828833580017,-1.6829462051391602,-1.7015568017959595,-1.6267914772033691,-1.6101994514465332,0.10000000149011612,-0.10000000149011612,0.10000000149011612,-0.10000000149011612,0.800000011920929,0.800000011920929,1.0,1.0,-1.5,-1.5,-1.5,-1.5
1109,0.10221695899963379,-0.10482081025838852,0.10427581518888474,-0.08780483901500702,0.8664823174476624,0.859276294708252,1.0370659828186035,1.029375433921814,-1.706078290939331,-1.7260210514068604,-1.6365206241607666,-1.6190807819366455,0.10000000149011612,-0.10000000149011612,0.10000000149011612,-0.10000000149011612,0.800000011920929,0.800000011920929,1.0,1.0,-1.5,-1.5,-1.5,-1.5
1110,0.10469973087310791,-0.10633468627929688,0.10494191944599152,-0.08774428069591522,0.8695101141929626,0.8620617985725403,1.0345832109451294,1.0269532203674316,-1.7262632846832275,-1.7464886903762817,-1.6442313194274902,-1.62715482711792,0.10000000149011612,-0.10000000149011612,0.10000000149011612,-0.10000000149011612,0.800000011920929,0.800000011920929,1.0,1.0,-1.5,-1.5,-1.5,-1.5
1111,0.10518419742584229,-0.10778800398111343,0.1054263561964035,-0.08792594820261002,0.8706001043319702,0.8637573719024658,1.0316765308380127,1.0248943567276,-1.741119384765625,-1.7618292570114136,-1.6490757465362549,-1.63228178024292,0.10000000149011612,-0.10000000149011612,0.10000000149011612,-0.10000000149011612,0.800000011920929,0.800000011920929,1.0,1.0,-1.5,-1.5,-1.5,-1.5
1112,0.10633468627929688,-0.108756884932518,0.1056080237030983,-0.08816816657781601,0.870055079460144,0.8637573719024658,1.0284671783447266,1.022108793258667,-1.7498797178268433,-1.7716392278671265,-1.6523053646087646,-1.6368032693862915,0.10000000149011612,-0.10000000149011612,0.10000000149011612,-0.10000000149011612,0.800000011920929,0.800000011920929,1.0,1.0,-1.5,-1.5,-1.5,-1.5
1113,0.10651636123657227,-0.10978632420301437,0.10621357709169388,-0.08816816657781601,0.8684806823730469,0.8623645901679993,1.0257421731948853,1.0208371877670288,-1.7539167404174805,-1.7754743099212646,-1.653112769126892,-1.639790654182434,0.10000000149011612,-0.10000000149011612,0.10000000149011612,-0.10000000149011612,0.800000011920929,0.800000011920929,1.0,1.0,-1.5,-1.5,-1.5,-1.5
1114,0.10609245300292969,-0.10972576588392258,0.10639523714780807,-0.08816816657781601,0.8656951189041138,0.8604268431663513,1.0244098901748657,1.020473837852478,-1.7537956237792969,-1.7758780717849731,-1.6534357070922852,-1.6419706344604492,0.10000000149011612,-0.10000000149011612,0.10000000149011612,-0.10000000149011612,0.800000011920929,0.800000011920929,1.0,1.0,-1.5,-1.5,-1.5,-1.5
1115,0.10512363910675049,-0.10966521501541138,0.10639523714780807,-0.08810760825872421,0.8626068234443665,0.8582468628883362,1.0225327014923096,1.0196261405944824,-1.753109335899353,-1.775353193283081,-1.6534761190414429,-1.6422128677368164,0.10000000149011612,-0.10000000149011612,0.10000000149011612,-0.10000000149011612,0.800000011920929,0.800000011920929,1.0,1.0,-1.5,-1.5,-1.5,-1.5
1116,0.1048814058303833,-0.10954410582780838,0.10639523714780807,-0.08804705739021301,0.8595185279846191,0.8558852076530457,1.01986825466156,1.0175672769546509,-1.7525441646575928,-1.775030255317688,-1.6533952951431274,-1.6422531604766846,0.10000000149011612,-0.10000000149011612,0.10000000149011612,-0.10000000149011612,0.800000011920929,0.800000011920929,1.0,1.0,-1.5,-1.5,-1.5,-1.5
1117,0.1048814058303833,-0.10966521501541138,0.10645579546689987,-0.08780483901500702,0.8569751977920532,0.8535841107368469,1.0169011354446411,1.0149633884429932,-1.7525441646575928,-1.7751917839050293,-1.6533952951431274,-1.6422935724258423,0.10000000149011612,-0.10000000149011612,0.10000000149011612,-0.10000000149011612,0.800000011920929,0.800000011920929,1.0,1.0,-1.5,-1.5,-1.5,-1.5
1118,0.1049419641494751,-0.10972576588392258,0.10748522728681564,-0.08780483901500702,0.8547952175140381,0.8518280386924744,1.0144789218902588,1.0139944553375244,-1.7527459859848022,-1.7753936052322388,-1.6534357070922852,-1.6435450315475464,0.10000000149011612,-0.10000000149011612,0.10000000149011612,-0.10000000149011612,0.800000011920929,0.800000011920929,1.0,1.0,-1.5,-1.5,-1.5,-1.5
1119,0.1048814058303833,-0.10984687507152557,0.10772745311260223,-0.08780483901500702,0.8534024357795715,0.8498902320861816,1.0136311054229736,1.0136916637420654,-1.75278639793396,-1.7753936052322388,-1.6536375284194946,-1.6449580192565918,0.10000000149011612,-0.10000000149011612,0.10000000149011612,-0.10000000149011612,0.800000011920929,0.800000011920929,1.0,1.0,-1.5,-1.5,-1.5,-1.5
1120,0.1048208475112915,-0.10984687507152557,0.10772745311260223,-0.08780483901500702,0.8517674803733826,0.8481341600418091,1.0130256414413452,1.0130256414413452,-1.7527459859848022,-1.7752320766448975,-1.6544853448867798,-1.6456443071365356,0.10000000149011612,-0.10000000149011612,0.10000000149011612,-0.10000000149011612,0.800000011920929,0.800000011920929,1.0,1.0,-1.5,-1.5,-1.5,-1.5
1121,0.10476028919219971,-0.10978632420301437,0.10766689479351044,-0.08780483901500702,0.8501930236816406,0.8463175296783447,1.0116328001022339,1.0110877752304077,-1.752705693244934,-1.7751917839050293,-1.654646873474121,-1.6456847190856934,0.10000000149011612,-0.10000000149011612,0.10000000149011612,-0.10000000149011612,0.800000011920929,0.800000011920929,1.0,1.0,-1.5,-1.5,-1.5,-1.5
1122,0.1048208475112915,-0.10978632420301437,0.10766689479351044,-0.08780483901500702,0.8488608002662659,0.8447430729866028,1.0103611946105957,1.009695053100586,-1.752705693244934,-1.7751917839050293,-1.654646873474121,-1.6456443071365356,0.10000000149011612,-0.10000000149011612,0.10000000149011612,-0.10000000149011612,0.800000011920929,0.800000011920929,1.0,1.0,-1.5,-1.5,-1.5,-1.5
1123,0.1048208475112915,-0.10984687507152557,0.10766689479351044,-0.08780483901500702,0.8478919267654419,0.8439558744430542,1.0098161697387695,1.0084234476089478,-1.752705693244934,-1.7752320766448975,-1.654646873474121,-1.6457250118255615,0.10000000149011612,-0.10000000149011612,0.10000000149011612,-0.10000000149011612,0.800000011920929,0.800000011920929,1.0,1.0,-1.5,-1.5,-1.5,-1.5
1124,0.1048208475112915,-0.10978632420301437,0.10766689479351044,-0.08780483901500702,0.8474680781364441,0.8434714078903198,1.009695053100586,1.0079995393753052,-1.752705693244934,-1.7752724885940552,-1.6550909280776978,-1.6459672451019287,0.10000000149011612,-0.10000000149011612,0.10000000149011612,-0.10000000149011612,0.800000011920929,0.800000011920929,1.0,1.0,-1.5,-1.5,-1.5,-1.5
1125,0.1048208475112915,-0.10978632420301437,0.10766689479351044,-0.08786538988351822,0.8469836115837097,0.8429870009422302,1.0096344947814941,1.0078178644180298,-1.752705693244934,-1.7752320766448975,-1.6552927494049072,-1.646209478378296,0.10000000149011612,-0.10000000149011612,0.10000000149011612,-0.10000000149011612,0.800000011920929,0.800000011920929,1.0,1.0,-1.5,-1.5,-1.5,-1.5
1126,0.10476028919219971,-0.10984687507152557,0.10772745311260223,-0.08786538988351822,0.8466808199882507,0.8426842093467712,1.0094528198242188,1.0075756311416626,-1.752705693244934,-1.7752320766448975,-1.6552927494049072,-1.64612877368927,0.10000000149011612,-0.10000000149011612,0.10000000149011612,-0.10000000149011612,0.800000011920929,0.800000011920929,1.0,1.0,-1.5,-1.5,-1.5,-1.5
1127,0.10476028919219971,-0.10978632420301437,0.10766689479351044,-0.08780483901500702,0.8466202616691589,0.8426842093467712,1.0092711448669434,1.0075150728225708,-1.7527459859848022,-1.7751917839050293,-1.6552927494049072,-1.64612877368927,0.10000000149011612,-0.10000000149011612,0.10000000149011612,-0.10000000149011612,0.800000011920929,0.800000011920929,1.0,1.0,-1.5,-1.5,-1.5,-1.5
1128,0.1048208475112915,-0.10978632420301437,0.10772745311260223,-0.08786538988351822,0.8468624949455261,0.8429264426231384,1.009392261505127,1.0076361894607544,-1.7527459859848022,-1.775312900543213,-1.6552927494049072,-1.6461690664291382,0.10000000149011612,-0.10000000149011612,0.10000000149011612,-0.10000000149011612,0.800000011920929,0.800000011920929,1.0,1.0,-1.5,-1.5,-1.5,-1.5
1129,0.10476028919219971,-0.10978632420301437,0.10766689479351044,-0.08780483901500702,0.8471047282218933,0.8432291746139526,1.0095133781433105,1.007757306098938,-1.752705693244934,-1.7752724885940552,-1.6552927494049072,-1.646209478378296,0.10000000149011612,-0.10000000149011612,0.10000000149011612,-0.10000000149011612,0.800000011920929,0.800000011920929,1.0,1.0,-1.5,-1.5,-1.5,-1.5
1130,0.1048208475112915,-0.10978632420301437,0.10772745311260223,-0.08786538988351822,0.8474075198173523,0.8435319662094116,1.009695053100586,1.0078784227371216,-1.752705693244934,-1.7752724885940552,-1.6552523374557495,-1.6461690664291382,0.10000000149011612,-0.10000000149011612,0.10000000149011612,-0.10000000149011612,0.800000011920929,0.800000011920929,1.0,1.0,-1.5,-1.5,-1.5,-1.5
1131,0.1048208475112915,-0.10978632420301437,0.10760634392499924,-0.08786538988351822,0.8477708101272583,0.8437741994857788,1.0098767280578613,1.008060097694397,-1.752705693244934,-1.7752724885940552,-1.6552927494049072,-1.6461690664291382,0.10000000149011612,-0.10000000149011612,0.10000000149011612,-0.10000000149011612,0.800000011920929,0.800000011920929,1.0,1.0,-1.5,-1.5,-1.5,-1.5
1132,0.10476028919219971,-0.10978632420301437,0.10766689479351044,-0.08786538988351822,0.8482552766799927,0.8440769910812378,1.009997844696045,1.0082417726516724,-1.7527459859848022,-1.7752320766448975,-1.6552927494049072,-1.6461690664291382,0.10000000149011612,-0.10000000149011612,0.10000000149011612,-0.10000000149011612,0.800000011920929,0.800000011920929,1.0,1.0,-1.5,-1.5,-1.5,-1.5
1133,0.1048208475112915,-0.10978632420301437,0.10766689479351044,-0.08780483901500702,0.8486186265945435,0.8443191647529602,1.0101795196533203,1.0084840059280396,-1.7527459859848022,-1.7752724885940552,-1.6552927494049072,-1.6461690664291382,0.10000000149011612,-0.10000000149011612,0.10000000149011612,-0.10000000149011612,0.800000011920929,0.800000011920929,1.0,1.0,-1.5,-1.5,-1.5,-1.5
1134,0.1048208475112915,-0.10984687507152557,0.10766689479351044,-0.08780483901500702,0.8489213585853577,0.8444402813911438,1.010240077972412,1.0086051225662231,-1.7527459859848022,-1.775312900543213,-1.6552927494049072,-1.6461690664291382,0.10000000149011612,-0.10000000149011612,0.10000000149011612,-0.10000000149011612,0.800000011920929,0.800000011920929,1.0,1.0,-1.5,-1.5,-1.5,-1.5
1135,0.10476028919219971,-0.10978632420301437,0.10760634392499924,-0.08780483901500702,0.8489819169044495,0.8445008397102356,1.010300636291504,1.0087262392044067,-1.752705693244934,-1.7752724885940552,-1.6552927494049072,-1.64612877368927,0.10000000149011612,-0.10000000149011612,0.10000000149011612,-0.10000000149011612,0.800000011920929,0.800000011920929,1.0,1.0,-1.5,-1.5,-1.5,-1.5
1136,0.1048208475112915,-0.10978632420301437,0.10766689479351044,-0.08780483901500702,0.8489819169044495,0.8445613980293274,1.0103611946105957,1.008786678314209,-1.752705693244934,-1.7752320766448975,-1.6552927494049072,-1.6460883617401123,0.10000000149011612,-0.10000000149011612,0.10000000149011612,-0.10000000149011612,0.800000011920929,0.800000011920929,1.0,1.0,-1.5,-1.5,-1.5,-1.5
1137,0.1048208475112915,-0.10984687507152557,0.10766689479351044,-0.08780483901500702,0.8489819169044495,0.8446219563484192,1.0103611946105957,1.008786678314209,-1.7527459859848022,-1.7752320766448975,-1.6552927494049072,-1.64612877368927,0.10000000149011612,-0.10000000149011612,0.10000000149011612,-0.10000000149011612,0.800000011920929,0.800000011920929,1.0,1.0,-1.5,-1.5,-1.5,-1.5
1138,0.10476028919219971,-0.10984687507152557,0.10766689479351044,-0.08786538988351822,0.8489213585853577,0.8445613980293274,1.010300636291504,1.008786678314209,-1.752705693244934,-1.7752320766448975,-1.6552927494049072,-1.64612877368927,0.10000000149011612,-0.10000000149011612,0.10000000149011612,-0.10000000149011612,0.800000011920929,0.800000011920929,1.0,1.0,-1.5,-1.5,-1.5,-1.5
1139,0.1048208475112915,-0.10978632420301437,0.10766689479351044,-0.08786538988351822,0.8489213585853577,0.8445008397102356,1.010300636291504,1.008786678314209,-1.752705693244934,-1.7752320766448975,-1.6552927494049072,-1.6461690664291382,0.10000000149011612,-0.10000000149011612,0.10000000149011612,-0.10000000149011612,0.800000011920929,0.800000011920929,1.0,1.0,-1.5,-1.5,-1.5,-1.5
1140,0.1048208475112915,-0.10978632420301437,0.10766689479351044,-0.08780483901500702,0.8488002419471741,0.8445008397102356,1.010240077972412,1.0087262392044067,-1.752705693244934,-1.7752724885940552,-1.6552927494049072,-1.6461690664291382,0.10000000149011612,-0.10000000149011612,0.10000000149011612,-0.10000000149011612,0.800000011920929,0.800000011920929,1.0,1.0,-1.5,-1.5,-1.5,-1.5
1141,0.10476028919219971,-0.10978632420301437,0.10772745311260223,-0.08780483901500702,0.8486791849136353,0.8444402813911438,1.0101795196533203,1.0087262392044067,-1.752705693244934,-1.7752320766448975,-1.6552927494049072,-1.6461690664291382,0.10000000149011612,-0.10000000149011612,0.10000000149011612,-0.10000000149011612,0.800000011920929,0.800000011920929,1.0,1.0,-1.5,-1.5,-1.5,-1.5
1142,0.10476028919219971,-0.10978632420301437,0.10766689479351044,-0.08786538988351822,0.8486186265945435,0.8444402813911438,1.0101189613342285,1.0087262392044067,-1.7527459859848022,-1.7752320766448975,-1.6552927494049072,-1.6461690664291382,0.10000000149011612,-0.10000000149011612,0.10000000149011612,-0.10000000149011612,0.800000011920929,0.800000011920929,1.0,1.0,-1.5,-1.5,-1.5,-1.5
1143,0.10476028919219971,-0.10978632420301437,0.10766689479351044,-0.08780483901500702,0.8486791849136353,0.8444402813911438,1.0101795196533203,1.0087262392044067,-1.752705693244934,-1.7752320766448975,-1.6552927494049072,-1.6461690664291382,0.10000000149011612,-0.10000000149011612,0.10000000149011612,-0.10000000149011612,0.800000011920929,0.800000011920929,1.0,1.0,-1.5,-1.5,-1.5,-1.5
1144,0.1048208475112915,-0.10978632420301437,0.10772745311260223,-0.08780483901500702,0.8486791849136353,0.8444402813911438,1.0101795196533203,1.0087262392044067,-1.7527459859848022,-1.7752320766448975,-1.6552927494049072,-1.6461690664291382,0.10000000149011612,-0.10000000149011612,0.10000000149011612,-0.10000000149011612,0.800000011920929,0.800000011920929,1.0,1.0,-1.5,-1.5,-1.5,-1.5
1145,0.1048208475112915,-0.10978632420301437,0.10772745311260223,-0.08780483901500702,0.8486791849136353,0.8444402813911438,1.0101795196533203,1.0087262392044067,-1.7527459859848022,-1.7752724885940552,-1.6552927494049072,-1.646209478378296,0.10000000149011612,-0.10000000149011612,0.10000000149011612,-0.10000000149011612,0.800000011920929,0.800000011920929,1.0,1.0,-1.5,-1.5,-1.5,-1.5
1146,0.1048208475112915,-0.10978632420301437,0.10766689479351044,-0.08786538988351822,0.848739743232727,0.8444402813911438,1.0101795196533203,1.0087262392044067,-1.752705693244934,-1.7752724885940552,-1.6552523374557495,-1.6461690664291382,0.10000000149011612,-0.10000000149011612,0.10000000149011612,-0.10000000149011612,0.800000011920929,0.800000011920929,1.0,1.0,-1.5,-1.5,-1.5,-1.5
1147,0.1048208475112915,-0.10978632420301437,0.10766689479351044,-0.08780483901500702,0.848739743232727,0.8444402813911438,1.0101795196533203,1.008786678314209,-1.752705693244934,-1.7752320766448975,-1.6552927494049072,-1.64612877368927,0.10000000149011612,-0.10000000149011612,0.10000000149011612,-0.10000000149011612,0.800000011920929,0.800000011920929,1.0,1.0,-1.5,-1.5,-1.5,-1.5
1148,0.1048208475112915,-0.10978632420301437,0.10766689479351044,-0.08780483901500702,0.8488002419471741,0.8444402813911438,1.0101795196533203,1.008786678314209,-1.7527459859848022,-1.7752320766448975,-1.6552927494049072,-1.6461690664291382,0.10000000149011612,-0.10000000149011612,0.10000000149011612,-0.10000000149011612,0.800000011920929,0.800000011920929,1.0,1.0,-1.5,-1.5,-1.5,-1.5
1149,0.10476028919219971,-0.10978632420301437,0.10766689479351044,-0.08786538988351822,0.848739743232727,0.8445008397102356,1.0101795196533203,1.0087262392044067,-1.752705693244934,-1.7752320766448975,-1.6552927494049072,-1.6461690664291382,0.10000000149011612,-0.10000000149011612,0.10000000149011612,-0.10000000149011612,0.800000011920929,0.800000011920929,1.0,1.0,-1.5,-1.5,-1.5,-1.5
1150,0.10476028919219971,-0.10978632420301437,0.10766689479351044,-0.08786538988351822,0.8486791849136353,0.8445008397102356,1.0101795196533203,1.008786678314209,-1.7527459859848022,-1.7752320766448975,-1.6552927494049072,-1.6461690664291382,0.10000000149011612,-0.10000000149011612,0.10000000149011612,-0.10000000149011612,0.800000011920929,0.800000011920929,1.0,1.0,-1.5,-1.5,-1.5,-1.5
1151,0.10476028919219971,-0.10978632420301437,0.10772745311260223,-0.08786538988351822,0.8486791849136353,0.8444402813911438,1.0101795196533203,1.008786678314209,-1.752705693244934,-1.7752320766448975,-1.6552927494049072,-1.646209478378296,0.10000000149011612,-0.10000000149011612,0.10000000149011612,-0.10000000149011612,0.800000011920929,0.800000011920929,1.0,1.0,-1.5,-1.5,-1.5,-1.5
1152,0.10476028919219971,-0.10978632420301437,0.10766689479351044,-0.08780483901500702,0.8486791849136353,0.8445008397102356,1.0101795196533203,1.008786678314209,-1.752705693244934,-1.7752724885940552,-1.6552927494049072,-1.6461690664291382,0.10000000149011612,-0.10000000149011612,0.10000000149011612,-0.10000000149011612,0.800000011920929,0.800000011920929,1.0,1.0,-1.5,-1.5,-1.5,-1.5
1153,0.1048208475112915,-0.10978632420301437,0.10766689479351044,-0.08780483901500702,0.8486791849136353,0.8444402813911438,1.0101795196533203,1.008786678314209,-1.7527459859848022,-1.7752724885940552,-1.6552927494049072,-1.6461690664291382,0.10000000149011612,-0.10000000149011612,0.10000000149011612,-0.10000000149011612,0.800000011920929,0.800000011920929,1.0,1.0,-1.5,-1.5,-1.5,-1.5
1154,0.1048208475112915,-0.10978632420301437,0.10772745311260223,-0.08780483901500702,0.848739743232727,0.8444402813911438,1.0101795196533203,1.0087262392044067,-1.752705693244934,-1.7752724885940552,-1.6552927494049072,-1.6461690664291382,0.10000000149011612,-0.10000000149011612,0.10000000149011612,-0.10000000149011612,0.800000011920929,0.800000011920929,1.0,1.0,-1.5,-1.5,-1.5,-1.5
1155,0.10476028919219971,-0.10978632420301437,0.10772745311260223,-0.08780483901500702,0.848739743232727,0.8444402813911438,1.0101795196533203,1.0087262392044067,-1.7527459859848022,-1.7752320766448975,-1.6552927494049072,-1.6461690664291382,0.10000000149011612,-0.10000000149011612,0.10000000149011612,-0.10000000149011612,0.800000011920929,0.800000011920929,1.0,1.0,-1.5,-1.5,-1.5,-1.5
1156,0.1048208475112915,-0.10978632420301437,0.10766689479351044,-0.08780483901500702,0.848739743232727,0.8444402813911438,1.0101795196533203,1.0087262392044067,-1.7527459859848022,-1.7752320766448975,-1.6552927494049072,-1.6461690664291382,0.10000000149011612,-0.10000000149011612,0.10000000149011612,-0.10000000149011612,0.800000011920929,0.800000011920929,1.0,1.0,-1.5,-1.5,-1.5,-1.5
1157,0.10476028919219971,-0.10978632420301437,0.10766689479351044,-0.08780483901500702,0.8488002419471741,0.8444402813911438,1.0101795196533203,1.0087262392044067,-1.752705693244934,-1.7752320766448975,-1.6552927494049072,-1.6461690664291382,0.10000000149011612,-0.10000000149011612,0.10000000149011612,-0.10000000149011612,0.800000011920929,0.800000011920929,1.0,1.0,-1.5,-1.5,-1.5,-1.5
1158,0.10476028919219971,-0.10978632420301437,0.10772745311260223,-0.08786538988351822,0.8488002419471741,0.8444402813911438,1.0101795196533203,1.0087262392044067,-1.7527459859848022,-1.7752320766448975,-1.6552927494049072,-1.64612877368927,0.10000000149011612,-0.10000000149011612,0.10000000149011612,-0.10000000149011612,0.800000011920929,0.800000011920929,1.0,1.0,-1.5,-1.5,-1.5,-1.5
1159,0.1048208475112915,-0.10978632420301437,0.10766689479351044,-0.08780483901500702,0.8488002419471741,0.8445008397102356,1.0101795196533203,1.0087262392044067,-1.752705693244934,-1.7752724885940552,-1.6552927494049072,-1.64612877368927,0.10000000149011612,-0.10000000149011612,0.10000000149011612,-0.10000000149011612,0.800000011920929,0.800000011920929,1.0,1.0,-1.5,-1.5,-1.5,-1.5
1160,0.1048208475112915,-0.10978632420301437,0.10766689479351044,-0.08780483901500702,0.8488002419471741,0.8444402813911438,1.0101795196533203,1.008786678314209,-1.752705693244934,-1.7752320766448975,-1.6552927494049072,-1.64612877368927,0.10000000149011612,-0.10000000149011612,0.10000000149011612,-0.10000000149011612,0.800000011920929,0.800000011920929,1.0,1.0,-1.5,-1.5,-1.5,-1.5
1161,0.10476028919219971,-0.10978632420301437,0.10772745311260223,-0.08786538988351822,0.848739743232727,0.8444402813911438,1.0101795196533203,1.008786678314209,-1.7527459859848022,-1.7752320766448975,-1.6552927494049072,-1.64612877368927,0.10000000149011612,-0.10000000149011612,0.10000000149011612,-0.10000000149011612,0.800000011920929,0.800000011920929,1.0,1.0,-1.5,-1.5,-1.5,-1.5
1162,0.1048208475112915,-0.10978632420301437,0.10766689479351044,-0.08780483901500702,0.8488002419471741,0.8444402813911438,1.010240077972412,1.008786678314209,-1.7527459859848022,-1.7752320766448975,-1.6552927494049072,-1.64612877368927,0.10000000149011612,-0.10000000149011612,0.10000000149011612,-0.10000000149011612,0.800000011920929,0.800000011920929,1.0,1.0,-1.5,-1.5,-1.5,-1.5
1163,0.10476028919219971,-0.10984687507152557,0.10766689479351044,-0.08780483901500702,0.848739743232727,0.8444402813911438,1.010240077972412,1.0087262392044067,-1.752705693244934,-1.7752320766448975,-1.6552927494049072,-1.64612877368927,0.10000000149011612,-0.10000000149011612,0.10000000149011612,-0.10000000149011612,0.800000011920929,0.800000011920929,1.0,1.0,-1.5,-1.5,-1.5,-1.5
1164,0.1048208475112915,-0.10984687507152557,0.10766689479351044,-0.08780483901500702,0.848739743232727,0.8445008397102356,1.0101795196533203,1.008786678314209,-1.752705693244934,-1.7752320766448975,-1.6552927494049072,-1.6461690664291382,0.10000000149011612,-0.10000000149011612,0.10000000149011612,-0.10000000149011612,0.800000011920929,0.800000011920929,1.0,1.0,-1.5,-1.5,-1.5,-1.5
1165,0.10476028919219971,-0.10978632420301437,0.10772745311260223,-0.08780483901500702,0.8486791849136353,0.8444402813911438,1.0101795196533203,1.0087262392044067,-1.7527459859848022,-1.7752724885940552,-1.6552927494049072,-1.6461690664291382,0.10000000149011612,-0.10000000149011612,0.10000000149011612,-0.10000000149011612,0.800000011920929,0.800000011920929,1.0,1.0,-1.5,-1.5,-1.5,-1.5
1166,0.1048208475112915,-0.10978632420301437,0.10772745311260223,-0.08786538988351822,0.8486791849136353,0.8444402813911438,1.0101795196533203,1.0087262392044067,-1.752705693244934,-1.7752724885940552,-1.6552927494049072,-1.6461690664291382,0.10000000149011612,-0.10000000149011612,0.10000000149011612,-0.10000000149011612,0.800000011920929,0.800000011920929,1.0,1.0,-1.5,-1.5,-1.5,-1.5
1167,0.1048208475112915,-0.10978632420301437,0.10766689479351044,-0.08780483901500702,0.8486791849136353,0.8444402813911438,1.0101795196533203,1.0087262392044067,-1.752705693244934,-1.7752724885940552,-1.6552927494049072,-1.6461690664291382,0.10000000149011612,-0.10000000149011612,0.10000000149011612,-0.10000000149011612,0.800000011920929,0.800000011920929,1.0,1.0,-1.5,-1.5,-1.5,-1.5
1168,0.10476028919219971,-0.10978632420301437,0.10772745311260223,-0.08780483901500702,0.8486791849136353,0.8444402813911438,1.0101795196533203,1.0087262392044067,-1.7527459859848022,-1.7752724885940552,-1.6552927494049072,-1.6461690664291382,0.10000000149011612,-0.10000000149011612,0.10000000149011612,-0.10000000149011612,0.800000011920929,0.800000011920929,1.0,1.0,-1.5,-1.5,-1.5,-1.5
1169,0.10476028919219971,-0.10984687507152557,0.10772745311260223,-0.08780483901500702,0.848739743232727,0.844379723072052,1.0101795196533203,1.0087262392044067,-1.752705693244934,-1.7752724885940552,-1.6552927494049072,-1.6461690664291382,0.10000000149011612,-0.10000000149011612,0.10000000149011612,-0.10000000149011612,0.800000011920929,0.800000011920929,1.0,1.0,-1.5,-1.5,-1.5,-1.5
1170,0.10476028919219971,-0.10978632420301437,0.10772745311260223,-0.08780483901500702,0.848739743232727,0.8444402813911438,1.010240077972412,1.0087262392044067,-1.7527459859848022,-1.7752320766448975,-1.6552927494049072,-1.64612877368927,0.10000000149011612,-0.10000000149011612,0.10000000149011612,-0.10000000149011612,0.800000011920929,0.800000011920929,1.0,1.0,-1.5,-1.5,-1.5,-1.5
1171,0.10476028919219971,-0.10984687507152557,0.10772745311260223,-0.08780483901500702,0.8488002419471741,0.8444402813911438,1.010240077972412,1.0087262392044067,-1.752705693244934,-1.7752320766448975,-1.6552927494049072,-1.64612877368927,0.10000000149011612,-0.10000000149011612,0.10000000149011612,-0.10000000149011612,0.800000011920929,0.800000011920929,1.0,1.0,-1.5,-1.5,-1.5,-1.5
1172,0.10476028919219971,-0.10978632420301437,0.10772745311260223,-0.08786538988351822,0.8488002419471741,0.8444402813911438,1.010300636291504,1.0087262392044067,-1.7527459859848022,-1.7752320766448975,-1.6552927494049072,-1.6461690664291382,0.10000000149011612,-0.10000000149011612,0.10000000149011612,-0.10000000149011612,0.800000011920929,0.800000011920929,1.0,1.0,-1.5,-1.5,-1.5,-1.5
1173,0.10476028919219971,-0.10984687507152557,0.10772745311260223,-0.08780483901500702,0.8488002419471741,0.8444402813911438,1.010300636291504,1.0087262392044067,-1.752705693244934,-1.7752724885940552,-1.6552927494049072,-1.6461690664291382,0.10000000149011612,-0.10000000149011612,0.10000000149011612,-0.10000000149011612,0.800000011920929,0.800000011920929,1.0,1.0,-1.5,-1.5,-1.5,-1.5
1174,0.10476028919219971,-0.10984687507152557,0.10772745311260223,-0.08780483901500702,0.8488002419471741,0.8445008397102356,1.010240077972412,1.008665680885315,-1.7527459859848022,-1.7752320766448975,-1.6552523374557495,-1.64612877368927,0.10000000149011612,-0.10000000149011612,0.10000000149011612,-0.10000000149011612,0.800000011920929,0.800000011920929,1.0,1.0,-1.5,-1.5,-1.5,-1.5
1175,0.10476028919219971,-0.10978632420301437,0.10772745311260223,-0.08780483901500702,0.848739743232727,0.8444402813911438,1.010240077972412,1.0087262392044067,-1.7527459859848022,-1.7752724885940552,-1.6552927494049072,-1.6461690664291382,0.10000000149011612,-0.10000000149011612,0.10000000149011612,-0.10000000149011612,0.800000011920929,0.800000011920929,1.0,1.0,-1.5,-1.5,-1.5,-1.5
1176,0.10476028919219971,-0.10978632420301437,0.10772745311260223,-0.08780483901500702,0.8486791849136353,0.8444402813911438,1.0101795196533203,1.0087262392044067,-1.752705693244934,-1.7752320766448975,-1.6552927494049072,-1.6461690664291382,0.10000000149011612,-0.10000000149011612,0.10000000149011612,-0.10000000149011612,0.800000011920929,0.800000011920929,1.0,1.0,-1.5,-1.5,-1.5,-1.5
1177,0.1048208475112915,-0.10978632420301437,0.10772745311260223,-0.08780483901500702,0.8486791849136353,0.8444402813911438,1.0101795196533203,1.0087262392044067,-1.752705693244934,-1.7752724885940552,-1.6552927494049072,-1.64612877368927,0.10000000149011612,-0.10000000149011612,0.10000000149011612,-0.10000000149011612,0.800000011920929,0.800000011920929,1.0,1.0,-1.5,-1.5,-1.5,-1.5
1178,0.1048208475112915,-0.10978632420301437,0.10772745311260223,-0.08780483901500702,0.8486186265945435,0.844379723072052,1.0101795196533203,1.0087262392044067,-1.752705693244934,-1.7752724885940552,-1.655333161354065,-1.6461690664291382,0.10000000149011612,-0.10000000149011612,0.10000000149011612,-0.10000000149011612,0.800000011920929,0.800000011920929,1.0,1.0,-1.5,-1.5,-1.5,-1.5
1179,0.1048208475112915,-0.10984687507152557,0.10772745311260223,-0.08780483901500702,0.8486791849136353,0.8444402813911438,1.0101795196533203,1.0087262392044067,-1.752705693244934,-1.7752320766448975,-1.6552927494049072,-1.6461690664291382,0.10000000149011612,-0.10000000149011612,0.10000000149011612,-0.10000000149011612,0.800000011920929,0.800000011920929,1.0,1.0,-1.5,-1.5,-1.5,-1.5
1180,0.10476028919219971,-0.10984687507152557,0.10772745311260223,-0.08786538988351822,0.8486791849136353,0.8445008397102356,1.0101795196533203,1.0087262392044067,-1.752705693244934,-1.7752320766448975,-1.6552927494049072,-1.6461690664291382,0.10000000149011612,-0.10000000149011612,0.10000000149011612,-0.10000000149011612,0.800000011920929,0.800000011920929,1.0,1.0,-1.5,-1.5,-1.5,-1.5
1181,0.10476028919219971,-0.10978632420301437,0.10772745311260223,-0.08786538988351822,0.8486791849136353,0.8444402813911438,1.0101795196533203,1.0087262392044067,-1.752705693244934,-1.7752320766448975,-1.6552927494049072,-1.64612877368927,0.10000000149011612,-0.10000000149011612,0.10000000149011612,-0.10000000149011612,0.800000011920929,0.800000011920929,1.0,1.0,-1.5,-1.5,-1.5,-1.5
1182,0.10476028919219971,-0.10978632420301437,0.10766689479351044,-0.08780483901500702,0.848739743232727,0.8444402813911438,1.0101795196533203,1.0087262392044067,-1.752705693244934,-1.7752724885940552,-1.6552927494049072,-1.64612877368927,0.10000000149011612,-0.10000000149011612,0.10000000149011612,-0.10000000149011612,0.800000011920929,0.800000011920929,1.0,1.0,-1.5,-1.5,-1.5,-1.5
1183,0.10476028919219971,-0.10978632420301437,0.10772745311260223,-0.08780483901500702,0.848739743232727,0.8444402813911438,1.010240077972412,1.0087262392044067,-1.752705693244934,-1.7752724885940552,-1.6552927494049072,-1.64612877368927,0.10000000149011612,-0.10000000149011612,0.10000000149011612,-0.10000000149011612,0.800000011920929,0.800000011920929,1.0,1.0,-1.5,-1.5,-1.5,-1.5
1184,0.1048208475112915,-0.10978632420301437,0.10772745311260223,-0.08780483901500702,0.8486791849136353,0.8444402813911438,1.0101795196533203,1.0087262392044067,-1.752705693244934,-1.7752724885940552,-1.6552927494049072,-1.64612877368927,0.10000000149011612,-0.10000000149011612,0.10000000149011612,-0.10000000149011612,0.800000011920929,0.800000011920929,1.0,1.0,-1.5,-1.5,-1.5,-1.5
1185,0.10476028919219971,-0.10978632420301437,0.10766689479351044,-0.08780483901500702,0.848739743232727,0.8444402813911438,1.0101795196533203,1.0087262392044067,-1.752705693244934,-1.7752320766448975,-1.6552927494049072,-1.64612877368927,0.10000000149011612,-0.10000000149011612,0.10000000149011612,-0.10000000149011612,0.800000011920929,0.800000011920929,1.0,1.0,-1.5,-1.5,-1.5,-1.5
1186,0.10476028919219971,-0.10978632420301437,0.10772745311260223,-0.08780483901500702,0.848739743232727,0.8444402813911438,1.0101795196533203,1.0087262392044067,-1.752705693244934,-1.7752724885940552,-1.6552927494049072,-1.64612877368927,0.10000000149011612,-0.10000000149011612,0.10000000149011612,-0.10000000149011612,0.800000011920929,0.800000011920929,1.0,1.0,-1.5,-1.5,-1.5,-1.5
1187,0.10476028919219971,-0.10984687507152557,0.10772745311260223,-0.08780483901500702,0.848739743232727,0.8445008397102356,1.010240077972412,1.0087262392044067,-1.752705693244934,-1.7752320766448975,-1.655333161354065,-1.64612877368927,0.10000000149011612,-0.10000000149011612,0.10000000149011612,-0.10000000149011612,0.800000011920929,0.800000011920929,1.0,1.0,-1.5,-1.5,-1.5,-1.5
1188,0.10476028919219971,-0.10978632420301437,0.10766689479351044,-0.08786538988351822,0.848739743232727,0.8444402813911438,1.0101795196533203,1.0087262392044067,-1.752705693244934,-1.7752320766448975,-1.6552927494049072,-1.6461690664291382,0.10000000149011612,-0.10000000149011612,0.10000000149011612,-0.10000000149011612,0.800000011920929,0.800000011920929,1.0,1.0,-1.5,-1.5,-1.5,-1.5
1189,0.10476028919219971,-0.10978632420301437,0.10766689479351044,-0.08780483901500702,0.848739743232727,0.8444402813911438,1.0101795196533203,1.0087262392044067,-1.752705693244934,-1.7752724885940552,-1.6552927494049072,-1.64612877368927,0.10000000149011612,-0.10000000149011612,0.10000000149011612,-0.10000000149011612,0.800000011920929,0.800000011920929,1.0,1.0,-1.5,-1.5,-1.5,-1.5
1190,0.10476028919219971,-0.10978632420301437,0.10772745311260223,-0.08780483901500702,0.848739743232727,0.8444402813911438,1.0101795196533203,1.0087262392044067,-1.7527459859848022,-1.7752320766448975,-1.6552927494049072,-1.6461690664291382,0.10000000149011612,-0.10000000149011612,0.10000000149011612,-0.10000000149011612,0.800000011920929,0.800000011920929,1.0,1.0,-1.5,-1.5,-1.5,-1.5
1191,0.10476028919219971,-0.10978632420301437,0.10772745311260223,-0.08780483901500702,0.8486791849136353,0.8444402813911438,1.0101795196533203,1.0087262392044067,-1.7527459859848022,-1.7752724885940552,-1.6552927494049072,-1.6461690664291382,0.10000000149011612,-0.10000000149011612,0.10000000149011612,-0.10000000149011612,0.800000011920929,0.800000011920929,1.0,1.0,-1.5,-1.5,-1.5,-1.5
1192,0.10476028919219971,-0.10978632420301437,0.10772745311260223,-0.08780483901500702,0.8486791849136353,0.8444402813911438,1.0101795196533203,1.0087262392044067,-1.752705693244934,-1.7752724885940552,-1.6552927494049072,-1.6461690664291382,0.10000000149011612,-0.10000000149011612,0.10000000149011612,-0.10000000149011612,0.800000011920929,0.800000011920929,1.0,1.0,-1.5,-1.5,-1.5,-1.5
1193,0.10476028919219971,-0.10978632420301437,0.10772745311260223,-0.08780483901500702,0.848739743232727,0.8444402813911438,1.0101795196533203,1.008786678314209,-1.7527459859848022,-1.7752724885940552,-1.6552927494049072,-1.64612877368927,0.10000000149011612,-0.10000000149011612,0.10000000149011612,-0.10000000149011612,0.800000011920929,0.800000011920929,1.0,1.0,-1.5,-1.5,-1.5,-1.5
1194,0.10476028919219971,-0.10978632420301437,0.10772745311260223,-0.08780483901500702,0.8486791849136353,0.8445008397102356,1.0101795196533203,1.0087262392044067,-1.752705693244934,-1.7752320766448975,-1.6552927494049072,-1.64612877368927,0.10000000149011612,-0.10000000149011612,0.10000000149011612,-0.10000000149011612,0.800000011920929,0.800000011920929,1.0,1.0,-1.5,-1.5,-1.5,-1.5
1195,0.1048208475112915,-0.10978632420301437,0.10766689479351044,-0.08780483901500702,0.848739743232727,0.8444402813911438,1.0101795196533203,1.0087262392044067,-1.7527459859848022,-1.7752724885940552,-1.6552927494049072,-1.6461690664291382,0.10000000149011612,-0.10000000149011612,0.10000000149011612,-0.10000000149011612,0.800000011920929,0.800000011920929,1.0,1.0,-1.5,-1.5,-1.5,-1.5
1196,0.10476028919219971,-0.10984687507152557,0.10772745311260223,-0.08780483901500702,0.848739743232727,0.8444402813911438,1.0101795196533203,1.0087262392044067,-1.752705693244934,-1.7752320766448975,-1.6552927494049072,-1.64612877368927,0.10000000149011612,-0.10000000149011612,0.10000000149011612,-0.10000000149011612,0.800000011920929,0.800000011920929,1.0,1.0,-1.5,-1.5,-1.5,-1.5
1197,0.10476028919219971,-0.10978632420301437,0.10772745311260223,-0.08780483901500702,0.8486791849136353,0.8445008397102356,1.0101795196533203,1.0087262392044067,-1.7527459859848022,-1.7752320766448975,-1.6552927494049072,-1.64612877368927,0.10000000149011612,-0.10000000149011612,0.10000000149011612,-0.10000000149011612,0.800000011920929,0.800000011920929,1.0,1.0,-1.5,-1.5,-1.5,-1.5
1198,0.10476028919219971,-0.10978632420301437,0.10772745311260223,-0.08780483901500702,0.848739743232727,0.8444402813911438,1.0101795196533203,1.0087262392044067,-1.7527459859848022,-1.7752320766448975,-1.6552927494049072,-1.64612877368927,0.10000000149011612,-0.10000000149011612,0.10000000149011612,-0.10000000149011612,0.800000011920929,0.800000011920929,1.0,1.0,-1.5,-1.5,-1.5,-1.5
1199,0.10476028919219971,-0.10984687507152557,0.10766689479351044,-0.08786538988351822,0.848739743232727,0.8444402813911438,1.0101795196533203,1.0087262392044067,-1.752705693244934,-1.7752724885940552,-1.6552927494049072,-1.6461690664291382,0.10000000149011612,-0.10000000149011612,0.10000000149011612,-0.10000000149011612,0.800000011920929,0.800000011920929,1.0,1.0,-1.5,-1.5,-1.5,-1.5
1200,0.10476028919219971,-0.10978632420301437,0.10772745311260223,-0.08780483901500702,0.8486791849136353,0.8444402813911438,1.010240077972412,1.0087262392044067,-1.7527459859848022,-1.7752724885940552,-1.6552523374557495,-1.6461690664291382,0.10000000149011612,-0.10000000149011612,0.10000000149011612,-0.10000000149011612,0.800000011920929,0.800000011920929,1.0,1.0,-1.5,-1.5,-1.5,-1.5
1201,0.10476028919219971,-0.10984687507152557,0.10772745311260223,-0.08780483901500702,0.8486791849136353,0.8444402813911438,1.0101795196533203,1.0087262392044067,-1.752705693244934,-1.7752320766448975,-1.6552927494049072,-1.6461690664291382,0.10000000149011612,-0.10000000149011612,0.10000000149011612,-0.10000000149011612,0.800000011920929,0.800000011920929,1.0,1.0,-1.5,-1.5,-1.5,-1.5
1202,0.10476028919219971,-0.10984687507152557,0.10772745311260223,-0.08780483901500702,0.8486791849136353,0.8444402813911438,1.0101795196533203,1.0087262392044067,-1.7527459859848022,-1.7752724885940552,-1.6552927494049072,-1.64612877368927,0.10000000149011612,-0.10000000149011612,0.10000000149011612,-0.10000000149011612,0.800000011920929,0.800000011920929,1.0,1.0,-1.5,-1.5,-1.5,-1.5
1203,0.10476028919219971,-0.10978632420301437,0.10766689479351044,-0.08780483901500702,0.8486791849136353,0.8445008397102356,1.0101795196533203,1.0087262392044067,-1.7527459859848022,-1.7752724885940552,-1.6552927494049072,-1.6461690664291382,0.10000000149011612,-0.10000000149011612,0.10000000149011612,-0.10000000149011612,0.800000011920929,0.800000011920929,1.0,1.0,-1.5,-1.5,-1.5,-1.5
1204,0.10476028919219971,-0.10978632420301437,0.10772745311260223,-0.08786538988351822,0.8486791849136353,0.8444402813911438,1.0101795196533203,1.0087262392044067,-1.7527459859848022,-1.7752724885940552,-1.6552927494049072,-1.6461690664291382,0.10000000149011612,-0.10000000149011612,0.10000000149011612,-0.10000000149011612,0.800000011920929,0.800000011920929,1.0,1.0,-1.5,-1.5,-1.5,-1.5
1205,0.10476028919219971,-0.10978632420301437,0.10772745311260223,-0.08780483901500702,0.8486791849136353,0.8444402813911438,1.0101795196533203,1.0087262392044067,-1.7527459859848022,-1.7752320766448975,-1.6552927494049072,-1.6461690664291382,0.10000000149011612,-0.10000000149011612,0.10000000149011612,-0.10000000149011612,0.800000011920929,0.800000011920929,1.0,1.0,-1.5,-1.5,-1.5,-1.5
1206,0.10476028919219971,-0.10978632420301437,0.10772745311260223,-0.08780483901500702,0.8486186265945435,0.8444402813911438,1.0101795196533203,1.0087262392044067,-1.7527459859848022,-1.7752320766448975,-1.6552927494049072,-1.6461690664291382,0.10000000149011612,-0.10000000149011612,0.10000000149011612,-0.10000000149011612,0.800000011920929,0.800000011920929,1.0,1.0,-1.5,-1.5,-1.5,-1.5
1207,0.10476028919219971,-0.10984687507152557,0.10772745311260223,-0.08780483901500702,0.8486791849136353,0.8444402813911438,1.0101795196533203,1.008665680885315,-1.752705693244934,-1.7752724885940552,-1.6552927494049072,-1.6461690664291382,0.10000000149011612,-0.10000000149011612,0.10000000149011612,-0.10000000149011612,0.800000011920929,0.800000011920929,1.0,1.0,-1.5,-1.5,-1.5,-1.5
1208,0.10476028919219971,-0.10978632420301437,0.10772745311260223,-0.08786538988351822,0.8486791849136353,0.8444402813911438,1.0101795196533203,1.0087262392044067,-1.7527459859848022,-1.7752724885940552,-1.6552927494049072,-1.6461690664291382,0.10000000149011612,-0.10000000149011612,0.10000000149011612,-0.10000000149011612,0.800000011920929,0.800000011920929,1.0,1.0,-1.5,-1.5,-1.5,-1.5
1209,0.1048208475112915,-0.10978632420301437,0.10766689479351044,-0.08780483901500702,0.8486791849136353,0.8444402813911438,1.0101795196533203,1.0087262392044067,-1.7527459859848022,-1.7752320766448975,-1.6552927494049072,-1.64612877368927,0.10000000149011612,-0.10000000149011612,0.10000000149011612,-0.10000000149011612,0.800000011920929,0.800000011920929,1.0,1.0,-1.5,-1.5,-1.5,-1.5
1210,0.1048208475112915,-0.10984687507152557,0.10772745311260223,-0.08780483901500702,0.8486791849136353,0.8444402813911438,1.010240077972412,1.0087262392044067,-1.752705693244934,-1.7752320766448975,-1.6552927494049072,-1.6461690664291382,0.10000000149011612,-0.10000000149011612,0.10000000149011612,-0.10000000149011612,0.800000011920929,0.800000011920929,1.0,1.0,-1.5,-1.5,-1.5,-1.5
1211,0.10476028919219971,-0.10978632420301437,0.10772745311260223,-0.08780483901500702,0.8486791849136353,0.8444402813911438,1.0101795196533203,1.0087262392044067,-1.752705693244934,-1.7752724885940552,-1.6552927494049072,-1.6461690664291382,0.10000000149011612,-0.10000000149011612,0.10000000149011612,-0.10000000149011612,0.800000011920929,0.800000011920929,1.0,1.0,-1.5,-1.5,-1.5,-1.5
1212,0.1048208475112915,-0.10978632420301437,0.10772745311260223,-0.08780483901500702,0.8486791849136353,0.8444402813911438,1.0101795196533203,1.0087262392044067,-1.7527459859848022,-1.7752320766448975,-1.6552927494049072,-1.6461690664291382,0.10000000149011612,-0.10000000149011612,0.10000000149011612,-0.10000000149011612,0.800000011920929,0.800000011920929,1.0,1.0,-1.5,-1.5,-1.5,-1.5
1213,0.10476028919219971,-0.10978632420301437,0.10766689479351044,-0.08780483901500702,0.8486791849136353,0.8444402813911438,1.010240077972412,1.008665680885315,-1.7527459859848022,-1.7752724885940552,-1.6552927494049072,-1.6461690664291382,0.10000000149011612,-0.10000000149011612,0.10000000149011612,-0.10000000149011612,0.800000011920929,0.800000011920929,1.0,1.0,-1.5,-1.5,-1.5,-1.5
1214,0.10476028919219971,-0.10978632420301437,0.10772745311260223,-0.08780483901500702,0.8486186265945435,0.8444402813911438,1.0101795196533203,1.0087262392044067,-1.752705693244934,-1.7752724885940552,-1.6552927494049072,-1.6461690664291382,0.10000000149011612,-0.10000000149011612,0.10000000149011612,-0.10000000149011612,0.800000011920929,0.800000011920929,1.0,1.0,-1.5,-1.5,-1.5,-1.5
1215,0.10476028919219971,-0.10978632420301437,0.10766689479351044,-0.08786538988351822,0.8486186265945435,0.8444402813911438,1.0101795196533203,1.0087262392044067,-1.7527459859848022,-1.7752724885940552,-1.6552927494049072,-1.64612877368927,0.10000000149011612,-0.10000000149011612,0.10000000149011612,-0.10000000149011612,0.800000011920929,0.800000011920929,1.0,1.0,-1.5,-1.5,-1.5,-1.5
1216,0.10476028919219971,-0.10978632420301437,0.10772745311260223,-0.08780483901500702,0.8486186265945435,0.8444402813911438,1.0101795196533203,1.0087262392044067,-1.752705693244934,-1.7752724885940552,-1.655333161354065,-1.64612877368927,0.10000000149011612,-0.10000000149011612,0.10000000149011612,-0.10000000149011612,0.800000011920929,0.800000011920929,1.0,1.0,-1.5,-1.5,-1.5,-1.5
1217,0.10476028919219971,-0.10984687507152557,0.10772745311260223,-0.08780483901500702,0.8486791849136353,0.8444402813911438,1.0101795196533203,1.0087262392044067,-1.7527459859848022,-1.7752724885940552,-1.6552927494049072,-1.6461690664291382,0.10000000149011612,-0.10000000149011612,0.10000000149011612,-0.10000000149011612,0.800000011920929,0.800000011920929,1.0,1.0,-1.5,-1.5,-1.5,-1.5
1218,0.1048208475112915,-0.10978632420301437,0.10772745311260223,-0.08780483901500702,0.8486791849136353,0.8444402813911438,1.0101795196533203,1.0087262392044067,-1.752705693244934,-1.7752724885940552,-1.655333161354065,-1.6461690664291382,0.10000000149011612,-0.10000000149011612,0.10000000149011612,-0.10000000149011612,0.800000011920929,0.800000011920929,1.0,1.0,-1.5,-1.5,-1.5,-1.5
1219,0.10476028919219971,-0.10984687507152557,0.10766689479351044,-0.08780483901500702,0.8486791849136353,0.8444402813911438,1.0101795196533203,1.008786678314209,-1.7527459859848022,-1.7752724885940552,-1.6552927494049072,-1.64612877368927,0.10000000149011612,-0.10000000149011612,0.10000000149011612,-0.10000000149011612,0.800000011920929,0.800000011920929,1.0,1.0,-1.5,-1.5,-1.5,-1.5
1220,0.10476028919219971,-0.10984687507152557,0.10766689479351044,-0.08780483901500702,0.8486791849136353,0.8445008397102356,1.0101795196533203,1.008786678314209,-1.7527459859848022,-1.7752320766448975,-1.6552927494049072,-1.6461690664291382,0.10000000149011612,-0.10000000149011612,0.10000000149011612,-0.10000000149011612,0.800000011920929,0.800000011920929,1.0,1.0,-1.5,-1.5,-1.5,-1.5
1221,0.10476028919219971,-0.10978632420301437,0.10772745311260223,-0.08780483901500702,0.8486791849136353,0.8444402813911438,1.0101795196533203,1.008665680885315,-1.752705693244934,-1.7752724885940552,-1.6552927494049072,-1.6461690664291382,0.10000000149011612,-0.10000000149011612,0.10000000149011612,-0.10000000149011612,0.800000011920929,0.800000011920929,1.0,1.0,-1.5,-1.5,-1.5,-1.5
1222,0.1048208475112915,-0.10984687507152557,0.10772745311260223,-0.08780483901500702,0.8486186265945435,0.8444402813911438,1.0101189613342285,1.0087262392044067,-1.752705693244934,-1.7752724885940552,-1.6552927494049072,-1.6461690664291382,0.10000000149011612,-0.10000000149011612,0.10000000149011612,-0.10000000149011612,0.800000011920929,0.800000011920929,1.0,1.0,-1.5,-1.5,-1.5,-1.5
1223,0.10476028919219971,-0.10978632420301437,0.10772745311260223,-0.08780483901500702,0.8486791849136353,0.8444402813911438,1.0101795196533203,1.008786678314209,-1.7527459859848022,-1.7752320766448975,-1.6552927494049072,-1.6461690664291382,0.10000000149011612,-0.10000000149011612,0.10000000149011612,-0.10000000149011612,0.800000011920929,0.800000011920929,1.0,1.0,-1.5,-1.5,-1.5,-1.5
1224,0.10476028919219971,-0.10978632420301437,0.10766689479351044,-0.08780483901500702,0.8486186265945435,0.8444402813911438,1.0101795196533203,1.0087262392044067,-1.752705693244934,-1.7752724885940552,-1.6552927494049072,-1.6461690664291382,0.10000000149011612,-0.10000000149011612,0.10000000149011612,-0.10000000149011612,0.800000011920929,0.800000011920929,1.0,1.0,-1.5,-1.5,-1.5,-1.5
1225,0.10476028919219971,-0.10978632420301437,0.10772745311260223,-0.08780483901500702,0.8486791849136353,0.844379723072052,1.0101795196533203,1.0087262392044067,-1.752705693244934,-1.7752320766448975,-1.6552927494049072,-1.6461690664291382,0.10000000149011612,-0.10000000149011612,0.10000000149011612,-0.10000000149011612,0.800000011920929,0.800000011920929,1.0,1.0,-1.5,-1.5,-1.5,-1.5
1226,0.1048208475112915,-0.10984687507152557,0.10772745311260223,-0.08780483901500702,0.8486186265945435,0.8444402813911438,1.0101795196533203,1.008665680885315,-1.752705693244934,-1.7752320766448975,-1.6552927494049072,-1.6461690664291382,0.10000000149011612,-0.10000000149011612,0.10000000149011612,-0.10000000149011612,0.800000011920929,0.800000011920929,1.0,1.0,-1.5,-1.5,-1.5,-1.5
1227,0.10476028919219971,-0.10984687507152557,0.10766689479351044,-0.08786538988351822,0.8486186265945435,0.8444402813911438,1.0101795196533203,1.0087262392044067,-1.7527459859848022,-1.7752724885940552,-1.6552927494049072,-1.6461690664291382,0.10000000149011612,-0.10000000149011612,0.10000000149011612,-0.10000000149011612,0.800000011920929,0.800000011920929,1.0,1.0,-1.5,-1.5,-1.5,-1.5
1228,0.10476028919219971,-0.10978632420301437,0.10772745311260223,-0.08780483901500702,0.8486186265945435,0.8444402813911438,1.0101189613342285,1.008786678314209,-1.752705693244934,-1.7752320766448975,-1.6552927494049072,-1.6461690664291382,0.10000000149011612,-0.10000000149011612,0.10000000149011612,-0.10000000149011612,0.800000011920929,0.800000011920929,1.0,1.0,-1.5,-1.5,-1.5,-1.5
1229,0.10476028919219971,-0.10978632420301437,0.10772745311260223,-0.08780483901500702,0.8486186265945435,0.8444402813911438,1.0101795196533203,1.008786678314209,-1.7527459859848022,-1.7752320766448975,-1.6552927494049072,-1.6461690664291382,0.10000000149011612,-0.10000000149011612,0.10000000149011612,-0.10000000149011612,0.800000011920929,0.800000011920929,1.0,1.0,-1.5,-1.5,-1.5,-1.5
1230,0.10476028919219971,-0.10978632420301437,0.10766689479351044,-0.08786538988351822,0.8486186265945435,0.8444402813911438,1.0101795196533203,1.0087262392044067,-1.752705693244934,-1.7752724885940552,-1.6552927494049072,-1.6461690664291382,0.10000000149011612,-0.10000000149011612,0.10000000149011612,-0.10000000149011612,0.800000011920929,0.800000011920929,1.0,1.0,-1.5,-1.5,-1.5,-1.5
1231,0.10476028919219971,-0.10978632420301437,0.10766689479351044,-0.08780483901500702,0.8486186265945435,0.844379723072052,1.0101795196533203,1.0087262392044067,-1.752705693244934,-1.7752724885940552,-1.6552927494049072,-1.64612877368927,0.10000000149011612,-0.10000000149011612,0.10000000149011612,-0.10000000149011612,0.800000011920929,0.800000011920929,1.0,1.0,-1.5,-1.5,-1.5,-1.5
1232,0.1048208475112915,-0.10978632420301437,0.10772745311260223,-0.08780483901500702,0.8486791849136353,0.8444402813911438,1.0101795196533203,1.0087262392044067,-1.7527459859848022,-1.7752724885940552,-1.6552927494049072,-1.6461690664291382,0.10000000149011612,-0.10000000149011612,0.10000000149011612,-0.10000000149011612,0.800000011920929,0.800000011920929,1.0,1.0,-1.5,-1.5,-1.5,-1.5
1233,0.10476028919219971,-0.10978632420301437,0.10772745311260223,-0.08780483901500702,0.8486791849136353,0.844379723072052,1.0101795196533203,1.008665680885315,-1.752705693244934,-1.7752320766448975,-1.6552927494049072,-1.6461690664291382,0.10000000149011612,-0.10000000149011612,0.10000000149011612,-0.10000000149011612,0.800000011920929,0.800000011920929,1.0,1.0,-1.5,-1.5,-1.5,-1.5
1234,0.10476028919219971,-0.10978632420301437,0.10766689479351044,-0.08780483901500702,0.8486791849136353,0.8444402813911438,1.0101795196533203,1.0087262392044067,-1.7527459859848022,-1.7752724885940552,-1.6552927494049072,-1.646209478378296,0.10000000149011612,-0.10000000149011612,0.10000000149011612,-0.10000000149011612,0.800000011920929,0.800000011920929,1.0,1.0,-1.5,-1.5,-1.5,-1.5
1235,0.10476028919219971,-0.10984687507152557,0.10766689479351044,-0.08780483901500702,0.8486186265945435,0.8444402813911438,1.0100584030151367,1.0087262392044067,-1.752705693244934,-1.7752724885940552,-1.655333161354065,-1.64612877368927,0.10000000149011612,-0.10000000149011612,0.10000000149011612,-0.10000000149011612,0.800000011920929,0.800000011920929,1.0,1.0,-1.5,-1.5,-1.5,-1.5
1236,0.10476028919219971,-0.10978632420301437,0.10772745311260223,-0.08780483901500702,0.8485580682754517,0.8444402813911438,1.0101189613342285,1.0087262392044067,-1.7527459859848022,-1.7752724885940552,-1.6552927494049072,-1.646209478378296,0.10000000149011612,-0.10000000149011612,0.10000000149011612,-0.10000000149011612,0.800000011920929,0.800000011920929,1.0,1.0,-1.5,-1.5,-1.5,-1.5
1237,0.10476028919219971,-0.10978632420301437,0.10772745311260223,-0.08780483901500702,0.8486186265945435,0.844379723072052,1.0101189613342285,1.0087262392044067,-1.7527459859848022,-1.7752724885940552,-1.6552927494049072,-1.6461690664291382,0.10000000149011612,-0.10000000149011612,0.10000000149011612,-0.10000000149011612,0.800000011920929,0.800000011920929,1.0,1.0,-1.5,-1.5,-1.5,-1.5
1238,0.10476028919219971,-0.10978632420301437,0.10772745311260223,-0.08786538988351822,0.8486186265945435,0.8444402813911438,1.0101795196533203,1.0087262392044067,-1.7527459859848022,-1.7752724885940552,-1.6552523374557495,-1.6461690664291382,0.10000000149011612,-0.10000000149011612,0.10000000149011612,-0.10000000149011612,0.800000011920929,0.800000011920929,1.0,1.0,-1.5,-1.5,-1.5,-1.5
1239,0.10476028919219971,-0.10984687507152557,0.10772745311260223,-0.08780483901500702,0.8486186265945435,0.844379723072052,1.0101189613342285,1.0087262392044067,-1.752705693244934,-1.7752724885940552,-1.6552927494049072,-1.6461690664291382,0.10000000149011612,-0.10000000149011612,0.10000000149011612,-0.10000000149011612,0.800000011920929,0.800000011920929,1.0,1.0,-1.5,-1.5,-1.5,-1.5
1240,0.10476028919219971,-0.10984687507152557,0.10766689479351044,-0.08780483901500702,0.8486791849136353,0.8444402813911438,1.0101795196533203,1.0087262392044067,-1.752705693244934,-1.7752724885940552,-1.655333161354065,-1.6461690664291382,0.10000000149011612,-0.10000000149011612,0.10000000149011612,-0.10000000149011612,0.800000011920929,0.800000011920929,1.0,1.0,-1.5,-1.5,-1.5,-1.5
1241,0.1048208475112915,-0.10984687507152557,0.10766689479351044,-0.08780483901500702,0.8486186265945435,0.8444402813911438,1.0101795196533203,1.008665680885315,-1.7527459859848022,-1.7752724885940552,-1.655333161354065,-1.6461690664291382,0.10000000149011612,-0.10000000149011612,0.10000000149011612,-0.10000000149011612,0.800000011920929,0.800000011920929,1.0,1.0,-1.5,-1.5,-1.5,-1.5
1242,0.10476028919219971,-0.10978632420301437,0.10766689479351044,-0.08780483901500702,0.8486186265945435,0.844379723072052,1.0101189613342285,1.0087262392044067,-1.752705693244934,-1.7752724885940552,-1.6552927494049072,-1.6461690664291382,0.10000000149011612,-0.10000000149011612,0.10000000149011612,-0.10000000149011612,0.800000011920929,0.800000011920929,1.0,1.0,-1.5,-1.5,-1.5,-1.5
1243,0.1048208475112915,-0.10978632420301437,0.10772745311260223,-0.08780483901500702,0.8486186265945435,0.844379723072052,1.0101189613342285,1.0087262392044067,-1.7527459859848022,-1.7752724885940552,-1.6552927494049072,-1.6461690664291382,0.10000000149011612,-0.10000000149011612,0.10000000149011612,-0.10000000149011612,0.800000011920929,0.800000011920929,1.0,1.0,-1.5,-1.5,-1.5,-1.5
1244,0.10476028919219971,-0.10978632420301437,0.10766689479351044,-0.08780483901500702,0.8484975099563599,0.8444402813911438,1.0101795196533203,1.0087262392044067,-1.752705693244934,-1.7752724885940552,-1.6552927494049072,-1.646209478378296,0.10000000149011612,-0.10000000149011612,0.10000000149011612,-0.10000000149011612,0.800000011920929,0.800000011920929,1.0,1.0,-1.5,-1.5,-1.5,-1.5
1245,0.10476028919219971,-0.10978632420301437,0.10772745311260223,-0.08786538988351822,0.8484975099563599,0.844379723072052,1.0101189613342285,1.0087262392044067,-1.752705693244934,-1.7752724885940552,-1.6552927494049072,-1.6461690664291382,0.10000000149011612,-0.10000000149011612,0.10000000149011612,-0.10000000149011612,0.800000011920929,0.800000011920929,1.0,1.0,-1.5,-1.5,-1.5,-1.5
1246,0.10476028919219971,-0.10978632420301437,0.10772745311260223,-0.08780483901500702,0.8484975099563599,0.844379723072052,1.0100584030151367,1.008665680885315,-1.752705693244934,-1.7752724885940552,-1.6552927494049072,-1.6461690664291382,0.10000000149011612,-0.10000000149011612,0.10000000149011612,-0.10000000149011612,0.800000011920929,0.800000011920929,1.0,1.0,-1.5,-1.5,-1.5,-1.5
1247,0.10476028919219971,-0.10984687507152557,0.10772745311260223,-0.08780483901500702,0.8484975099563599,0.844379723072052,1.0101189613342285,1.008665680885315,-1.752705693244934,-1.7752724885940552,-1.6552927494049072,-1.6461690664291382,0.10000000149011612,-0.10000000149011612,0.10000000149011612,-0.10000000149011612,0.800000011920929,0.800000011920929,1.0,1.0,-1.5,-1.5,-1.5,-1.5
1248,0.10476028919219971,-0.10978632420301437,0.10766689479351044,-0.08780483901500702,0.8485580682754517,0.844379723072052,1.0100584030151367,1.008665680885315,-1.7527459859848022,-1.7752320766448975,-1.6552927494049072,-1.6461690664291382,0.10000000149011612,-0.10000000149011612,0.10000000149011612,-0.10000000149011612,0.800000011920929,0.800000011920929,1.0,1.0,-1.5,-1.5,-1.5,-1.5
1249,0.10476028919219971,-0.10978632420301437,0.10772745311260223,-0.08780483901500702,0.8485580682754517,0.8443191647529602,1.0101189613342285,1.008665680885315,-1.7527459859848022,-1.7752320766448975,-1.6552927494049072,-1.6461690664291382,0.10000000149011612,-0.10000000149011612,0.10000000149011612,-0.10000000149011612,0.800000011920929,0.800000011920929,1.0,1.0,-1.5,-1.5,-1.5,-1.5
1250,0.10476028919219971,-0.10978632420301437,0.10772745311260223,-0.08780483901500702,0.8485580682754517,0.8444402813911438,1.0101189613342285,1.008786678314209,-1.7527459859848022,-1.7752724885940552,-1.655333161354065,-1.6461690664291382,0.10000000149011612,-0.10000000149011612,0.10000000149011612,-0.10000000149011612,0.800000011920929,0.800000011920929,1.0,1.0,-1.5,-1.5,-1.5,-1.5
1251,0.10476028919219971,-0.10978632420301437,0.10772745311260223,-0.08780483901500702,0.8485580682754517,0.844379723072052,1.0101189613342285,1.0087262392044067,-1.752705693244934,-1.7752724885940552,-1.6552927494049072,-1.6461690664291382,0.10000000149011612,-0.10000000149011612,0.10000000149011612,-0.10000000149011612,0.800000011920929,0.800000011920929,1.0,1.0,-1.5,-1.5,-1.5,-1.5
1252,0.10476028919219971,-0.10978632420301437,0.10772745311260223,-0.08780483901500702,0.8485580682754517,0.8444402813911438,1.0101189613342285,1.0087262392044067,-1.7527459859848022,-1.7752724885940552,-1.6552927494049072,-1.6461690664291382,0.10000000149011612,-0.10000000149011612,0.10000000149011612,-0.10000000149011612,0.800000011920929,0.800000011920929,1.0,1.0,-1.5,-1.5,-1.5,-1.5
1253,0.10476028919219971,-0.10978632420301437,0.10772745311260223,-0.08786538988351822,0.8486186265945435,0.844379723072052,1.0101189613342285,1.0087262392044067,-1.752705693244934,-1.7752320766448975,-1.6552927494049072,-1.6461690664291382,0.10000000149011612,-0.10000000149011612,0.10000000149011612,-0.10000000149011612,0.800000011920929,0.800000011920929,1.0,1.0,-1.5,-1.5,-1.5,-1.5
1254,0.10476028919219971,-0.10984687507152557,0.10772745311260223,-0.08780483901500702,0.8486186265945435,0.844379723072052,1.0101795196533203,1.008665680885315,-1.7527459859848022,-1.7752320766448975,-1.6552927494049072,-1.6461690664291382,0.10000000149011612,-0.10000000149011612,0.10000000149011612,-0.10000000149011612,0.800000011920929,0.800000011920929,1.0,1.0,-1.5,-1.5,-1.5,-1.5
1255,0.10476028919219971,-0.10984687507152557,0.10766689479351044,-0.08774428069591522,0.8486186265945435,0.844379723072052,1.0101795196533203,1.008665680885315,-1.752705693244934,-1.7752724885940552,-1.6552927494049072,-1.646209478378296,0.10000000149011612,-0.10000000149011612,0.10000000149011612,-0.10000000149011612,0.800000011920929,0.800000011920929,1.0,1.0,-1.5,-1.5,-1.5,-1.5
1256,0.10476028919219971,-0.10984687507152557,0.10772745311260223,-0.08780483901500702,0.8485580682754517,0.844379723072052,1.0101795196533203,1.008665680885315,-1.752705693244934,-1.7752724885940552,-1.6552927494049072,-1.6461690664291382,0.10000000149011612,-0.10000000149011612,0.10000000149011612,-0.10000000149011612,0.800000011920929,0.800000011920929,1.0,1.0,-1.5,-1.5,-1.5,-1.5
1257,0.10476028919219971,-0.10984687507152557,0.10772745311260223,-0.08780483901500702,0.8485580682754517,0.844379723072052,1.0101189613342285,1.0087262392044067,-1.752705693244934,-1.7752320766448975,-1.6552927494049072,-1.6461690664291382,0.10000000149011612,-0.10000000149011612,0.10000000149011612,-0.10000000149011612,0.800000011920929,0.800000011920929,1.0,1.0,-1.5,-1.5,-1.5,-1.5
1258,0.10469973087310791,-0.10984687507152557,0.10766689479351044,-0.08780483901500702,0.8484975099563599,0.844379723072052,1.0101189613342285,1.008665680885315,-1.7527459859848022,-1.7752724885940552,-1.6552927494049072,-1.6461690664291382,0.10000000149011612,-0.10000000149011612,0.10000000149011612,-0.10000000149011612,0.800000011920929,0.800000011920929,1.0,1.0,-1.5,-1.5,-1.5,-1.5
1259,0.10476028919219971,-0.10984687507152557,0.10772745311260223,-0.08780483901500702,0.8485580682754517,0.844379723072052,1.0101189613342285,1.0087262392044067,-1.7527459859848022,-1.7752320766448975,-1.6552927494049072,-1.6461690664291382,0.10000000149011612,-0.10000000149011612,0.10000000149011612,-0.10000000149011612,0.800000011920929,0.800000011920929,1.0,1.0,-1.5,-1.5,-1.5,-1.5
1260,0.10476028919219971,-0.10978632420301437,0.10772745311260223,-0.08786538988351822,0.8485580682754517,0.844379723072052,1.0101795196533203,1.008665680885315,-1.7527459859848022,-1.7752320766448975,-1.6552927494049072,-1.6461690664291382,0.10000000149011612,-0.10000000149011612,0.10000000149011612,-0.10000000149011612,0.800000011920929,0.800000011920929,1.0,1.0,-1.5,-1.5,-1.5,-1.5
1261,0.10476028919219971,-0.10978632420301437,0.10772745311260223,-0.08780483901500702,0.8485580682754517,0.844379723072052,1.0101189613342285,1.0087262392044067,-1.7527459859848022,-1.7752320766448975,-1.6552927494049072,-1.64612877368927,0.10000000149011612,-0.10000000149011612,0.10000000149011612,-0.10000000149011612,0.800000011920929,0.800000011920929,1.0,1.0,-1.5,-1.5,-1.5,-1.5
1262,0.10476028919219971,-0.10978632420301437,0.10772745311260223,-0.08780483901500702,0.8486186265945435,0.844379723072052,1.0101795196533203,1.0087262392044067,-1.752705693244934,-1.7752724885940552,-1.6552927494049072,-1.6461690664291382,0.10000000149011612,-0.10000000149011612,0.10000000149011612,-0.10000000149011612,0.800000011920929,0.800000011920929,1.0,1.0,-1.5,-1.5,-1.5,-1.5
1263,0.10476028919219971,-0.10978632420301437,0.10766689479351044,-0.08780483901500702,0.8486186265945435,0.844379723072052,1.0101795196533203,1.008665680885315,-1.752705693244934,-1.7752724885940552,-1.6552927494049072,-1.6461690664291382,0.10000000149011612,-0.10000000149011612,0.10000000149011612,-0.10000000149011612,0.800000011920929,0.800000011920929,1.0,1.0,-1.5,-1.5,-1.5,-1.5
1264,0.10476028919219971,-0.10978632420301437,0.10772745311260223,-0.08786538988351822,0.8485580682754517,0.844379723072052,1.0101189613342285,1.0087262392044067,-1.7527459859848022,-1.7752724885940552,-1.655333161354065,-1.6461690664291382,0.10000000149011612,-0.10000000149011612,0.10000000149011612,-0.10000000149011612,0.800000011920929,0.800000011920929,1.0,1.0,-1.5,-1.5,-1.5,-1.5
1265,0.10476028919219971,-0.10978632420301437,0.10772745311260223,-0.08780483901500702,0.8485580682754517,0.844379723072052,1.0101189613342285,1.0087262392044067,-1.752705693244934,-1.7752724885940552,-1.6552927494049072,-1.6461690664291382,0.10000000149011612,-0.10000000149011612,0.10000000149011612,-0.10000000149011612,0.800000011920929,0.800000011920929,1.0,1.0,-1.5,-1.5,-1.5,-1.5
1266,0.10476028919219971,-0.10978632420301437,0.10772745311260223,-0.08780483901500702,0.8485580682754517,0.8443191647529602,1.0101189613342285,1.0087262392044067,-1.752705693244934,-1.7752724885940552,-1.6552927494049072,-1.646209478378296,0.10000000149011612,-0.10000000149011612,0.10000000149011612,-0.10000000149011612,0.800000011920929,0.800000011920929,1.0,1.0,-1.5,-1.5,-1.5,-1.5
1267,0.10476028919219971,-0.10978632420301437,0.10772745311260223,-0.08786538988351822,0.8485580682754517,0.844379723072052,1.0101189613342285,1.0087262392044067,-1.752705693244934,-1.7752320766448975,-1.655333161354065,-1.6461690664291382,0.10000000149011612,-0.10000000149011612,0.10000000149011612,-0.10000000149011612,0.800000011920929,0.800000011920929,1.0,1.0,-1.5,-1.5,-1.5,-1.5
1268,0.10476028919219971,-0.10984687507152557,0.10772745311260223,-0.08780483901500702,0.8485580682754517,0.844379723072052,1.0101189613342285,1.008665680885315,-1.7527459859848022,-1.7752724885940552,-1.6552927494049072,-1.6461690664291382,0.10000000149011612,-0.10000000149011612,0.10000000149011612,-0.10000000149011612,0.800000011920929,0.800000011920929,1.0,1.0,-1.5,-1.5,-1.5,-1.5
1269,0.10476028919219971,-0.10978632420301437,0.10772745311260223,-0.08780483901500702,0.8484975099563599,0.844379723072052,1.0101189613342285,1.008665680885315,-1.752705693244934,-1.7752724885940552,-1.6552927494049072,-1.6461690664291382,0.10000000149011612,-0.10000000149011612,0.10000000149011612,-0.10000000149011612,0.800000011920929,0.800000011920929,1.0,1.0,-1.5,-1.5,-1.5,-1.5
1270,0.10476028919219971,-0.10978632420301437,0.10772745311260223,-0.08780483901500702,0.8486186265945435,0.844379723072052,1.0101189613342285,1.008665680885315,-1.752705693244934,-1.7752724885940552,-1.6552927494049072,-1.6461690664291382,0.10000000149011612,-0.10000000149011612,0.10000000149011612,-0.10000000149011612,0.800000011920929,0.800000011920929,1.0,1.0,-1.5,-1.5,-1.5,-1.5
1271,0.10476028919219971,-0.10978632420301437,0.10772745311260223,-0.08780483901500702,0.8485580682754517,0.844379723072052,1.0101795196533203,1.008665680885315,-1.7527459859848022,-1.7752320766448975,-1.6552927494049072,-1.6461690664291382,0.10000000149011612,-0.10000000149011612,0.10000000149011612,-0.10000000149011612,0.800000011920929,0.800000011920929,1.0,1.0,-1.5,-1.5,-1.5,-1.5
1272,0.10476028919219971,-0.10978632420301437,0.10766689479351044,-0.08780483901500702,0.8485580682754517,0.844379723072052,1.0101189613342285,1.0087262392044067,-1.7527459859848022,-1.7752320766448975,-1.6552927494049072,-1.6461690664291382,0.10000000149011612,-0.10000000149011612,0.10000000149011612,-0.10000000149011612,0.800000011920929,0.800000011920929,1.0,1.0,-1.5,-1.5,-1.5,-1.5
1273,0.10476028919219971,-0.10984687507152557,0.10772745311260223,-0.08774428069591522,0.8486186265945435,0.8444402813911438,1.0101189613342285,1.008665680885315,-1.752705693244934,-1.7752320766448975,-1.6552927494049072,-1.646209478378296,0.10000000149011612,-0.10000000149011612,0.10000000149011612,-0.10000000149011612,0.800000011920929,0.800000011920929,1.0,1.0,-1.5,-1.5,-1.5,-1.5
1274,0.10476028919219971,-0.10984687507152557,0.10772745311260223,-0.08780483901500702,0.8486186265945435,0.844379723072052,1.0101189613342285,1.008665680885315,-1.752705693244934,-1.7752724885940552,-1.6552927494049072,-1.64612877368927,0.10000000149011612,-0.10000000149011612,0.10000000149011612,-0.10000000149011612,0.800000011920929,0.800000011920929,1.0,1.0,-1.5,-1.5,-1.5,-1.5
1275,0.10476028919219971,-0.10978632420301437,0.10778800398111343,-0.08780483901500702,0.8485580682754517,0.8443191647529602,1.0101189613342285,1.008665680885315,-1.752705693244934,-1.7752320766448975,-1.6552927494049072,-1.6461690664291382,0.10000000149011612,-0.10000000149011612,0.10000000149011612,-0.10000000149011612,0.800000011920929,0.800000011920929,1.0,1.0,-1.5,-1.5,-1.5,-1.5
1276,0.10476028919219971,-0.10984687507152557,0.10772745311260223,-0.08786538988351822,0.8485580682754517,0.844379723072052,1.0101189613342285,1.008665680885315,-1.752705693244934,-1.7752320766448975,-1.655333161354065,-1.646209478378296,0.10000000149011612,-0.10000000149011612,0.10000000149011612,-0.10000000149011612,0.800000011920929,0.800000011920929,1.0,1.0,-1.5,-1.5,-1.5,-1.5
1277,0.10476028919219971,-0.10978632420301437,0.10766689479351044,-0.08780483901500702,0.8484975099563599,0.844379723072052,1.0101189613342285,1.008665680885315,-1.752705693244934,-1.7752724885940552,-1.6552927494049072,-1.6461690664291382,0.10000000149011612,-0.10000000149011612,0.10000000149011612,-0.10000000149011612,0.800000011920929,0.800000011920929,1.0,1.0,-1.5,-1.5,-1.5,-1.5
1278,0.10476028919219971,-0.10978632420301437,0.10772745311260223,-0.08786538988351822,0.8485580682754517,0.844379723072052,1.0101189613342285,1.008665680885315,-1.752705693244934,-1.7752724885940552,-1.6552927494049072,-1.6461690664291382,0.10000000149011612,-0.10000000149011612,0.10000000149011612,-0.10000000149011612,0.800000011920929,0.800000011920929,1.0,1.0,-1.5,-1.5,-1.5,-1.5
1279,0.10476028919219971,-0.10984687507152557,0.10772745311260223,-0.08786538988351822,0.8485580682754517,0.844379723072052,1.0101795196533203,1.008665680885315,-1.752705693244934,-1.7752724885940552,-1.6552927494049072,-1.646209478378296,0.10000000149011612,-0.10000000149011612,0.10000000149011612,-0.10000000149011612,0.800000011920929,0.800000011920929,1.0,1.0,-1.5,-1.5,-1.5,-1.5
1280,0.10476028919219971,-0.10978632420301437,0.10772745311260223,-0.08780483901500702,0.8486186265945435,0.844379723072052,1.0100584030151367,1.0087262392044067,-1.7527459859848022,-1.7752724885940552,-1.6552927494049072,-1.64612877368927,0.10000000149011612,-0.10000000149011612,0.10000000149011612,-0.10000000149011612,0.800000011920929,0.800000011920929,1.0,1.0,-1.5,-1.5,-1.5,-1.5
1281,0.1048208475112915,-0.10978632420301437,0.10772745311260223,-0.08780483901500702,0.8486186265945435,0.844379723072052,1.0101795196533203,1.008665680885315,-1.752705693244934,-1.7752320766448975,-1.6552927494049072,-1.6461690664291382,0.10000000149011612,-0.10000000149011612,0.10000000149011612,-0.10000000149011612,0.800000011920929,0.800000011920929,1.0,1.0,-1.5,-1.5,-1.5,-1.5
1282,0.10476028919219971,-0.10978632420301437,0.10772745311260223,-0.08780483901500702,0.8486186265945435,0.844379723072052,1.0101795196533203,1.008665680885315,-1.7527459859848022,-1.7752320766448975,-1.6552927494049072,-1.6461690664291382,0.10000000149011612,-0.10000000149011612,0.10000000149011612,-0.10000000149011612,0.800000011920929,0.800000011920929,1.0,1.0,-1.5,-1.5,-1.5,-1.5
1283,0.10476028919219971,-0.10978632420301437,0.10766689479351044,-0.08780483901500702,0.8486186265945435,0.8444402813911438,1.0101795196533203,1.008665680885315,-1.752705693244934,-1.7752724885940552,-1.6552927494049072,-1.6461690664291382,0.10000000149011612,-0.10000000149011612,0.10000000149011612,-0.10000000149011612,0.800000011920929,0.800000011920929,1.0,1.0,-1.5,-1.5,-1.5,-1.5
1284,0.10476028919219971,-0.10978632420301437,0.10772745311260223,-0.08780483901500702,0.8486186265945435,0.844379723072052,1.0101189613342285,1.008665680885315,-1.7527459859848022,-1.7752724885940552,-1.6552927494049072,-1.6461690664291382,0.10000000149011612,-0.10000000149011612,0.10000000149011612,-0.10000000149011612,0.800000011920929,0.800000011920929,1.0,1.0,-1.5,-1.5,-1.5,-1.5
1285,0.10469973087310791,-0.10978632420301437,0.10772745311260223,-0.08780483901500702,0.8486186265945435,0.844379723072052,1.0101795196533203,1.0087262392044067,-1.752705693244934,-1.7752724885940552,-1.6552927494049072,-1.646209478378296,0.10000000149011612,-0.10000000149011612,0.10000000149011612,-0.10000000149011612,0.800000011920929,0.800000011920929,1.0,1.0,-1.5,-1.5,-1.5,-1.5
1286,0.10476028919219971,-0.10984687507152557,0.10772745311260223,-0.08780483901500702,0.8485580682754517,0.844379723072052,1.0101189613342285,1.0087262392044067,-1.752705693244934,-1.7752724885940552,-1.6552927494049072,-1.6461690664291382,0.10000000149011612,-0.10000000149011612,0.10000000149011612,-0.10000000149011612,0.800000011920929,0.800000011920929,1.0,1.0,-1.5,-1.5,-1.5,-1.5
1287,0.10469973087310791,-0.10978632420301437,0.10772745311260223,-0.08780483901500702,0.8484369516372681,0.844379723072052,1.0100584030151367,1.0087262392044067,-1.752705693244934,-1.7752724885940552,-1.6552927494049072,-1.646209478378296,0.10000000149011612,-0.10000000149011612,0.10000000149011612,-0.10000000149011612,0.800000011920929,0.800000011920929,1.0,1.0,-1.5,-1.5,-1.5,-1.5
1288,0.10476028919219971,-0.10978632420301437,0.10772745311260223,-0.08780483901500702,0.8484369516372681,0.844379723072052,1.0100584030151367,1.0087262392044067,-1.7527459859848022,-1.7752320766448975,-1.6552927494049072,-1.6461690664291382,0.10000000149011612,-0.10000000149011612,0.10000000149011612,-0.10000000149011612,0.800000011920929,0.800000011920929,1.0,1.0,-1.5,-1.5,-1.5,-1.5
1289,0.10476028919219971,-0.10984687507152557,0.10772745311260223,-0.08774428069591522,0.8483763933181763,0.844379723072052,1.0100584030151367,1.008665680885315,-1.752705693244934,-1.7752724885940552,-1.6552927494049072,-1.6461690664291382,0.10000000149011612,-0.10000000149011612,0.10000000149011612,-0.10000000149011612,0.800000011920929,0.800000011920929,1.0,1.0,-1.5,-1.5,-1.5,-1.5
1290,0.10476028919219971,-0.10978632420301437,0.10772745311260223,-0.08780483901500702,0.8484369516372681,0.844379723072052,1.0100584030151367,1.008665680885315,-1.7527459859848022,-1.7752724885940552,-1.6552927494049072,-1.6461690664291382,0.10000000149011612,-0.10000000149011612,0.10000000149011612,-0.10000000149011612,0.800000011920929,0.800000011920929,1.0,1.0,-1.5,-1.5,-1.5,-1.5
1291,0.10476028919219971,-0.10978632420301437,0.10772745311260223,-0.08786538988351822,0.8484369516372681,0.8443191647529602,1.0100584030151367,1.0087262392044067,-1.7527459859848022,-1.7752724885940552,-1.6552927494049072,-1.646209478378296,0.10000000149011612,-0.10000000149011612,0.10000000149011612,-0.10000000149011612,0.800000011920929,0.800000011920929,1.0,1.0,-1.5,-1.5,-1.5,-1.5
1292,0.10476028919219971,-0.10984687507152557,0.10772745311260223,-0.08780483901500702,0.8484975099563599,0.844379723072052,1.0100584030151367,1.0087262392044067,-1.7527459859848022,-1.7752320766448975,-1.6552927494049072,-1.646209478378296,0.10000000149011612,-0.10000000149011612,0.10000000149011612,-0.10000000149011612,0.800000011920929,0.800000011920929,1.0,1.0,-1.5,-1.5,-1.5,-1.5
1293,0.10476028919219971,-0.10978632420301437,0.10772745311260223,-0.08780483901500702,0.8484369516372681,0.844379723072052,1.009997844696045,1.0087262392044067,-1.7527459859848022,-1.7752320766448975,-1.6552927494049072,-1.6461690664291382,0.10000000149011612,-0.10000000149011612,0.10000000149011612,-0.10000000149011612,0.800000011920929,0.800000011920929,1.0,1.0,-1.5,-1.5,-1.5,-1.5
1294,0.10476028919219971,-0.10978632420301437,0.10772745311260223,-0.08780483901500702,0.8484369516372681,0.844379723072052,1.0100584030151367,1.0087262392044067,-1.7527459859848022,-1.7752724885940552,-1.6552927494049072,-1.6461690664291382,0.10000000149011612,-0.10000000149011612,0.10000000149011612,-0.10000000149011612,0.800000011920929,0.800000011920929,1.0,1.0,-1.5,-1.5,-1.5,-1.5
1295,0.10476028919219971,-0.10984687507152557,0.10772745311260223,-0.08780483901500702,0.8484975099563599,0.844379723072052,1.0101189613342285,1.008665680885315,-1.752705693244934,-1.7752724885940552,-1.6552927494049072,-1.6461690664291382,0.10000000149011612,-0.10000000149011612,0.10000000149011612,-0.10000000149011612,0.800000011920929,0.800000011920929,1.0,1.0,-1.5,-1.5,-1.5,-1.5
1296,0.10476028919219971,-0.10984687507152557,0.10772745311260223,-0.08774428069591522,0.8485580682754517,0.844379723072052,1.0101189613342285,1.008665680885315,-1.752705693244934,-1.7752320766448975,-1.6552927494049072,-1.6461690664291382,0.10000000149011612,-0.10000000149011612,0.10000000149011612,-0.10000000149011612,0.800000011920929,0.800000011920929,1.0,1.0,-1.5,-1.5,-1.5,-1.5
1297,0.10476028919219971,-0.10978632420301437,0.10766689479351044,-0.08780483901500702,0.8486186265945435,0.844379723072052,1.0101189613342285,1.008665680885315,-1.752705693244934,-1.7752724885940552,-1.6552927494049072,-1.646209478378296,0.10000000149011612,-0.10000000149011612,0.10000000149011612,-0.10000000149011612,0.800000011920929,0.800000011920929,1.0,1.0,-1.5,-1.5,-1.5,-1.5
1298,0.10476028919219971,-0.10978632420301437,0.10772745311260223,-0.08786538988351822,0.8486186265945435,0.844379723072052,1.0101795196533203,1.008665680885315,-1.752705693244934,-1.7752320766448975,-1.6552927494049072,-1.6461690664291382,0.10000000149011612,-0.10000000149011612,0.10000000149011612,-0.10000000149011612,0.800000011920929,0.800000011920929,1.0,1.0,-1.5,-1.5,-1.5,-1.5
1299,0.10476028919219971,-0.10978632420301437,0.10766689479351044,-0.08780483901500702,0.8485580682754517,0.844379723072052,1.0101189613342285,1.008786678314209,-1.7527459859848022,-1.7752320766448975,-1.6552927494049072,-1.646209478378296,0.10000000149011612,-0.10000000149011612,0.10000000149011612,-0.10000000149011612,0.800000011920929,0.800000011920929,1.0,1.0,-1.5,-1.5,-1.5,-1.5
1300,0.10476028919219971,-0.10984687507152557,0.10772745311260223,-0.08780483901500702,0.8484975099563599,0.8444402813911438,1.0101189613342285,1.0087262392044067,-1.7527459859848022,-1.7752320766448975,-1.655333161354065,-1.6461690664291382,0.10000000149011612,-0.10000000149011612,0.10000000149011612,-0.10000000149011612,0.800000011920929,0.800000011920929,1.0,1.0,-1.5,-1.5,-1.5,-1.5
1301,0.10469973087310791,-0.10984687507152557,0.10772745311260223,-0.08780483901500702,0.8484369516372681,0.8444402813911438,1.0100584030151367,1.0087262392044067,-1.752705693244934,-1.7752320766448975,-1.655333161354065,-1.646209478378296,0.10000000149011612,-0.10000000149011612,0.10000000149011612,-0.10000000149011612,0.800000011920929,0.800000011920929,1.0,1.0,-1.5,-1.5,-1.5,-1.5
1302,0.10476028919219971,-0.10978632420301437,0.10778800398111343,-0.08780483901500702,0.8484369516372681,0.844379723072052,1.0100584030151367,1.0087262392044067,-1.7527459859848022,-1.7752724885940552,-1.655333161354065,-1.6461690664291382,0.10000000149011612,-0.10000000149011612,0.10000000149011612,-0.10000000149011612,0.800000011920929,0.800000011920929,1.0,1.0,-1.5,-1.5,-1.5,-1.5
1303,0.10476028919219971,-0.10978632420301437,0.10772745311260223,-0.08780483901500702,0.8484369516372681,0.844379723072052,1.0100584030151367,1.0087262392044067,-1.7527459859848022,-1.7752320766448975,-1.655333161354065,-1.646209478378296,0.10000000149011612,-0.10000000149011612,0.10000000149011612,-0.10000000149011612,0.800000011920929,0.800000011920929,1.0,1.0,-1.5,-1.5,-1.5,-1.5
1304,0.10469973087310791,-0.10978632420301437,0.10772745311260223,-0.08780483901500702,0.8484369516372681,0.844379723072052,1.0101189613342285,1.008665680885315,-1.752705693244934,-1.7752724885940552,-1.6552927494049072,-1.6461690664291382,0.10000000149011612,-0.10000000149011612,0.10000000149011612,-0.10000000149011612,0.800000011920929,0.800000011920929,1.0,1.0,-1.5,-1.5,-1.5,-1.5
1305,0.10476028919219971,-0.10978632420301437,0.10778800398111343,-0.08780483901500702,0.8484975099563599,0.844379723072052,1.0101189613342285,1.008665680885315,-1.752705693244934,-1.7752724885940552,-1.6552927494049072,-1.646209478378296,0.10000000149011612,-0.10000000149011612,0.10000000149011612,-0.10000000149011612,0.800000011920929,0.800000011920929,1.0,1.0,-1.5,-1.5,-1.5,-1.5
1306,0.10476028919219971,-0.10978632420301437,0.10778800398111343,-0.08780483901500702,0.8484975099563599,0.844379723072052,1.0101189613342285,1.0087262392044067,-1.7527459859848022,-1.7752724885940552,-1.6552927494049072,-1.6461690664291382,0.10000000149011612,-0.10000000149011612,0.10000000149011612,-0.10000000149011612,0.800000011920929,0.800000011920929,1.0,1.0,-1.5,-1.5,-1.5,-1.5
1307,0.10476028919219971,-0.10984687507152557,0.10772745311260223,-0.08780483901500702,0.8484975099563599,0.844379723072052,1.0101189613342285,1.0087262392044067,-1.7527459859848022,-1.7752320766448975,-1.655333161354065,-1.6461690664291382,0.10000000149011612,-0.10000000149011612,0.10000000149011612,-0.10000000149011612,0.800000011920929,0.800000011920929,1.0,1.0,-1.5,-1.5,-1.5,-1.5
1308,0.10476028919219971,-0.10984687507152557,0.10772745311260223,-0.08780483901500702,0.8484975099563599,0.844379723072052,1.0100584030151367,1.008786678314209,-1.752705693244934,-1.7752724885940552,-1.6552927494049072,-1.6461690664291382,0.10000000149011612,-0.10000000149011612,0.10000000149011612,-0.10000000149011612,0.800000011920929,0.800000011920929,1.0,1.0,-1.5,-1.5,-1.5,-1.5
1309,0.10469973087310791,-0.10984687507152557,0.10778800398111343,-0.08786538988351822,0.8485580682754517,0.8444402813911438,1.0101189613342285,1.008786678314209,-1.752705693244934,-1.7752320766448975,-1.6552927494049072,-1.6461690664291382,0.10000000149011612,-0.10000000149011612,0.10000000149011612,-0.10000000149011612,0.800000011920929,0.800000011920929,1.0,1.0,-1.5,-1.5,-1.5,-1.5
1310,0.10476028919219971,-0.10984687507152557,0.10772745311260223,-0.08780483901500702,0.8484975099563599,0.8444402813911438,1.0101189613342285,1.0087262392044067,-1.7527459859848022,-1.7752724885940552,-1.6552927494049072,-1.6461690664291382,0.10000000149011612,-0.10000000149011612,0.10000000149011612,-0.10000000149011612,0.800000011920929,0.800000011920929,1.0,1.0,-1.5,-1.5,-1.5,-1.5
1311,0.10476028919219971,-0.10978632420301437,0.10772745311260223,-0.08780483901500702,0.8484975099563599,0.844379723072052,1.0101189613342285,1.0087262392044067,-1.7527459859848022,-1.7752724885940552,-1.6552927494049072,-1.646209478378296,0.10000000149011612,-0.10000000149011612,0.10000000149011612,-0.10000000149011612,0.800000011920929,0.800000011920929,1.0,1.0,-1.5,-1.5,-1.5,-1.5
1312,0.10476028919219971,-0.10984687507152557,0.10772745311260223,-0.08780483901500702,0.8484369516372681,0.844379723072052,1.0100584030151367,1.008665680885315,-1.752705693244934,-1.7752724885940552,-1.6552927494049072,-1.6461690664291382,0.10000000149011612,-0.10000000149011612,0.10000000149011612,-0.10000000149011612,0.800000011920929,0.800000011920929,1.0,1.0,-1.5,-1.5,-1.5,-1.5
1313,0.10476028919219971,-0.10978632420301437,0.10772745311260223,-0.08780483901500702,0.8484369516372681,0.844379723072052,1.0100584030151367,1.0087262392044067,-1.7527459859848022,-1.7752724885940552,-1.6552927494049072,-1.646209478378296,0.10000000149011612,-0.10000000149011612,0.10000000149011612,-0.10000000149011612,0.800000011920929,0.800000011920929,1.0,1.0,-1.5,-1.5,-1.5,-1.5
1314,0.10476028919219971,-0.10978632420301437,0.10772745311260223,-0.08780483901500702,0.8484369516372681,0.844379723072052,1.0100584030151367,1.008665680885315,-1.752705693244934,-1.7752724885940552,-1.6552927494049072,-1.646209478378296,0.10000000149011612,-0.10000000149011612,0.10000000149011612,-0.10000000149011612,0.800000011920929,0.800000011920929,1.0,1.0,-1.5,-1.5,-1.5,-1.5
1315,0.10476028919219971,-0.10978632420301437,0.10772745311260223,-0.08780483901500702,0.8484369516372681,0.844379723072052,1.0100584030151367,1.0087262392044067,-1.752705693244934,-1.7752320766448975,-1.6552927494049072,-1.646209478378296,0.10000000149011612,-0.10000000149011612,0.10000000149011612,-0.10000000149011612,0.800000011920929,0.800000011920929,1.0,1.0,-1.5,-1.5,-1.5,-1.5
1316,0.10476028919219971,-0.10978632420301437,0.10778800398111343,-0.08780483901500702,0.8484369516372681,0.844379723072052,1.0100584030151367,1.0087262392044067,-1.752705693244934,-1.7752724885940552,-1.655333161354065,-1.646209478378296,0.10000000149011612,-0.10000000149011612,0.10000000149011612,-0.10000000149011612,0.800000011920929,0.800000011920929,1.0,1.0,-1.5,-1.5,-1.5,-1.5
1317,0.10469973087310791,-0.10984687507152557,0.10772745311260223,-0.08780483901500702,0.8484975099563599,0.844379723072052,1.0101189613342285,1.0087262392044067,-1.752705693244934,-1.7752724885940552,-1.6552927494049072,-1.6461690664291382,0.10000000149011612,-0.10000000149011612,0.10000000149011612,-0.10000000149011612,0.800000011920929,0.800000011920929,1.0,1.0,-1.5,-1.5,-1.5,-1.5
1318,0.10469973087310791,-0.10978632420301437,0.10772745311260223,-0.08780483901500702,0.8484975099563599,0.844379723072052,1.0101189613342285,1.0087262392044067,-1.752705693244934,-1.7752320766448975,-1.6552927494049072,-1.6461690664291382,0.10000000149011612,-0.10000000149011612,0.10000000149011612,-0.10000000149011612,0.800000011920929,0.800000011920929,1.0,1.0,-1.5,-1.5,-1.5,-1.5
1319,0.10476028919219971,-0.10984687507152557,0.10772745311260223,-0.08774428069591522,0.8485580682754517,0.844379723072052,1.0101189613342285,1.0087262392044067,-1.752705693244934,-1.7752724885940552,-1.6552927494049072,-1.6461690664291382,0.10000000149011612,-0.10000000149011612,0.10000000149011612,-0.10000000149011612,0.800000011920929,0.800000011920929,1.0,1.0,-1.5,-1.5,-1.5,-1.5
1320,0.10469973087310791,-0.10978632420301437,0.10772745311260223,-0.08780483901500702,0.8485580682754517,0.844379723072052,1.0101189613342285,1.0087262392044067,-1.7527459859848022,-1.7752320766448975,-1.6552927494049072,-1.6461690664291382,0.10000000149011612,-0.10000000149011612,0.10000000149011612,-0.10000000149011612,0.800000011920929,0.800000011920929,1.0,1.0,-1.5,-1.5,-1.5,-1.5
1321,0.10476028919219971,-0.10978632420301437,0.10772745311260223,-0.08780483901500702,0.8485580682754517,0.844379723072052,1.0101189613342285,1.0087262392044067,-1.7527459859848022,-1.7752724885940552,-1.6552927494049072,-1.646209478378296,0.10000000149011612,-0.10000000149011612,0.10000000149011612,-0.10000000149011612,0.800000011920929,0.800000011920929,1.0,1.0,-1.5,-1.5,-1.5,-1.5
1322,0.10476028919219971,-0.10978632420301437,0.10766689479351044,-0.08780483901500702,0.8484369516372681,0.844379723072052,1.0100584030151367,1.008665680885315,-1.752705693244934,-1.7752724885940552,-1.6552927494049072,-1.6461690664291382,0.10000000149011612,-0.10000000149011612,0.10000000149011612,-0.10000000149011612,0.800000011920929,0.800000011920929,1.0,1.0,-1.5,-1.5,-1.5,-1.5
1323,0.10469973087310791,-0.10984687507152557,0.10772745311260223,-0.08774428069591522,0.8484369516372681,0.844379723072052,1.0101189613342285,1.0087262392044067,-1.7527459859848022,-1.7752724885940552,-1.6552927494049072,-1.6461690664291382,0.10000000149011612,-0.10000000149011612,0.10000000149011612,-0.10000000149011612,0.800000011920929,0.800000011920929,1.0,1.0,-1.5,-1.5,-1.5,-1.5
1324,0.10476028919219971,-0.10978632420301437,0.10772745311260223,-0.08780483901500702,0.8484369516372681,0.844379723072052,1.0100584030151367,1.0087262392044067,-1.7527459859848022,-1.7752724885940552,-1.6552927494049072,-1.646209478378296,0.10000000149011612,-0.10000000149011612,0.10000000149011612,-0.10000000149011612,0.800000011920929,0.800000011920929,1.0,1.0,-1.5,-1.5,-1.5,-1.5
1325,0.10476028919219971,-0.10978632420301437,0.10772745311260223,-0.08780483901500702,0.8484975099563599,0.844379723072052,1.0101189613342285,1.0087262392044067,-1.7527459859848022,-1.7752724885940552,-1.6552927494049072,-1.646209478378296,0.10000000149011612,-0.10000000149011612,0.10000000149011612,-0.10000000149011612,0.800000011920929,0.800000011920929,1.0,1.0,-1.5,-1.5,-1.5,-1.5
1326,0.10476028919219971,-0.10978632420301437,0.10772745311260223,-0.08774428069591522,0.8484369516372681,0.8443191647529602,1.0101189613342285,1.0087262392044067,-1.7527459859848022,-1.7752320766448975,-1.6552927494049072,-1.6461690664291382,0.10000000149011612,-0.10000000149011612,0.10000000149011612,-0.10000000149011612,0.800000011920929,0.800000011920929,1.0,1.0,-1.5,-1.5,-1.5,-1.5
1327,0.10476028919219971,-0.10984687507152557,0.10772745311260223,-0.08780483901500702,0.8484975099563599,0.844379723072052,1.0101189613342285,1.0087262392044067,-1.752705693244934,-1.7752320766448975,-1.6552927494049072,-1.6461690664291382,0.10000000149011612,-0.10000000149011612,0.10000000149011612,-0.10000000149011612,0.800000011920929,0.800000011920929,1.0,1.0,-1.5,-1.5,-1.5,-1.5
1328,0.10476028919219971,-0.10978632420301437,0.10772745311260223,-0.08780483901500702,0.8484975099563599,0.8443191647529602,1.0101189613342285,1.0087262392044067,-1.752705693244934,-1.7752724885940552,-1.6552927494049072,-1.646209478378296,0.10000000149011612,-0.10000000149011612,0.10000000149011612,-0.10000000149011612,0.800000011920929,0.800000011920929,1.0,1.0,-1.5,-1.5,-1.5,-1.5
1329,0.10476028919219971,-0.10984687507152557,0.10772745311260223,-0.08780483901500702,0.8485580682754517,0.844379723072052,1.0101189613342285,1.0087262392044067,-1.7527459859848022,-1.7752724885940552,-1.6552927494049072,-1.6461690664291382,0.10000000149011612,-0.10000000149011612,0.10000000149011612,-0.10000000149011612,0.800000011920929,0.800000011920929,1.0,1.0,-1.5,-1.5,-1.5,-1.5
1330,0.10476028919219971,-0.10984687507152557,0.10772745311260223,-0.08780483901500702,0.8485580682754517,0.844379723072052,1.0101189613342285,1.0087262392044067,-1.752705693244934,-1.7752320766448975,-1.6552927494049072,-1.646209478378296,0.10000000149011612,-0.10000000149011612,0.10000000149011612,-0.10000000149011612,0.800000011920929,0.800000011920929,1.0,1.0,-1.5,-1.5,-1.5,-1.5
1331,0.10476028919219971,-0.10984687507152557,0.10772745311260223,-0.08780483901500702,0.8485580682754517,0.844379723072052,1.0101795196533203,1.0087262392044067,-1.7527459859848022,-1.7752724885940552,-1.6552927494049072,-1.6461690664291382,0.10000000149011612,-0.10000000149011612,0.10000000149011612,-0.10000000149011612,0.800000011920929,0.800000011920929,1.0,1.0,-1.5,-1.5,-1.5,-1.5
1332,0.10476028919219971,-0.10978632420301437,0.10772745311260223,-0.08780483901500702,0.8485580682754517,0.844379723072052,1.0101189613342285,1.0087262392044067,-1.752705693244934,-1.7752724885940552,-1.6552927494049072,-1.6461690664291382,0.10000000149011612,-0.10000000149011612,0.10000000149011612,-0.10000000149011612,0.800000011920929,0.800000011920929,1.0,1.0,-1.5,-1.5,-1.5,-1.5
1333,0.10476028919219971,-0.10984687507152557,0.10772745311260223,-0.08780483901500702,0.8484975099563599,0.844379723072052,1.0101189613342285,1.0087262392044067,-1.752705693244934,-1.7752724885940552,-1.6552927494049072,-1.6461690664291382,0.10000000149011612,-0.10000000149011612,0.10000000149011612,-0.10000000149011612,0.800000011920929,0.800000011920929,1.0,1.0,-1.5,-1.5,-1.5,-1.5
1334,0.10476028919219971,-0.10984687507152557,0.10778800398111343,-0.08774428069591522,0.8484975099563599,0.844379723072052,1.0100584030151367,1.0087262392044067,-1.7527459859848022,-1.7752724885940552,-1.6552927494049072,-1.646209478378296,0.10000000149011612,-0.10000000149011612,0.10000000149011612,-0.10000000149011612,0.800000011920929,0.800000011920929,1.0,1.0,-1.5,-1.5,-1.5,-1.5
1335,0.10469973087310791,-0.10978632420301437,0.10772745311260223,-0.08780483901500702,0.8484975099563599,0.844379723072052,1.0100584030151367,1.0087262392044067,-1.7527459859848022,-1.7752320766448975,-1.6552927494049072,-1.646209478378296,0.10000000149011612,-0.10000000149011612,0.10000000149011612,-0.10000000149011612,0.800000011920929,0.800000011920929,1.0,1.0,-1.5,-1.5,-1.5,-1.5
1336,0.10476028919219971,-0.10984687507152557,0.10772745311260223,-0.08780483901500702,0.8484369516372681,0.8443191647529602,1.0100584030151367,1.0087262392044067,-1.752705693244934,-1.7752320766448975,-1.6552927494049072,-1.646209478378296,0.10000000149011612,-0.10000000149011612,0.10000000149011612,-0.10000000149011612,0.800000011920929,0.800000011920929,1.0,1.0,-1.5,-1.5,-1.5,-1.5
1337,0.10476028919219971,-0.10984687507152557,0.10772745311260223,-0.08780483901500702,0.8484369516372681,0.844379723072052,1.0100584030151367,1.008665680885315,-1.752705693244934,-1.7752320766448975,-1.6552927494049072,-1.646209478378296,0.10000000149011612,-0.10000000149011612,0.10000000149011612,-0.10000000149011612,0.800000011920929,0.800000011920929,1.0,1.0,-1.5,-1.5,-1.5,-1.5
1338,0.10476028919219971,-0.10978632420301437,0.10778800398111343,-0.08780483901500702,0.8484975099563599,0.844379723072052,1.0101189613342285,1.0087262392044067,-1.7527459859848022,-1.7752320766448975,-1.6552927494049072,-1.646209478378296,0.10000000149011612,-0.10000000149011612,0.10000000149011612,-0.10000000149011612,0.800000011920929,0.800000011920929,1.0,1.0,-1.5,-1.5,-1.5,-1.5
1339,0.10476028919219971,-0.10978632420301437,0.10772745311260223,-0.08780483901500702,0.8484975099563599,0.844379723072052,1.0100584030151367,1.008665680885315,-1.752705693244934,-1.7752724885940552,-1.6552927494049072,-1.6461690664291382,0.10000000149011612,-0.10000000149011612,0.10000000149011612,-0.10000000149011612,0.800000011920929,0.800000011920929,1.0,1.0,-1.5,-1.5,-1.5,-1.5
1340,0.10476028919219971,-0.10984687507152557,0.10772745311260223,-0.08780483901500702,0.8484975099563599,0.844379723072052,1.0101189613342285,1.0087262392044067,-1.752705693244934,-1.7752320766448975,-1.6552927494049072,-1.646209478378296,0.10000000149011612,-0.10000000149011612,0.10000000149011612,-0.10000000149011612,0.800000011920929,0.800000011920929,1.0,1.0,-1.5,-1.5,-1.5,-1.5
1341,0.10476028919219971,-0.10978632420301437,0.10778800398111343,-0.08780483901500702,0.8484975099563599,0.844379723072052,1.0101189613342285,1.0087262392044067,-1.752705693244934,-1.7752724885940552,-1.6552927494049072,-1.6461690664291382,0.10000000149011612,-0.10000000149011612,0.10000000149011612,-0.10000000149011612,0.800000011920929,0.800000011920929,1.0,1.0,-1.5,-1.5,-1.5,-1.5
1342,0.10476028919219971,-0.10978632420301437,0.10772745311260223,-0.08780483901500702,0.8484975099563599,0.844379723072052,1.0101189613342285,1.0087262392044067,-1.7527459859848022,-1.7752320766448975,-1.6552927494049072,-1.646209478378296,0.10000000149011612,-0.10000000149011612,0.10000000149011612,-0.10000000149011612,0.800000011920929,0.800000011920929,1.0,1.0,-1.5,-1.5,-1.5,-1.5
1343,0.10476028919219971,-0.10978632420301437,0.10772745311260223,-0.08786538988351822,0.8484369516372681,0.8443191647529602,1.0101189613342285,1.0087262392044067,-1.7527459859848022,-1.7752320766448975,-1.6552927494049072,-1.646209478378296,0.10000000149011612,-0.10000000149011612,0.10000000149011612,-0.10000000149011612,0.800000011920929,0.800000011920929,1.0,1.0,-1.5,-1.5,-1.5,-1.5
1344,0.10476028919219971,-0.10984687507152557,0.10772745311260223,-0.08780483901500702,0.8484975099563599,0.8443191647529602,1.0101189613342285,1.008786678314209,-1.752705693244934,-1.7752320766448975,-1.6552927494049072,-1.646209478378296,0.10000000149011612,-0.10000000149011612,0.10000000149011612,-0.10000000149011612,0.800000011920929,0.800000011920929,1.0,1.0,-1.5,-1.5,-1.5,-1.5
1345,0.10476028919219971,-0.10978632420301437,0.10772745311260223,-0.08780483901500702,0.8484975099563599,0.8443191647529602,1.0101189613342285,1.0087262392044067,-1.7527459859848022,-1.7752724885940552,-1.6552927494049072,-1.6461690664291382,0.10000000149011612,-0.10000000149011612,0.10000000149011612,-0.10000000149011612,0.800000011920929,0.800000011920929,1.0,1.0,-1.5,-1.5,-1.5,-1.5
1346,0.10469973087310791,-0.10984687507152557,0.10772745311260223,-0.08780483901500702,0.8484975099563599,0.844379723072052,1.0100584030151367,1.0087262392044067,-1.752705693244934,-1.7752320766448975,-1.6552927494049072,-1.646209478378296,0.10000000149011612,-0.10000000149011612,0.10000000149011612,-0.10000000149011612,0.800000011920929,0.800000011920929,1.0,1.0,-1.5,-1.5,-1.5,-1.5
1347,0.10476028919219971,-0.10978632420301437,0.10772745311260223,-0.08780483901500702,0.8484369516372681,0.844379723072052,1.0101189613342285,1.0087262392044067,-1.752705693244934,-1.7752320766448975,-1.6552927494049072,-1.646209478378296,0.10000000149011612,-0.10000000149011612,0.10000000149011612,-0.10000000149011612,0.800000011920929,0.800000011920929,1.0,1.0,-1.5,-1.5,-1.5,-1.5
1348,0.10476028919219971,-0.10978632420301437,0.10772745311260223,-0.08780483901500702,0.8484975099563599,0.844379723072052,1.0101189613342285,1.0087262392044067,-1.752705693244934,-1.7752320766448975,-1.6552927494049072,-1.6461690664291382,0.10000000149011612,-0.10000000149011612,0.10000000149011612,-0.10000000149011612,0.800000011920929,0.800000011920929,1.0,1.0,-1.5,-1.5,-1.5,-1.5
1349,0.10476028919219971,-0.10978632420301437,0.10766689479351044,-0.08780483901500702,0.8484975099563599,0.844379723072052,1.0101189613342285,1.008665680885315,-1.7527459859848022,-1.7752320766448975,-1.6552927494049072,-1.646209478378296,0.10000000149011612,-0.10000000149011612,0.10000000149011612,-0.10000000149011612,0.800000011920929,0.800000011920929,1.0,1.0,-1.5,-1.5,-1.5,-1.5
1350,0.10469973087310791,-0.10978632420301437,0.10772745311260223,-0.08780483901500702,0.8484975099563599,0.844379723072052,1.0101189613342285,1.0087262392044067,-1.7527459859848022,-1.7752320766448975,-1.6552927494049072,-1.6461690664291382,0.10000000149011612,-0.10000000149011612,0.10000000149011612,-0.10000000149011612,0.800000011920929,0.800000011920929,1.0,1.0,-1.5,-1.5,-1.5,-1.5
1351,0.10476028919219971,-0.10984687507152557,0.10772745311260223,-0.08780483901500702,0.8484975099563599,0.844379723072052,1.0100584030151367,1.0087262392044067,-1.752705693244934,-1.7752320766448975,-1.6552927494049072,-1.6461690664291382,0.10000000149011612,-0.10000000149011612,0.10000000149011612,-0.10000000149011612,0.800000011920929,0.800000011920929,1.0,1.0,-1.5,-1.5,-1.5,-1.5
1352,0.10476028919219971,-0.10978632420301437,0.10778800398111343,-0.08780483901500702,0.8484975099563599,0.844379723072052,1.0100584030151367,1.0087262392044067,-1.7527459859848022,-1.7752724885940552,-1.6552927494049072,-1.646209478378296,0.10000000149011612,-0.10000000149011612,0.10000000149011612,-0.10000000149011612,0.800000011920929,0.800000011920929,1.0,1.0,-1.5,-1.5,-1.5,-1.5
1353,0.10476028919219971,-0.10978632420301437,0.10772745311260223,-0.08780483901500702,0.8484975099563599,0.8443191647529602,1.0101189613342285,1.0087262392044067,-1.7527459859848022,-1.7752320766448975,-1.6552927494049072,-1.646209478378296,0.10000000149011612,-0.10000000149011612,0.10000000149011612,-0.10000000149011612,0.800000011920929,0.800000011920929,1.0,1.0,-1.5,-1.5,-1.5,-1.5
1354,0.10476028919219971,-0.10978632420301437,0.10772745311260223,-0.08780483901500702,0.8484975099563599,0.844379723072052,1.0100584030151367,1.0087262392044067,-1.752705693244934,-1.7752320766448975,-1.6552927494049072,-1.6461690664291382,0.10000000149011612,-0.10000000149011612,0.10000000149011612,-0.10000000149011612,0.800000011920929,0.800000011920929,1.0,1.0,-1.5,-1.5,-1.5,-1.5
1355,0.10476028919219971,-0.10978632420301437,0.10772745311260223,-0.08780483901500702,0.8484975099563599,0.844379723072052,1.0101189613342285,1.0087262392044067,-1.752705693244934,-1.7752724885940552,-1.655333161354065,-1.646209478378296,0.10000000149011612,-0.10000000149011612,0.10000000149011612,-0.10000000149011612,0.800000011920929,0.800000011920929,1.0,1.0,-1.5,-1.5,-1.5,-1.5
1356,0.10476028919219971,-0.10978632420301437,0.10772745311260223,-0.08780483901500702,0.8484975099563599,0.844379723072052,1.0101189613342285,1.0087262392044067,-1.752705693244934,-1.7752724885940552,-1.6552927494049072,-1.6461690664291382,0.10000000149011612,-0.10000000149011612,0.10000000149011612,-0.10000000149011612,0.800000011920929,0.800000011920929,1.0,1.0,-1.5,-1.5,-1.5,-1.5
